%
(1001)
(1.375in x 260.25mm aluminum tube)
(Machine)
(  vendor Tormach)
(  model 770M)
(  description Tormach 770M 3-axis)
(T1  D=0.375 CR=0. - ZMIN=-0.3011 - flat end mill)
G90 G54 G64 G50 G17 G40 G80 G94 G91.1 G49
G20 (Inch)
G30

N10(2D Adaptive2)
T1 G43 H1 M6
S5000 M3 M8
G54
G0 X-0.2883 Y-0.0686
G0 Z0.5906
G0 Z0.1969
G0 Z-0.2261
G1 Z-0.2636 F61.
G1 X-0.2882 Y-0.0689 Z-0.2681
G1 X-0.2881 Y-0.0697 Z-0.2725
G1 X-0.2878 Y-0.071 Z-0.2769
G1 X-0.2875 Y-0.0728 Z-0.281
G1 X-0.2871 Y-0.0751 Z-0.2849
G1 X-0.2866 Y-0.0779 Z-0.2884
G1 X-0.286 Y-0.081 Z-0.2916
G1 X-0.2854 Y-0.0845 Z-0.2944
G1 X-0.2847 Y-0.0884 Z-0.2968
G1 X-0.284 Y-0.0924 Z-0.2986
G1 X-0.2832 Y-0.0967 Z-0.3
G1 X-0.2825 Y-0.1011 Z-0.3008
G1 X-0.2817 Y-0.1055 Z-0.3011
G3 X-0.1882 Y-0.1865 I0.0969 J0.0174
G1 X-0.1699
G1 X-0.1684 Y-0.1864
G1 X-0.1612 Y-0.1809
G1 X-0.153 Y-0.1735
G1 X-0.1438 Y-0.1637
G1 X-0.1337 Y-0.151
G1 X-0.1227 Y-0.1347
G1 X-0.111 Y-0.1137
G1 X-0.0985 Y-0.0867
G1 X-0.0854 Y-0.0509
G1 X-0.073 Y-0.0063
G1 X-0.0638 Y0.0391
G1 X-0.0571 Y0.0849
G1 X-0.0555 Y0.0992
G1 X-0.0553 Y0.1139
G1 X-0.0578 Y0.1284
G1 X-0.063 Y0.1421
G1 X-0.0706 Y0.1547
G1 X-0.0804 Y0.1656
G1 X-0.092 Y0.1745
G1 X-0.1051 Y0.1811
G1 X-0.1193 Y0.1851
G1 X-0.1339 Y0.1865
G3 X-0.1698 Y0.1535 I0.0013 J-0.0375
G1 X-0.2058 Y-0.1445
G3 X-0.1699 Y-0.1865 I0.0372 J-0.0045
G1 X-0.1164
G1 X-0.1105 Y-0.1862
G1 X-0.1008 Y-0.1826
G1 X-0.0895 Y-0.1775
G1 X-0.0775 Y-0.1707
G1 X-0.0651 Y-0.1623
G1 X-0.051 Y-0.1511
G1 X-0.0372 Y-0.1382
G1 X-0.0221 Y-0.1216
G1 X-0.007 Y-0.102
G1 X0.0091 Y-0.0773
G1 X0.0235 Y-0.0506
G1 X0.0349 Y-0.0247
G1 X0.043 Y-0.0015
G1 X0.0487 Y0.0202
G1 X0.0525 Y0.0416
G1 X0.0543 Y0.061
G1 X0.0546 Y0.0808
G1 X0.0534 Y0.0986
G1 X0.0507 Y0.1167
G1 X0.0498 Y0.1209
G1 X0.0454 Y0.1344
G1 X0.0389 Y0.1471
G1 X0.0303 Y0.1584
G1 X0.02 Y0.1681
G1 X0.0082 Y0.176
G1 X-0.0048 Y0.1818
G1 X-0.0185 Y0.1853
G1 X-0.0327 Y0.1865
G3 X-0.0675 Y0.1592 I0.0013 J-0.0375
G1 X-0.1512 Y-0.1389
G3 X-0.1164 Y-0.1865 I0.0361 J-0.0101
G1 X-0.0439
G1 X-0.0388 Y-0.1863
G1 X-0.0296 Y-0.1855
G1 X-0.0187 Y-0.1837
G1 X-0.0075 Y-0.1809
G1 X0.0053 Y-0.1766
G1 X0.0185 Y-0.171
G1 X0.0329 Y-0.1634
G1 X0.0471 Y-0.1543
G1 X0.0621 Y-0.1431
G1 X0.0768 Y-0.13
G1 X0.091 Y-0.1152
G1 X0.1047 Y-0.0984
G1 X0.1175 Y-0.0798
G1 X0.1292 Y-0.0596
G1 X0.1394 Y-0.0381
G1 X0.148 Y-0.0155
G1 X0.1544 Y0.0067
G1 X0.1589 Y0.0288
G1 X0.1614 Y0.0491
G1 X0.1623 Y0.0694
G1 X0.1615 Y0.0884
G1 X0.1593 Y0.1066
G1 X0.1557 Y0.1244
G1 X0.15 Y0.1391
G1 X0.1416 Y0.1526
G1 X0.131 Y0.1642
G1 X0.1183 Y0.1737
G1 X0.1042 Y0.1807
G1 X0.089 Y0.1851
G1 X0.0733 Y0.1865
G1 X-0.0327
G3 X-0.0689 Y0.1505 I0.0013 J-0.0375
G1 X-0.0801 Y-0.1476
G3 X-0.0439 Y-0.1865 I0.0375 J-0.0014
G1 X0.0685
G1 X0.0757 Y-0.1862
G1 X0.0866 Y-0.1847
G1 X0.0978 Y-0.1823
G1 X0.1103 Y-0.1786
G1 X0.123 Y-0.1736
G1 X0.1368 Y-0.1669
G1 X0.1507 Y-0.1588
G1 X0.1649 Y-0.1488
G1 X0.1795 Y-0.1367
G1 X0.1935 Y-0.123
G1 X0.2071 Y-0.1074
G1 X0.2201 Y-0.0899
G1 X0.2321 Y-0.0706
G1 X0.2428 Y-0.0498
G1 X0.252 Y-0.0279
G1 X0.2595 Y-0.0049
G1 X0.2648 Y0.0173
G1 X0.2682 Y0.0392
G1 X0.2697 Y0.0591
G1 X0.2696 Y0.0794
G1 X0.268 Y0.0976
G1 X0.2649 Y0.1163
G1 X0.2634 Y0.1222
G1 X0.258 Y0.1373
G1 X0.2499 Y0.1512
G1 X0.2393 Y0.1633
G1 X0.2266 Y0.1732
G1 X0.2123 Y0.1805
G1 X0.1969 Y0.185
G1 X0.1809 Y0.1865
G1 X0.0733
G3 X0.0371 Y0.1496 I0.0013 J-0.0375
G1 X0.0323 Y-0.1484
G3 X0.0685 Y-0.1865 I0.0375 J-0.0006
G1 X0.1758
G1 X0.1853 Y-0.186
G1 X0.1955 Y-0.1847
G1 X0.2071 Y-0.1822
G1 X0.2189 Y-0.1787
G1 X0.232 Y-0.1736
G1 X0.245 Y-0.1672
G1 X0.259 Y-0.159
G1 X0.2732 Y-0.149
G1 X0.2871 Y-0.1375
G1 X0.3013 Y-0.1237
G1 X0.315 Y-0.1079
G1 X0.3278 Y-0.0906
G1 X0.3396 Y-0.0718
G1 X0.3502 Y-0.0511
G1 X0.3594 Y-0.0292
G1 X0.367 Y-0.006
G1 X0.3723 Y0.0161
G1 X0.3758 Y0.0385
G1 X0.3773 Y0.0586
G1 X0.3771 Y0.079
G1 X0.3756 Y0.0974
G1 X0.3724 Y0.1161
G1 X0.3713 Y0.1204
G1 X0.3667 Y0.1341
G1 X0.3598 Y0.1468
G1 X0.3509 Y0.1582
G1 X0.3403 Y0.168
G1 X0.3282 Y0.176
G1 X0.3149 Y0.1818
G1 X0.3009 Y0.1853
G1 X0.2865 Y0.1865
G1 X0.1809
G3 X0.1447 Y0.1497 I0.0013 J-0.0375
G1 X0.1396 Y-0.1484
G3 X0.1758 Y-0.1865 I0.0375 J-0.0006
G1 X0.2821
G1 X0.2936 Y-0.1859
G1 X0.3038 Y-0.1846
G1 X0.3153 Y-0.1821
G1 X0.327 Y-0.1786
G1 X0.34 Y-0.1736
G1 X0.353 Y-0.1673
G1 X0.3668 Y-0.1592
G1 X0.381 Y-0.1492
G1 X0.3949 Y-0.1377
G1 X0.4089 Y-0.124
G1 X0.4226 Y-0.1082
G1 X0.4354 Y-0.091
G1 X0.4471 Y-0.0721
G1 X0.4578 Y-0.0515
G1 X0.467 Y-0.0295
G1 X0.4745 Y-0.0063
G1 X0.4798 Y0.0157
G1 X0.4832 Y0.0376
G1 X0.4848 Y0.0583
G1 X0.4847 Y0.0777
G1 X0.483 Y0.0971
G1 X0.48 Y0.1148
G1 X0.4784 Y0.1211
G1 X0.4738 Y0.1346
G1 X0.467 Y0.1472
G1 X0.4582 Y0.1585
G1 X0.4477 Y0.1682
G1 X0.4357 Y0.1761
G1 X0.4226 Y0.1818
G1 X0.4087 Y0.1853
G1 X0.3945 Y0.1865
G1 X0.2865
G3 X0.2503 Y0.1496 I0.0013 J-0.0375
G1 X0.2459 Y-0.1485
G3 X0.2821 Y-0.1865 I0.0375 J-0.0006
G1 X0.3945
G1 X0.4013 Y-0.1862
G1 X0.4114 Y-0.1848
G1 X0.4229 Y-0.1824
G1 X0.4346 Y-0.1789
G1 X0.4476 Y-0.1738
G1 X0.4606 Y-0.1675
G1 X0.4744 Y-0.1594
G1 X0.4886 Y-0.1494
G1 X0.5024 Y-0.1379
G1 X0.5165 Y-0.1242
G1 X0.5302 Y-0.1085
G1 X0.5429 Y-0.0913
G1 X0.5546 Y-0.0725
G1 X0.5652 Y-0.052
G1 X0.5744 Y-0.03
G1 X0.5819 Y-0.0069
G1 X0.5873 Y0.0153
G1 X0.5907 Y0.0375
G1 X0.5923 Y0.0582
G1 X0.5922 Y0.0777
G1 X0.5905 Y0.0972
G1 X0.5875 Y0.1149
G1 X0.5847 Y0.1258
G1 X0.5797 Y0.1401
G1 X0.572 Y0.1532
G1 X0.562 Y0.1646
G1 X0.55 Y0.1739
G1 X0.5365 Y0.1808
G1 X0.522 Y0.1851
G1 X0.5069 Y0.1865
G1 X0.3945
G3 X0.3583 Y0.149 I0.0013 J-0.0375
G1 Y-0.149
G3 X0.3945 Y-0.1865 I0.0375 J0.
G1 X0.4956
G1 X0.5093 Y-0.1858
G1 X0.5193 Y-0.1845
G1 X0.5308 Y-0.1821
G1 X0.5424 Y-0.1786
G1 X0.5553 Y-0.1736
G1 X0.5684 Y-0.1672
G1 X0.582 Y-0.1592
G1 X0.5962 Y-0.1492
G1 X0.61 Y-0.1378
G1 X0.624 Y-0.1241
G1 X0.6377 Y-0.1084
G1 X0.6504 Y-0.0913
G1 X0.6621 Y-0.0724
G1 X0.6727 Y-0.0519
G1 X0.6819 Y-0.0299
G1 X0.6894 Y-0.0068
G1 X0.6949 Y0.016
G1 X0.6985 Y0.039
G1 X0.7 Y0.0595
G1 X0.6999 Y0.0801
G1 X0.6983 Y0.0987
G1 X0.6952 Y0.1174
G1 X0.6944 Y0.1204
G1 X0.6897 Y0.1341
G1 X0.6829 Y0.1468
G1 X0.674 Y0.1582
G1 X0.6633 Y0.168
G1 X0.6512 Y0.176
G1 X0.638 Y0.1818
G1 X0.624 Y0.1853
G1 X0.6096 Y0.1865
G1 X0.5069
G3 X0.4707 Y0.1505 I0.0013 J-0.0375
G1 X0.4595 Y-0.1476
G3 X0.4956 Y-0.1865 I0.0375 J-0.0014
G1 X0.608
G1 X0.6165 Y-0.1861
G1 X0.6266 Y-0.1848
G1 X0.6381 Y-0.1823
G1 X0.6498 Y-0.1788
G1 X0.6627 Y-0.1738
G1 X0.6757 Y-0.1675
G1 X0.6894 Y-0.1594
G1 X0.7036 Y-0.1494
G1 X0.7175 Y-0.138
G1 X0.7315 Y-0.1242
G1 X0.7453 Y-0.1085
G1 X0.7581 Y-0.0912
G1 X0.7699 Y-0.0722
G1 X0.7806 Y-0.0514
G1 X0.7899 Y-0.0292
G1 X0.7975 Y-0.0059
G1 X0.8028 Y0.016
G1 X0.8062 Y0.0379
G1 X0.8077 Y0.0585
G1 X0.8076 Y0.0778
G1 X0.8059 Y0.0972
G1 X0.803 Y0.1149
G1 X0.8007 Y0.124
G1 X0.7954 Y0.1387
G1 X0.7875 Y0.1522
G1 X0.7772 Y0.1639
G1 X0.7649 Y0.1736
G1 X0.751 Y0.1807
G1 X0.736 Y0.185
G1 X0.7204 Y0.1865
G1 X0.6096
G3 X0.5734 Y0.1492 I0.0013 J-0.0375
G1 X0.5718 Y-0.1488
G3 X0.608 Y-0.1865 I0.0375 J-0.0002
G1 X0.7154
G1 X0.7242 Y-0.1861
G1 X0.7343 Y-0.1848
G1 X0.7458 Y-0.1823
G1 X0.7574 Y-0.1788
G1 X0.7704 Y-0.1737
G1 X0.7834 Y-0.1674
G1 X0.7972 Y-0.1593
G1 X0.8114 Y-0.1493
G1 X0.8253 Y-0.1378
G1 X0.8394 Y-0.1241
G1 X0.8531 Y-0.1084
G1 X0.8658 Y-0.0912
G1 X0.8776 Y-0.0723
G1 X0.8881 Y-0.0518
G1 X0.8973 Y-0.0298
G1 X0.9049 Y-0.0068
G1 X0.9103 Y0.0158
G1 X0.9138 Y0.0385
G1 X0.9153 Y0.0588
G1 X0.9152 Y0.0794
G1 X0.9136 Y0.0979
G1 X0.9105 Y0.1166
G1 X0.9095 Y0.1204
G1 X0.9049 Y0.1341
G1 X0.898 Y0.1468
G1 X0.8891 Y0.1582
G1 X0.8785 Y0.168
G1 X0.8664 Y0.176
G1 X0.8531 Y0.1818
G1 X0.8391 Y0.1853
G1 X0.8247 Y0.1865
G1 X0.7204
G3 X0.6843 Y0.1497 I0.0013 J-0.0375
G1 X0.6792 Y-0.1484
G3 X0.7154 Y-0.1865 I0.0375 J-0.0006
G1 X0.8216
G1 X0.832 Y-0.186
G1 X0.8421 Y-0.1847
G1 X0.8536 Y-0.1822
G1 X0.8652 Y-0.1787
G1 X0.8781 Y-0.1737
G1 X0.8912 Y-0.1674
G1 X0.9049 Y-0.1593
G1 X0.9191 Y-0.1493
G1 X0.9329 Y-0.1379
G1 X0.9469 Y-0.1242
G1 X0.9607 Y-0.1084
G1 X0.9734 Y-0.0912
G1 X0.9852 Y-0.0723
G1 X0.9959 Y-0.0515
G1 X1.0051 Y-0.0295
G1 X1.0127 Y-0.0062
G1 X1.018 Y0.0158
G1 X1.0214 Y0.0377
G1 X1.0229 Y0.0583
G1 X1.0228 Y0.0777
G1 X1.0211 Y0.0971
G1 X1.0182 Y0.1148
G1 X1.0163 Y0.1224
G1 X1.0109 Y0.1375
G1 X1.0028 Y0.1513
G1 X0.9922 Y0.1634
G1 X0.9796 Y0.1732
G1 X0.9653 Y0.1805
G1 X0.95 Y0.185
G1 X0.934 Y0.1865
G1 X0.8247
G3 X0.7885 Y0.1494 I0.0013 J-0.0375
G1 X0.7854 Y-0.1487
G3 X0.8216 Y-0.1865 I0.0375 J-0.0004
G1 X0.929
G1 X0.9396 Y-0.186
G1 X0.9497 Y-0.1847
G1 X0.9612 Y-0.1822
G1 X0.9728 Y-0.1787
G1 X0.9858 Y-0.1737
G1 X0.9988 Y-0.1673
G1 X1.0125 Y-0.1593
G1 X1.0268 Y-0.1493
G1 X1.0406 Y-0.1378
G1 X1.0546 Y-0.1241
G1 X1.0683 Y-0.1084
G1 X1.0811 Y-0.0912
G1 X1.0928 Y-0.0723
G1 X1.1034 Y-0.0518
G1 X1.1125 Y-0.0299
G1 X1.1201 Y-0.0068
G1 X1.1254 Y0.0154
G1 X1.1289 Y0.038
G1 X1.1305 Y0.0582
G1 X1.1303 Y0.0788
G1 X1.1287 Y0.0972
G1 X1.1256 Y0.116
G1 X1.1245 Y0.1204
G1 X1.1198 Y0.1341
G1 X1.1129 Y0.1468
G1 X1.1041 Y0.1582
G1 X1.0934 Y0.168
G1 X1.0813 Y0.176
G1 X1.0681 Y0.1818
G1 X1.054 Y0.1853
G1 X1.0396 Y0.1865
G1 X0.934
G3 X0.8978 Y0.1497 I0.0013 J-0.0375
G1 X0.8928 Y-0.1484
G3 X0.929 Y-0.1865 I0.0375 J-0.0006
G1 X1.0352
G1 X1.0473 Y-0.1859
G1 X1.0574 Y-0.1846
G1 X1.0689 Y-0.1821
G1 X1.0805 Y-0.1786
G1 X1.0934 Y-0.1736
G1 X1.1064 Y-0.1673
G1 X1.1201 Y-0.1592
G1 X1.1343 Y-0.1493
G1 X1.1481 Y-0.1378
G1 X1.1621 Y-0.1241
G1 X1.1758 Y-0.1084
G1 X1.1886 Y-0.0912
G1 X1.2003 Y-0.0724
G1 X1.211 Y-0.0517
G1 X1.2201 Y-0.0297
G1 X1.2277 Y-0.0066
G1 X1.233 Y0.0155
G1 X1.2364 Y0.0375
G1 X1.238 Y0.0581
G1 X1.2379 Y0.0776
G1 X1.2362 Y0.097
G1 X1.2332 Y0.1147
G1 X1.2316 Y0.121
G1 X1.227 Y0.1346
G1 X1.2202 Y0.1472
G1 X1.2114 Y0.1585
G1 X1.2009 Y0.1682
G1 X1.1889 Y0.1761
G1 X1.1758 Y0.1818
G1 X1.1619 Y0.1853
G1 X1.1476 Y0.1865
G1 X1.0396
G3 X1.0034 Y0.1496 I0.0013 J-0.0375
G1 X0.999 Y-0.1485
G3 X1.0352 Y-0.1865 I0.0375 J-0.0006
G1 X1.1476
G1 X1.1546 Y-0.1862
G1 X1.1648 Y-0.1848
G1 X1.1762 Y-0.1824
G1 X1.1879 Y-0.1789
G1 X1.2009 Y-0.1738
G1 X1.2139 Y-0.1675
G1 X1.2276 Y-0.1594
G1 X1.2418 Y-0.1495
G1 X1.2557 Y-0.138
G1 X1.2697 Y-0.1243
G1 X1.2834 Y-0.1086
G1 X1.2961 Y-0.0914
G1 X1.3078 Y-0.0725
G1 X1.3184 Y-0.052
G1 X1.3276 Y-0.03
G1 X1.3351 Y-0.007
G1 X1.3405 Y0.0152
G1 X1.3439 Y0.0374
G1 X1.3455 Y0.0581
G1 X1.3454 Y0.0645
G1 X1.344 Y0.0796
G1 X1.34 Y0.0943
G1 X1.3336 Y0.108
G1 X1.3248 Y0.1204
G1 X1.3162 Y0.1306
G1 X1.312 Y0.1346
G1 X1.305 Y0.1411
G1 X1.2937 Y0.1495
G1 X1.2835 Y0.157
G1 X1.2825 Y0.1576
G1 X1.2635 Y0.1682
G1 X1.26 Y0.1698
G1 X1.2488 Y0.1745
G1 X1.2375 Y0.1779
G1 X1.2263 Y0.1811
G1 X1.2151 Y0.1836
G1 X1.2038 Y0.1851
G1 X1.1926 Y0.1861
G1 X1.1813 Y0.1864
G1 X1.1701 Y0.1865
G1 X1.1476
G3 X1.1114 Y0.149 I0.0013 J-0.0375
G1 Y-0.149
G3 X1.1476 Y-0.1865 I0.0375 J0.
G1 X1.1701
G1 X1.1813 Y-0.1864
G1 X1.1926 Y-0.1861
G1 X1.2038 Y-0.1851
G1 X1.2151 Y-0.1836
G1 X1.2263 Y-0.1811
G1 X1.2375 Y-0.1779
G1 X1.2488 Y-0.1745
G1 X1.26 Y-0.1698
G1 X1.2635 Y-0.1682
G1 X1.2825 Y-0.1576
G1 X1.2835 Y-0.157
G1 X1.2937 Y-0.1495
G1 X1.305 Y-0.1411
G1 X1.312 Y-0.1346
G1 X1.3162 Y-0.1306
G1 X1.3224 Y-0.1234
G1 X1.3318 Y-0.1122
G1 X1.3387 Y-0.102
G1 X1.3464 Y-0.0897
G1 X1.3499 Y-0.0832
G1 X1.352 Y-0.0785
G1 X1.3568 Y-0.0673
G1 X1.3607 Y-0.0561
G1 X1.364 Y-0.0449
G1 X1.3661 Y-0.0336
G1 X1.3681 Y-0.0224
G1 X1.3689 Y-0.0112
G1 X1.3696 Y0.
G1 X1.3689 Y0.0112
G1 X1.3681 Y0.0224
G1 X1.3661 Y0.0336
G1 X1.364 Y0.0449
G1 X1.3607 Y0.0561
G1 X1.3568 Y0.0673
G1 X1.352 Y0.0785
G1 X1.3499 Y0.0832
G1 X1.3464 Y0.0897
G1 X1.3387 Y0.102
G1 X1.3318 Y0.1122
G1 X1.3248 Y0.1204
G3 X1.2974 Y0.1328 I-0.0278 J-0.0252
G1 X1.2929 Z-0.3008
G1 X1.2885 Z-0.3
G1 X1.2842 Y0.1329 Z-0.2986
G1 X1.28 Z-0.2968
G1 X1.2761 Y0.133 Z-0.2944
G1 X1.2726 Z-0.2916
G1 X1.2694 Y0.1331 Z-0.2884
G1 X1.2666 Z-0.2849
G1 X1.2642 Z-0.281
G1 X1.2624 Z-0.2769
G1 X1.261 Y0.1332 Z-0.2725
G1 X1.2602 Z-0.2681
G1 X1.26 Z-0.2636
G0 Z0.5906
M5 M9

G30
M30
%
