%
(1001)
(1.375in x 260.25mm aluminum tube)
(Machine)
(  vendor Tormach)
(  model 770M)
(  description Tormach 770M 3-axis)
(T1  D=0.375 CR=0. - ZMIN=-0.4192 - flat end mill)
G90 G54 G64 G50 G17 G40 G80 G94 G91.1 G49
G20 (Inch)
G30

N10(2D Adaptive3)
T1 G43 H1 M6
S5000 M3 M8
G54
G0 X10.5344 Y0.0686
G0 Z0.5906
G0 Z0.1969
G0 Z-0.3442
G1 Z-0.3817 F61.
G1 X10.5343 Y0.0689 Z-0.3862
G1 X10.5342 Y0.0697 Z-0.3906
G1 X10.5339 Y0.071 Z-0.395
G1 X10.5336 Y0.0728 Z-0.3991
G1 X10.5332 Y0.0751 Z-0.403
G1 X10.5327 Y0.0779 Z-0.4065
G1 X10.5321 Y0.081 Z-0.4097
G1 X10.5315 Y0.0845 Z-0.4125
G1 X10.5308 Y0.0884 Z-0.4149
G1 X10.5301 Y0.0924 Z-0.4167
G1 X10.5293 Y0.0967 Z-0.4181
G1 X10.5285 Y0.1011 Z-0.4189
G1 X10.5277 Y0.1055 Z-0.4192
G3 X10.4343 Y0.1865 I-0.0969 J-0.0174
G1 X10.4159
G1 X10.4145 Y0.1864
G1 X10.4073 Y0.1809
G1 X10.3991 Y0.1735
G1 X10.3899 Y0.1637
G1 X10.3798 Y0.151
G1 X10.3688 Y0.1347
G1 X10.3571 Y0.1138
G1 X10.3446 Y0.0867
G1 X10.3315 Y0.051
G1 X10.319 Y0.0064
G1 X10.3099 Y-0.039
G1 X10.3032 Y-0.0848
G1 X10.3016 Y-0.0992
G1 X10.3014 Y-0.1139
G1 X10.3039 Y-0.1284
G1 X10.309 Y-0.1421
G1 X10.3167 Y-0.1547
G1 X10.3265 Y-0.1656
G1 X10.3381 Y-0.1745
G1 X10.3512 Y-0.1811
G1 X10.3653 Y-0.1851
G1 X10.3799 Y-0.1865
G3 X10.4159 Y-0.1535 I-0.0013 J0.0375
G1 X10.4519 Y0.1445
G3 X10.4159 Y0.1865 I-0.0372 J0.0045
G1 X10.3625
G1 X10.3566 Y0.1862
G1 X10.3469 Y0.1826
G1 X10.3356 Y0.1775
G1 X10.3236 Y0.1707
G1 X10.3112 Y0.1623
G1 X10.2971 Y0.1511
G1 X10.2833 Y0.1382
G1 X10.2682 Y0.1216
G1 X10.2531 Y0.102
G1 X10.237 Y0.0773
G1 X10.2226 Y0.0506
G1 X10.2112 Y0.0248
G1 X10.2031 Y0.0015
G1 X10.1974 Y-0.0202
G1 X10.1936 Y-0.0416
G1 X10.1918 Y-0.061
G1 X10.1915 Y-0.0808
G1 X10.1927 Y-0.0985
G1 X10.1953 Y-0.1167
G1 X10.1963 Y-0.1209
G1 X10.2007 Y-0.1344
G1 X10.2072 Y-0.147
G1 X10.2158 Y-0.1584
G1 X10.2261 Y-0.1681
G1 X10.2379 Y-0.176
G1 X10.2509 Y-0.1818
G1 X10.2646 Y-0.1853
G1 X10.2788 Y-0.1865
G3 X10.3136 Y-0.1592 I-0.0013 J0.0375
G1 X10.3973 Y0.1389
G3 X10.3625 Y0.1865 I-0.0361 J0.0101
G1 X10.29
G1 X10.2849 Y0.1863
G1 X10.2757 Y0.1855
G1 X10.2648 Y0.1837
G1 X10.2535 Y0.1809
G1 X10.2407 Y0.1766
G1 X10.2276 Y0.171
G1 X10.2132 Y0.1634
G1 X10.199 Y0.1544
G1 X10.184 Y0.1431
G1 X10.1692 Y0.13
G1 X10.1551 Y0.1152
G1 X10.1414 Y0.0984
G1 X10.1286 Y0.0798
G1 X10.1169 Y0.0596
G1 X10.1067 Y0.0381
G1 X10.0981 Y0.0155
G1 X10.0917 Y-0.0067
G1 X10.0871 Y-0.0288
G1 X10.0847 Y-0.0491
G1 X10.0838 Y-0.0694
G1 X10.0846 Y-0.0884
G1 X10.0867 Y-0.1066
G1 X10.0903 Y-0.1244
G1 X10.0961 Y-0.1391
G1 X10.1044 Y-0.1525
G1 X10.1151 Y-0.1642
G1 X10.1277 Y-0.1737
G1 X10.1419 Y-0.1807
G1 X10.1571 Y-0.1851
G1 X10.1728 Y-0.1865
G1 X10.2788
G3 X10.3149 Y-0.1505 I-0.0013 J0.0375
G1 X10.3262 Y0.1476
G3 X10.29 Y0.1865 I-0.0375 J0.0014
G1 X10.1776
G1 X10.1703 Y0.1862
G1 X10.1595 Y0.1847
G1 X10.1483 Y0.1823
G1 X10.1357 Y0.1786
G1 X10.1231 Y0.1736
G1 X10.1093 Y0.1669
G1 X10.0954 Y0.1588
G1 X10.0812 Y0.1488
G1 X10.0666 Y0.1367
G1 X10.0526 Y0.123
G1 X10.039 Y0.1074
G1 X10.026 Y0.0899
G1 X10.014 Y0.0706
G1 X10.0033 Y0.0498
G1 X9.9941 Y0.0279
G1 X9.9866 Y0.0049
G1 X9.9813 Y-0.0173
G1 X9.9778 Y-0.0392
G1 X9.9764 Y-0.0591
G1 X9.9765 Y-0.0794
G1 X9.978 Y-0.0976
G1 X9.9812 Y-0.1163
G1 X9.9827 Y-0.1222
G1 X9.9881 Y-0.1373
G1 X9.9962 Y-0.1512
G1 X10.0068 Y-0.1633
G1 X10.0195 Y-0.1732
G1 X10.0338 Y-0.1805
G1 X10.0492 Y-0.185
G1 X10.0652 Y-0.1865
G1 X10.1728
G3 X10.209 Y-0.1496 I-0.0013 J0.0375
G1 X10.2138 Y0.1484
G3 X10.1776 Y0.1865 I-0.0375 J0.0006
G1 X10.0703
G1 X10.0608 Y0.186
G1 X10.0506 Y0.1847
G1 X10.039 Y0.1822
G1 X10.0272 Y0.1787
G1 X10.0141 Y0.1736
G1 X10.001 Y0.1672
G1 X9.9871 Y0.159
G1 X9.9729 Y0.149
G1 X9.9589 Y0.1375
G1 X9.9448 Y0.1237
G1 X9.931 Y0.1079
G1 X9.9183 Y0.0906
G1 X9.9065 Y0.0718
G1 X9.8958 Y0.0511
G1 X9.8867 Y0.0292
G1 X9.8791 Y0.006
G1 X9.8738 Y-0.0161
G1 X9.8703 Y-0.0385
G1 X9.8688 Y-0.0586
G1 X9.8689 Y-0.079
G1 X9.8705 Y-0.0974
G1 X9.8737 Y-0.1161
G1 X9.8747 Y-0.1204
G1 X9.8794 Y-0.1341
G1 X9.8863 Y-0.1468
G1 X9.8952 Y-0.1582
G1 X9.9058 Y-0.168
G1 X9.9179 Y-0.176
G1 X9.9311 Y-0.1818
G1 X9.9452 Y-0.1853
G1 X9.9596 Y-0.1865
G1 X10.0652
G3 X10.1014 Y-0.1497 I-0.0013 J0.0375
G1 X10.1064 Y0.1484
G3 X10.0703 Y0.1865 I-0.0375 J0.0006
G1 X9.964
G1 X9.9524 Y0.1859
G1 X9.9423 Y0.1846
G1 X9.9308 Y0.1821
G1 X9.9191 Y0.1786
G1 X9.9061 Y0.1736
G1 X9.8931 Y0.1673
G1 X9.8793 Y0.1592
G1 X9.8651 Y0.1492
G1 X9.8512 Y0.1377
G1 X9.8372 Y0.124
G1 X9.8234 Y0.1082
G1 X9.8107 Y0.091
G1 X9.799 Y0.0721
G1 X9.7883 Y0.0515
G1 X9.7791 Y0.0295
G1 X9.7716 Y0.0063
G1 X9.7663 Y-0.0157
G1 X9.7628 Y-0.0376
G1 X9.7613 Y-0.0583
G1 X9.7614 Y-0.0777
G1 X9.7631 Y-0.0971
G1 X9.7661 Y-0.1148
G1 X9.7676 Y-0.1211
G1 X9.7723 Y-0.1346
G1 X9.7791 Y-0.1472
G1 X9.7879 Y-0.1585
G1 X9.7984 Y-0.1682
G1 X9.8104 Y-0.1761
G1 X9.8235 Y-0.1818
G1 X9.8374 Y-0.1853
G1 X9.8516 Y-0.1865
G1 X9.9596
G3 X9.9958 Y-0.1496 I-0.0013 J0.0375
G1 X10.0002 Y0.1485
G3 X9.964 Y0.1865 I-0.0375 J0.0006
G1 X9.8516
G1 X9.8448 Y0.1862
G1 X9.8347 Y0.1848
G1 X9.8232 Y0.1824
G1 X9.8115 Y0.1789
G1 X9.7985 Y0.1738
G1 X9.7855 Y0.1675
G1 X9.7717 Y0.1594
G1 X9.7575 Y0.1494
G1 X9.7436 Y0.1379
G1 X9.7296 Y0.1242
G1 X9.7159 Y0.1085
G1 X9.7032 Y0.0913
G1 X9.6914 Y0.0725
G1 X9.6809 Y0.052
G1 X9.6717 Y0.03
G1 X9.6641 Y0.0069
G1 X9.6588 Y-0.0153
G1 X9.6554 Y-0.0375
G1 X9.6538 Y-0.0582
G1 X9.6539 Y-0.0777
G1 X9.6556 Y-0.0972
G1 X9.6586 Y-0.1149
G1 X9.6613 Y-0.1258
G1 X9.6664 Y-0.1401
G1 X9.6741 Y-0.1532
G1 X9.6841 Y-0.1646
G1 X9.696 Y-0.1739
G1 X9.7095 Y-0.1808
G1 X9.7241 Y-0.1851
G1 X9.7392 Y-0.1865
G1 X9.8516
G3 X9.8878 Y-0.149 I-0.0013 J0.0375
G1 Y0.149
G3 X9.8516 Y0.1865 I-0.0375 J0.
G1 X9.7505
G1 X9.7368 Y0.1858
G1 X9.7267 Y0.1845
G1 X9.7153 Y0.1821
G1 X9.7036 Y0.1786
G1 X9.6907 Y0.1736
G1 X9.6777 Y0.1672
G1 X9.664 Y0.1592
G1 X9.6499 Y0.1492
G1 X9.6361 Y0.1378
G1 X9.6221 Y0.1241
G1 X9.6084 Y0.1084
G1 X9.5957 Y0.0913
G1 X9.584 Y0.0724
G1 X9.5734 Y0.0519
G1 X9.5642 Y0.0299
G1 X9.5566 Y0.0068
G1 X9.5512 Y-0.016
G1 X9.5476 Y-0.039
G1 X9.546 Y-0.0595
G1 X9.5462 Y-0.0801
G1 X9.5478 Y-0.0987
G1 X9.5509 Y-0.1174
G1 X9.5517 Y-0.1204
G1 X9.5563 Y-0.1341
G1 X9.5632 Y-0.1468
G1 X9.5721 Y-0.1582
G1 X9.5827 Y-0.168
G1 X9.5948 Y-0.176
G1 X9.6081 Y-0.1818
G1 X9.6221 Y-0.1853
G1 X9.6365 Y-0.1865
G1 X9.7392
G3 X9.7754 Y-0.1505 I-0.0013 J0.0375
G1 X9.7866 Y0.1476
G3 X9.7505 Y0.1865 I-0.0375 J0.0014
G1 X9.638
G1 X9.6295 Y0.1861
G1 X9.6194 Y0.1848
G1 X9.6079 Y0.1823
G1 X9.5963 Y0.1788
G1 X9.5834 Y0.1738
G1 X9.5703 Y0.1675
G1 X9.5566 Y0.1594
G1 X9.5424 Y0.1494
G1 X9.5286 Y0.138
G1 X9.5146 Y0.1242
G1 X9.5008 Y0.1085
G1 X9.488 Y0.0912
G1 X9.4762 Y0.0722
G1 X9.4655 Y0.0514
G1 X9.4562 Y0.0293
G1 X9.4486 Y0.0059
G1 X9.4433 Y-0.016
G1 X9.4399 Y-0.0379
G1 X9.4384 Y-0.0585
G1 X9.4385 Y-0.0778
G1 X9.4402 Y-0.0972
G1 X9.4431 Y-0.1149
G1 X9.4454 Y-0.124
G1 X9.4506 Y-0.1387
G1 X9.4586 Y-0.1522
G1 X9.4688 Y-0.1639
G1 X9.4812 Y-0.1736
G1 X9.4951 Y-0.1807
G1 X9.5101 Y-0.185
G1 X9.5256 Y-0.1865
G1 X9.6365
G3 X9.6727 Y-0.1492 I-0.0013 J0.0375
G1 X9.6742 Y0.1488
G3 X9.638 Y0.1865 I-0.0375 J0.0002
G1 X9.5307
G1 X9.5219 Y0.1861
G1 X9.5118 Y0.1848
G1 X9.5003 Y0.1823
G1 X9.4886 Y0.1788
G1 X9.4757 Y0.1737
G1 X9.4626 Y0.1674
G1 X9.4488 Y0.1593
G1 X9.4346 Y0.1493
G1 X9.4207 Y0.1378
G1 X9.4067 Y0.1241
G1 X9.393 Y0.1084
G1 X9.3803 Y0.0912
G1 X9.3685 Y0.0723
G1 X9.3579 Y0.0518
G1 X9.3487 Y0.0298
G1 X9.3412 Y0.0068
G1 X9.3358 Y-0.0158
G1 X9.3323 Y-0.0385
G1 X9.3307 Y-0.0588
G1 X9.3309 Y-0.0794
G1 X9.3325 Y-0.0979
G1 X9.3356 Y-0.1166
G1 X9.3365 Y-0.1204
G1 X9.3412 Y-0.1341
G1 X9.3481 Y-0.1468
G1 X9.357 Y-0.1582
G1 X9.3676 Y-0.168
G1 X9.3797 Y-0.176
G1 X9.393 Y-0.1818
G1 X9.407 Y-0.1853
G1 X9.4214 Y-0.1865
G1 X9.5256
G3 X9.5618 Y-0.1497 I-0.0013 J0.0375
G1 X9.5669 Y0.1484
G3 X9.5307 Y0.1865 I-0.0375 J0.0006
G1 X9.4245
G1 X9.4141 Y0.186
G1 X9.404 Y0.1847
G1 X9.3925 Y0.1822
G1 X9.3809 Y0.1787
G1 X9.3679 Y0.1737
G1 X9.3549 Y0.1674
G1 X9.3412 Y0.1593
G1 X9.327 Y0.1493
G1 X9.3132 Y0.1379
G1 X9.2992 Y0.1242
G1 X9.2854 Y0.1084
G1 X9.2727 Y0.0912
G1 X9.2609 Y0.0723
G1 X9.2502 Y0.0515
G1 X9.241 Y0.0295
G1 X9.2334 Y0.0062
G1 X9.2281 Y-0.0158
G1 X9.2247 Y-0.0377
G1 X9.2231 Y-0.0583
G1 X9.2233 Y-0.0777
G1 X9.2249 Y-0.0971
G1 X9.2279 Y-0.1148
G1 X9.2298 Y-0.1224
G1 X9.2352 Y-0.1375
G1 X9.2433 Y-0.1513
G1 X9.2538 Y-0.1634
G1 X9.2665 Y-0.1732
G1 X9.2807 Y-0.1805
G1 X9.2961 Y-0.185
G1 X9.3121 Y-0.1865
G1 X9.4214
G3 X9.4576 Y-0.1494 I-0.0013 J0.0375
G1 X9.4607 Y0.1487
G3 X9.4245 Y0.1865 I-0.0375 J0.0004
G1 X9.3171
G1 X9.3065 Y0.186
G1 X9.2964 Y0.1847
G1 X9.2849 Y0.1822
G1 X9.2733 Y0.1787
G1 X9.2603 Y0.1737
G1 X9.2473 Y0.1673
G1 X9.2335 Y0.1593
G1 X9.2193 Y0.1493
G1 X9.2055 Y0.1378
G1 X9.1914 Y0.1241
G1 X9.1777 Y0.1084
G1 X9.165 Y0.0912
G1 X9.1533 Y0.0723
G1 X9.1427 Y0.0518
G1 X9.1335 Y0.0299
G1 X9.126 Y0.0068
G1 X9.1207 Y-0.0154
G1 X9.1171 Y-0.038
G1 X9.1156 Y-0.0582
G1 X9.1157 Y-0.0788
G1 X9.1173 Y-0.0972
G1 X9.1205 Y-0.116
G1 X9.1216 Y-0.1204
G1 X9.1263 Y-0.1341
G1 X9.1331 Y-0.1468
G1 X9.142 Y-0.1582
G1 X9.1527 Y-0.168
G1 X9.1648 Y-0.176
G1 X9.178 Y-0.1818
G1 X9.192 Y-0.1853
G1 X9.2064 Y-0.1865
G1 X9.3121
G3 X9.3482 Y-0.1497 I-0.0013 J0.0375
G1 X9.3533 Y0.1484
G3 X9.3171 Y0.1865 I-0.0375 J0.0006
G1 X9.2109
G1 X9.1988 Y0.1859
G1 X9.1887 Y0.1846
G1 X9.1772 Y0.1821
G1 X9.1656 Y0.1786
G1 X9.1527 Y0.1736
G1 X9.1396 Y0.1673
G1 X9.1259 Y0.1592
G1 X9.1117 Y0.1493
G1 X9.0979 Y0.1378
G1 X9.0839 Y0.1241
G1 X9.0702 Y0.1084
G1 X9.0575 Y0.0912
G1 X9.0458 Y0.0724
G1 X9.0351 Y0.0517
G1 X9.0259 Y0.0297
G1 X9.0184 Y0.0066
G1 X9.0131 Y-0.0155
G1 X9.0096 Y-0.0375
G1 X9.0081 Y-0.0581
G1 X9.0082 Y-0.0776
G1 X9.0099 Y-0.097
G1 X9.0129 Y-0.1147
G1 X9.0144 Y-0.121
G1 X9.0191 Y-0.1346
G1 X9.0259 Y-0.1472
G1 X9.0347 Y-0.1585
G1 X9.0452 Y-0.1682
G1 X9.0572 Y-0.1761
G1 X9.0703 Y-0.1818
G1 X9.0842 Y-0.1853
G1 X9.0985 Y-0.1865
G1 X9.2064
G3 X9.2426 Y-0.1496 I-0.0013 J0.0375
G1 X9.2471 Y0.1485
G3 X9.2109 Y0.1865 I-0.0375 J0.0006
G1 X9.0985
G1 X9.0914 Y0.1862
G1 X9.0813 Y0.1848
G1 X9.0698 Y0.1824
G1 X9.0582 Y0.1789
G1 X9.0452 Y0.1738
G1 X9.0322 Y0.1675
G1 X9.0185 Y0.1594
G1 X9.0042 Y0.1495
G1 X8.9904 Y0.138
G1 X8.9764 Y0.1243
G1 X8.9627 Y0.1086
G1 X8.95 Y0.0914
G1 X8.9382 Y0.0725
G1 X8.9277 Y0.052
G1 X8.9185 Y0.03
G1 X8.9109 Y0.007
G1 X8.9056 Y-0.0152
G1 X8.9021 Y-0.0374
G1 X8.9006 Y-0.0581
G1 Y-0.0628
G1 X8.9016 Y-0.0756
G1 X8.9045 Y-0.0882
G1 X8.9092 Y-0.1002
G1 X8.9157 Y-0.1113
G1 X8.9162 Y-0.1122
G1 X8.9299 Y-0.1284
G1 X8.9359 Y-0.1346
G1 X8.9411 Y-0.1393
G1 X8.9523 Y-0.1481
G1 X8.9636 Y-0.1564
G1 X8.9748 Y-0.1629
G1 X8.9846 Y-0.1682
G1 X8.9973 Y-0.1737
G1 X9.0085 Y-0.1774
G1 X9.0198 Y-0.1806
G1 X9.031 Y-0.1833
G1 X9.0423 Y-0.1849
G1 X9.0535 Y-0.186
G1 X9.0647 Y-0.1864
G1 X9.076 Y-0.1865
G1 X9.0985
G3 X9.1347 Y-0.149 I-0.0013 J0.0375
G1 Y0.149
G3 X9.0985 Y0.1865 I-0.0375 J0.
G1 X9.076
G1 X9.0647 Y0.1864
G1 X9.0535 Y0.186
G1 X9.0423 Y0.1849
G1 X9.031 Y0.1833
G1 X9.0198 Y0.1806
G1 X9.0085 Y0.1774
G1 X8.9973 Y0.1737
G1 X8.9846 Y0.1682
G1 X8.9748 Y0.1629
G1 X8.9636 Y0.1564
G1 X8.9523 Y0.1481
G1 X8.9411 Y0.1393
G1 X8.9359 Y0.1346
G1 X8.9299 Y0.1284
G1 X8.9162 Y0.1122
G1 X8.9086 Y0.1009
G1 X8.9016 Y0.0897
G1 X8.8958 Y0.0785
G1 X8.8912 Y0.0673
G1 X8.8873 Y0.0561
G1 X8.884 Y0.0449
G1 X8.8819 Y0.0336
G1 X8.8799 Y0.0224
G1 X8.8791 Y0.0112
G1 X8.8785 Y0.
G1 X8.8791 Y-0.0112
G1 X8.8799 Y-0.0224
G1 X8.8819 Y-0.0336
G1 X8.884 Y-0.0449
G1 X8.8873 Y-0.0561
G1 X8.8912 Y-0.0673
G1 X8.8958 Y-0.0785
G1 X8.9016 Y-0.0897
G1 X8.9086 Y-0.1009
G1 X8.9157 Y-0.1113
G3 X8.9416 Y-0.1265 I0.0303 J0.0221
G1 X8.9461 Y-0.127 Z-0.4189
G1 X8.9505 Y-0.1275 Z-0.4181
G1 X8.9548 Y-0.128 Z-0.4167
G1 X8.9589 Y-0.1285 Z-0.4149
G1 X8.9628 Y-0.129 Z-0.4125
G1 X8.9663 Y-0.1294 Z-0.4097
G1 X8.9695 Y-0.1298 Z-0.4065
G1 X8.9723 Y-0.1301 Z-0.403
G1 X8.9746 Y-0.1304 Z-0.3991
G1 X8.9764 Y-0.1306 Z-0.395
G1 X8.9778 Y-0.1307 Z-0.3906
G1 X8.9786 Y-0.1308 Z-0.3862
G1 X8.9788 Z-0.3817
G0 Z0.5906
M5 M9

G30
M30
%
