%
(Adapter-secondFace)
(Machine)
(  vendor Tormach)
(  model 770M)
(  description Tormach 770M 3-axis)
(T1  D=0.375 CR=0. - ZMIN=-0.3583 - flat end mill)
G90 G54 G64 G50 G17 G40 G80 G94 G91.1 G49
G20 (Inch)
G30

N10(Face10)
T1 G43 H1 M6
S5000 M3 M8
G54
G0 X2.2516 Y-1.8568
G0 Z0.5906
G0 Z0.1969
G1 Z0.004 F61.
G1 X2.2514 Z-0.0005
G1 X2.2505 Z-0.0049
G1 X2.2492 Z-0.0093
G1 X2.2473 Z-0.0134
G1 X2.245 Z-0.0173
G1 X2.2422 Z-0.0208
G1 X2.239 Z-0.024
G1 X2.2354 Z-0.0268
G1 X2.2316 Z-0.0292
G1 X2.2274 Z-0.031
G1 X2.2231 Z-0.0324
G1 X2.2186 Z-0.0332
G1 X2.2141 Z-0.0335
G1 X2.0079
G1 X0.
G2 Y-1.5218 I0. J0.1675
G1 X2.0079
G3 Y-1.1867 I0. J0.1675
G1 X0.
G2 Y-0.8517 I0. J0.1675
G1 X2.0079
G3 Y-0.5167 I0. J0.1675
G1 X0.
G2 Y-0.1817 I0. J0.1675
G1 X2.0079
G1 X2.0124 Z-0.0332
G1 X2.0168 Z-0.0324
G1 X2.0212 Z-0.031
G1 X2.0253 Z-0.0292
G1 X2.0292 Z-0.0268
G1 X2.0327 Z-0.024
G1 X2.0359 Z-0.0208
G1 X2.0387 Z-0.0173
G1 X2.0411 Z-0.0134
G1 X2.0429 Z-0.0093
G1 X2.0443 Z-0.0049
G1 X2.0451 Z-0.0005
G1 X2.0454 Z0.004
G0 Z0.5906

N20(2D Adaptive7)
S5000 M3 M8
G0 X-0.0294 Y-2.4034
G0 Z0.5906
G0 Z0.1969
G0 Z0.0572
G1 Z0.0197 F61.
G1 Z-0.0591
G3 X0. Y-2.1992 I-0.9274 J0.2376
G1 Y-2.1933
G1 X-0.0088 Y-2.1502
G1 X-0.0156 Y-2.1067
G1 X-0.0208 Y-2.063
G1 X-0.0247 Y-2.0191
G1 X-0.0278 Y-1.9752
G1 X-0.0301 Y-1.9313
G1 X-0.0319 Y-1.8873
G1 X-0.0332 Y-1.8433
G1 X-0.0342 Y-1.7992
G1 X-0.035 Y-1.7552
G1 X-0.0356 Y-1.7112
G1 X-0.0361 Y-1.6672
G1 X-0.0364 Y-1.6232
G1 X-0.0367 Y-1.5791
G1 X-0.0369 Y-1.5351
G1 X-0.0371 Y-1.4471
G1 X-0.0373 Y-1.315
G1 X-0.0374 Y-1.1389
G1 X-0.0375 Y-0.6106
G1 Y-0.2144
G1 Y-0.1704
G1 X-0.0325 Y-0.1489
G1 X-0.0133 Y-0.1093
G1 X0.0166 Y-0.077
G1 X0.0523 Y-0.0513
G1 X0.0914 Y-0.031
G1 X0.1325 Y-0.0152
G1 X0.1748 Y-0.0029
G1 X0.2178 Y0.0066
G1 X0.2612 Y0.0138
G1 X0.3049 Y0.0194
G1 X0.3487 Y0.0237
G1 X0.3926 Y0.027
G1 X0.4365 Y0.0295
G1 X0.4805 Y0.0314
G1 X0.5245 Y0.0329
G1 X0.5685 Y0.034
G1 X0.6125 Y0.0348
G1 X0.6566 Y0.0355
G1 X0.7006 Y0.0359
G1 X0.7446 Y0.0363
G1 X0.7886 Y0.0366
G1 X0.8327 Y0.0368
G1 X0.9207 Y0.0371
G1 X1.0087 Y0.0373
G1 X1.1408 Y0.0374
G1 X1.449 Y0.0375
G1 X1.8452
G1 X1.8661 Y0.0306
G1 X1.9045 Y0.009
G1 X1.9356 Y-0.0221
G1 X1.9604 Y-0.0585
G1 X1.9798 Y-0.098
G1 X1.995 Y-0.1393
G1 X2.0067 Y-0.1818
G1 X2.0158 Y-0.2249
G1 X2.0228 Y-0.2683
G1 X2.0281 Y-0.312
G1 X2.0322 Y-0.3559
G1 X2.0353 Y-0.3998
G1 X2.0377 Y-0.4437
G1 X2.0396 Y-0.4877
G1 X2.0409 Y-0.5317
G1 X2.042 Y-0.5757
G1 X2.0428 Y-0.6197
G1 X2.0434 Y-0.6638
G1 X2.0439 Y-0.7078
G1 X2.0442 Y-0.7518
G1 X2.0445 Y-0.7958
G1 X2.0447 Y-0.8399
G1 X2.045 Y-0.9279
G1 X2.0452 Y-1.016
G1 X2.0453 Y-1.192
G1 X2.0454 Y-1.5883
G1 Y-1.8304
G1 X2.044 Y-1.8413
G1 X2.0385 Y-1.8626
G1 X2.018 Y-1.9016
G1 X1.9875 Y-1.9333
G1 X1.9514 Y-1.9585
G1 X1.9121 Y-1.9784
G1 X1.8709 Y-1.9939
G1 X1.8285 Y-2.0059
G1 X1.7855 Y-2.0151
G1 X1.742 Y-2.0223
G1 X1.6984 Y-2.0277
G1 X1.6545 Y-2.0319
G1 X1.6106 Y-2.0351
G1 X1.5667 Y-2.0376
G1 X1.5227 Y-2.0394
G1 X1.4787 Y-2.0408
G1 X1.4347 Y-2.0419
G1 X1.3907 Y-2.0428
G1 X1.3466 Y-2.0434
G1 X1.3026 Y-2.0439
G1 X1.2586 Y-2.0442
G1 X1.2146 Y-2.0445
G1 X1.1705 Y-2.0447
G1 X1.0825 Y-2.045
G1 X0.9944 Y-2.0452
G1 X0.8624 Y-2.0453
G1 X0.5542 Y-2.0454
G1 X0.3341
G1 X0.3124 Y-2.0414
G1 X0.2719 Y-2.0242
G1 X0.2382 Y-1.9959
G1 X0.211 Y-1.9613
G1 X0.1893 Y-1.923
G1 X0.1721 Y-1.8825
G1 X0.1587 Y-1.8405
G1 X0.1482 Y-1.7978
G1 X0.14 Y-1.7545
G1 X0.1337 Y-1.7109
G1 X0.1288 Y-1.6672
G1 X0.1251 Y-1.6233
G1 X0.1222 Y-1.5794
G1 X0.1199 Y-1.5354
G1 X0.1182 Y-1.4914
G1 X0.1169 Y-1.4474
G1 X0.1159 Y-1.4034
G1 X0.1151 Y-1.3594
G1 X0.1145 Y-1.3154
G1 X0.114 Y-1.2714
G1 X0.1137 Y-1.2273
G1 X0.1134 Y-1.1833
G1 X0.1132 Y-1.1393
G1 X0.1129 Y-1.0512
G1 X0.1127 Y-0.9632
G1 X0.1126 Y-0.8311
G1 X0.1125 Y-0.567
G1 Y-0.3909
G1 X0.114 Y-0.3469
G1 X0.1291 Y-0.3055
G1 X0.1542 Y-0.2693
G1 X0.1858 Y-0.2387
G1 X0.2219 Y-0.2134
G1 X0.2607 Y-0.1928
G1 X0.3015 Y-0.1761
G1 X0.3434 Y-0.1627
G1 X0.3861 Y-0.152
G1 X0.4293 Y-0.1435
G1 X0.4728 Y-0.1368
G1 X0.5165 Y-0.1316
G1 X0.5604 Y-0.1274
G1 X0.6043 Y-0.1241
G1 X0.6482 Y-0.1216
G1 X0.6922 Y-0.1196
G1 X0.7362 Y-0.118
G1 X0.7802 Y-0.1168
G1 X0.8242 Y-0.1158
G1 X0.8682 Y-0.1151
G1 X0.9123 Y-0.1145
G1 X0.9563 Y-0.1141
G1 X1.0003 Y-0.1137
G1 X1.0443 Y-0.1134
G1 X1.0883 Y-0.1132
G1 X1.1764 Y-0.1129
G1 X1.2644 Y-0.1128
G1 X1.3965 Y-0.1126
G1 X1.6166 Y-0.1125
G1 X1.6606 Y-0.1139
G1 X1.702 Y-0.1289
G1 X1.7383 Y-0.1538
G1 X1.7689 Y-0.1855
G1 X1.7943 Y-0.2214
G1 X1.815 Y-0.2603
G1 X1.8317 Y-0.301
G1 X1.8451 Y-0.343
G1 X1.8558 Y-0.3857
G1 X1.8643 Y-0.4289
G1 X1.871 Y-0.4724
G1 X1.8763 Y-0.5161
G1 X1.8804 Y-0.5599
G1 X1.8837 Y-0.6038
G1 X1.8863 Y-0.6478
G1 X1.8883 Y-0.6917
G1 X1.8898 Y-0.7357
G1 X1.8911 Y-0.7798
G1 X1.892 Y-0.8238
G1 X1.8928 Y-0.8678
G1 X1.8934 Y-0.9118
G1 X1.8938 Y-0.9558
G1 X1.8942 Y-0.9998
G1 X1.8944 Y-1.0439
G1 X1.8946 Y-1.0879
G1 X1.8949 Y-1.1759
G1 X1.8951 Y-1.264
G1 X1.8953 Y-1.3961
G1 Y-1.6162
G1 X1.894 Y-1.6602
G1 X1.879 Y-1.7016
G1 X1.8541 Y-1.7379
G1 X1.8225 Y-1.7686
G1 X1.7865 Y-1.794
G1 X1.7477 Y-1.8147
G1 X1.707 Y-1.8315
G1 X1.6651 Y-1.8449
G1 X1.6224 Y-1.8556
G1 X1.5792 Y-1.8641
G1 X1.5357 Y-1.8709
G1 X1.492 Y-1.8762
G1 X1.4482 Y-1.8804
G1 X1.4043 Y-1.8837
G1 X1.3603 Y-1.8862
G1 X1.3163 Y-1.8882
G1 X1.2723 Y-1.8898
G1 X1.2283 Y-1.8911
G1 X1.1843 Y-1.892
G1 X1.1403 Y-1.8928
G1 X1.0963 Y-1.8933
G1 X1.0522 Y-1.8938
G1 X1.0082 Y-1.8942
G1 X0.9642 Y-1.8944
G1 X0.9202 Y-1.8946
G1 X0.8321 Y-1.8949
G1 X0.7441 Y-1.8951
G1 X0.612 Y-1.8953
G1 X0.524
G1 X0.4807 Y-1.8869
G1 X0.4416 Y-1.8668
G1 X0.4078 Y-1.8386
G1 X0.3794 Y-1.8049
G1 X0.3561 Y-1.7676
G1 X0.337 Y-1.7279
G1 X0.3217 Y-1.6867
G1 X0.3093 Y-1.6444
G1 X0.2995 Y-1.6015
G1 X0.2916 Y-1.5582
G1 X0.2854 Y-1.5146
G1 X0.2805 Y-1.4708
G1 X0.2766 Y-1.427
G1 X0.2736 Y-1.3831
G1 X0.2712 Y-1.3391
G1 X0.2693 Y-1.2951
G1 X0.2678 Y-1.2511
G1 X0.2666 Y-1.2071
G1 X0.2657 Y-1.1631
G1 X0.265 Y-1.1191
G1 X0.2645 Y-1.0751
G1 X0.264 Y-1.031
G1 X0.2637 Y-0.987
G1 X0.2634 Y-0.943
G1 X0.2632 Y-0.899
G1 X0.2629 Y-0.8109
G1 X0.2628 Y-0.7229
G1 X0.2626 Y-0.5908
G1 Y-0.5468
G1 X0.2689 Y-0.5032
G1 X0.2863 Y-0.4628
G1 X0.312 Y-0.4271
G1 X0.3438 Y-0.3966
G1 X0.3797 Y-0.371
G1 X0.4183 Y-0.3499
G1 X0.4296 Y-0.3451
G1 X0.4336 Y-0.3433
G1 X0.4376 Y-0.3413
G1 X0.4414 Y-0.3392
G1 X0.4527 Y-0.3327
G1 X0.4611 Y-0.3289
G1 X0.4752 Y-0.3231
G1 X0.4864 Y-0.319
G1 X0.5089 Y-0.3135
G1 X0.5202 Y-0.311
G1 X0.5629 Y-0.3003
G1 X0.6062 Y-0.2927
G1 X0.6498 Y-0.2865
G1 X0.6936 Y-0.2815
G1 X0.7374 Y-0.2776
G1 X0.7813 Y-0.2745
G1 X0.8253 Y-0.272
G1 X0.8693 Y-0.27
G1 X0.9133 Y-0.2684
G1 X0.9573 Y-0.2672
G1 X1.0013 Y-0.2662
G1 X1.0453 Y-0.2654
G1 X1.0893 Y-0.2648
G1 X1.1334 Y-0.2643
G1 X1.1774 Y-0.2639
G1 X1.2214 Y-0.2636
G1 X1.2654 Y-0.2634
G1 X1.3094 Y-0.2632
G1 X1.3975 Y-0.2629
G1 X1.4415 Y-0.2628
G1 X1.4855 Y-0.2641
G1 X1.5277 Y-0.2768
G1 X1.5656 Y-0.2992
G1 X1.5983 Y-0.3286
G1 X1.626 Y-0.3629
G1 X1.649 Y-0.4004
G1 X1.6665 Y-0.4372
G1 X1.6676 Y-0.4393
G1 X1.6687 Y-0.4414
G1 X1.6698 Y-0.4434
G1 X1.6752 Y-0.4527
G1 X1.6789 Y-0.4611
G1 X1.6848 Y-0.4752
G1 X1.6889 Y-0.4864
G1 X1.6944 Y-0.5089
G1 X1.6968 Y-0.5202
G1 X1.7075 Y-0.5629
G1 X1.7152 Y-0.6062
G1 X1.7214 Y-0.6498
G1 X1.7263 Y-0.6936
G1 X1.7303 Y-0.7374
G1 X1.7334 Y-0.7813
G1 X1.7359 Y-0.8253
G1 X1.7379 Y-0.8693
G1 X1.7395 Y-0.9133
G1 X1.7407 Y-0.9573
G1 X1.7417 Y-1.0013
G1 X1.7425 Y-1.0453
G1 X1.7431 Y-1.0893
G1 X1.7436 Y-1.1334
G1 X1.744 Y-1.1774
G1 X1.7443 Y-1.2214
G1 X1.7445 Y-1.2654
G1 X1.7447 Y-1.3094
G1 X1.745 Y-1.3975
G1 Y-1.4415
G1 X1.7437 Y-1.4855
G1 X1.7309 Y-1.5276
G1 X1.7085 Y-1.5655
G1 X1.6791 Y-1.5983
G1 X1.6449 Y-1.626
G1 X1.6074 Y-1.649
G1 X1.5716 Y-1.666
G1 X1.5695 Y-1.667
G1 X1.5674 Y-1.6681
G1 X1.5654 Y-1.6693
G1 X1.5552 Y-1.6752
G1 X1.5468 Y-1.6789
G1 X1.5327 Y-1.6848
G1 X1.5214 Y-1.6889
G1 X1.4989 Y-1.6944
G1 X1.4877 Y-1.6968
G1 X1.445 Y-1.7075
G1 X1.4016 Y-1.7152
G1 X1.358 Y-1.7214
G1 X1.3143 Y-1.7263
G1 X1.2704 Y-1.7303
G1 X1.2265 Y-1.7334
G1 X1.1826 Y-1.7359
G1 X1.1386 Y-1.7379
G1 X1.0946 Y-1.7395
G1 X1.0506 Y-1.7407
G1 X1.0066 Y-1.7417
G1 X0.9626 Y-1.7425
G1 X0.9185 Y-1.7431
G1 X0.8745 Y-1.7436
G1 X0.8305 Y-1.744
G1 X0.7865 Y-1.7443
G1 X0.7425 Y-1.7445
G1 X0.6984 Y-1.7447
G1 X0.6549 Y-1.7381
G1 X0.6145 Y-1.7207
G1 X0.6124 Y-1.7192
G1 X0.6017 Y-1.7126
G1 X0.5901 Y-1.7075
G1 X0.578 Y-1.7042
G1 X0.5654 Y-1.7027
G1 X0.5427 Y-1.7011
G1 X0.5314 Y-1.6991
G1 X0.5202 Y-1.6968
G1 X0.5089 Y-1.6944
G1 X0.4864 Y-1.6889
G1 X0.4752 Y-1.6848
G1 X0.4611 Y-1.6789
G1 X0.4527 Y-1.6752
G1 X0.4414 Y-1.6687
G1 X0.4302 Y-1.6613
G1 X0.4229 Y-1.6564
G1 X0.4068 Y-1.6452
G1 X0.3964 Y-1.6378
G1 X0.3852 Y-1.6276
G1 X0.3804 Y-1.6227
G1 X0.3701 Y-1.6114
G1 X0.362 Y-1.6002
G1 X0.3514 Y-1.585
G1 X0.3465 Y-1.5777
G1 X0.3392 Y-1.5664
G1 X0.3327 Y-1.5552
G1 X0.3289 Y-1.5468
G1 X0.3231 Y-1.5327
G1 X0.319 Y-1.5214
G1 X0.3135 Y-1.4989
G1 X0.311 Y-1.4877
G1 X0.3088 Y-1.4764
G1 X0.3068 Y-1.4652
G1 X0.3052 Y-1.4427
G1 X0.3046 Y-1.4314
G1 Y-0.5764
G1 X0.3052 Y-0.5652
G1 X0.3068 Y-0.5427
G1 X0.3088 Y-0.5314
G1 X0.311 Y-0.5202
G1 X0.3135 Y-0.5089
G1 X0.319 Y-0.4864
G1 X0.3231 Y-0.4752
G1 X0.3289 Y-0.4611
G1 X0.3327 Y-0.4527
G1 X0.3392 Y-0.4414
G1 X0.3465 Y-0.4302
G1 X0.3514 Y-0.4229
G1 X0.3627 Y-0.4068
G1 X0.3701 Y-0.3964
G1 X0.3804 Y-0.3852
G1 X0.3852 Y-0.3803
G1 X0.3964 Y-0.3701
G1 X0.4077 Y-0.362
G1 X0.4229 Y-0.3514
G1 X0.4302 Y-0.3465
G1 X0.4414 Y-0.3392
G1 X0.4415
G1 X0.4447 Y-0.3362
G1 X0.4481 Y-0.3333
G2 X0.4591 Y-0.3271 I0.0237 J-0.0291
G1 X0.4679 Y-0.3239
G1 X0.4901 Y-0.316
G1 X0.4988 Y-0.3129
G2 X0.5113 Y-0.3107 I0.0126 J-0.0353
G1 X0.5157 Y-0.3108
G1 X0.5201 Y-0.311
G1 X0.5202
G1 X0.5314 Y-0.3088
G1 X0.5427 Y-0.3068
G1 X0.5652 Y-0.3052
G1 X0.5764 Y-0.3046
G1 X1.4314
G1 X1.4427 Y-0.3052
G1 X1.4652 Y-0.3068
G1 X1.4764 Y-0.3088
G1 X1.4877 Y-0.311
G1 X1.4989 Y-0.3135
G1 X1.5214 Y-0.319
G1 X1.5327 Y-0.3231
G1 X1.5468 Y-0.3289
G1 X1.5552 Y-0.3327
G1 X1.5664 Y-0.3392
G1 X1.5777 Y-0.3465
G1 X1.585 Y-0.3514
G1 X1.6011 Y-0.3627
G1 X1.6114 Y-0.3701
G1 X1.6227 Y-0.3803
G1 X1.6275 Y-0.3852
G1 X1.6378 Y-0.3964
G1 X1.6458 Y-0.4077
G1 X1.6564 Y-0.4229
G1 X1.6613 Y-0.4302
G1 X1.6687 Y-0.4414
G1 X1.6698 Y-0.4434
G1 X1.6699 Y-0.4435
G1 X1.6729 Y-0.4472
G1 X1.6758 Y-0.451
G2 X1.6809 Y-0.4606 I-0.0303 J-0.0221
G1 X1.6843 Y-0.4704
G1 X1.6913 Y-0.4901
G1 X1.6947 Y-0.4999
G2 X1.6968 Y-0.5105 I-0.0354 J-0.0125
G1 X1.6969 Y-0.5153
G1 X1.6968 Y-0.5201
G1 Y-0.5202
G1 X1.6991 Y-0.5314
G1 X1.7011 Y-0.5427
G1 X1.7027 Y-0.5652
G1 X1.7032 Y-0.5764
G1 Y-1.4314
G1 X1.7027 Y-1.4427
G1 X1.7011 Y-1.4652
G1 X1.6991 Y-1.4764
G1 X1.6968 Y-1.4877
G1 X1.6944 Y-1.4989
G1 X1.6889 Y-1.5214
G1 X1.6848 Y-1.5327
G1 X1.6789 Y-1.5468
G1 X1.6752 Y-1.5552
G1 X1.6687 Y-1.5664
G1 X1.6613 Y-1.5777
G1 X1.6564 Y-1.585
G1 X1.6452 Y-1.6011
G1 X1.6378 Y-1.6114
G1 X1.6275 Y-1.6227
G1 X1.6227 Y-1.6276
G1 X1.6114 Y-1.6378
G1 X1.6002 Y-1.6458
G1 X1.585 Y-1.6564
G1 X1.5777 Y-1.6613
G1 X1.5664 Y-1.6687
G1 X1.5654 Y-1.6693
G1 X1.5653
G1 X1.5616 Y-1.6724
G1 X1.5577 Y-1.6754
G2 X1.5482 Y-1.6804 I-0.0221 J0.0303
G1 X1.5385 Y-1.6839
G1 X1.5178 Y-1.6912
G1 X1.5081 Y-1.6946
G2 X1.4975 Y-1.6967 I-0.0125 J0.0353
G1 X1.4927 Y-1.6969
G1 X1.4878 Y-1.6968
G1 X1.4877
G1 X1.4764 Y-1.6991
G1 X1.4652 Y-1.7011
G1 X1.4427 Y-1.7027
G1 X1.4314 Y-1.7032
G1 X0.5764
G1 X0.5654 Y-1.7027
G1 X0.5649
G1 X0.5613 Y-1.7032 Z-0.0588
G1 X0.5577 Y-1.7038 Z-0.058
G1 X0.5542 Y-1.7043 Z-0.0569
G1 X0.5507 Y-1.7059 Z-0.055
G1 X0.5474 Y-1.7074 Z-0.0526
G1 X0.5444 Y-1.7088 Z-0.0497
G1 X0.5425 Y-1.7104 Z-0.0467
G1 X0.5408 Y-1.7118 Z-0.0433
G1 X0.5395 Y-1.7129 Z-0.0398
G1 X0.5385 Y-1.7137 Z-0.036
G1 X0.5379 Y-1.7142 Z-0.0321
G1 X0.5377 Y-1.7144 Z-0.0281
G0 Z0.1969
G0 X-0.0294 Y-2.4034
G0 Z-0.0019
G1 Z-0.0394 F61.
G1 Z-0.1181
G3 X0. Y-2.1992 I-0.9274 J0.2376
G1 Y-2.1933
G1 X-0.0088 Y-2.1502
G1 X-0.0156 Y-2.1067
G1 X-0.0208 Y-2.063
G1 X-0.0247 Y-2.0191
G1 X-0.0278 Y-1.9752
G1 X-0.0301 Y-1.9313
G1 X-0.0319 Y-1.8873
G1 X-0.0332 Y-1.8433
G1 X-0.0342 Y-1.7992
G1 X-0.035 Y-1.7552
G1 X-0.0356 Y-1.7112
G1 X-0.0361 Y-1.6672
G1 X-0.0364 Y-1.6232
G1 X-0.0367 Y-1.5791
G1 X-0.0369 Y-1.5351
G1 X-0.0371 Y-1.4471
G1 X-0.0373 Y-1.315
G1 X-0.0374 Y-1.1389
G1 X-0.0375 Y-0.6106
G1 Y-0.2144
G1 Y-0.1704
G1 X-0.0325 Y-0.1489
G1 X-0.0133 Y-0.1093
G1 X0.0166 Y-0.077
G1 X0.0523 Y-0.0513
G1 X0.0914 Y-0.031
G1 X0.1325 Y-0.0152
G1 X0.1748 Y-0.0029
G1 X0.2178 Y0.0066
G1 X0.2612 Y0.0138
G1 X0.3049 Y0.0194
G1 X0.3487 Y0.0237
G1 X0.3926 Y0.027
G1 X0.4365 Y0.0295
G1 X0.4805 Y0.0314
G1 X0.5245 Y0.0329
G1 X0.5685 Y0.034
G1 X0.6125 Y0.0348
G1 X0.6566 Y0.0355
G1 X0.7006 Y0.0359
G1 X0.7446 Y0.0363
G1 X0.7886 Y0.0366
G1 X0.8327 Y0.0368
G1 X0.9207 Y0.0371
G1 X1.0087 Y0.0373
G1 X1.1408 Y0.0374
G1 X1.449 Y0.0375
G1 X1.8452
G1 X1.8661 Y0.0306
G1 X1.9045 Y0.009
G1 X1.9356 Y-0.0221
G1 X1.9604 Y-0.0585
G1 X1.9798 Y-0.098
G1 X1.995 Y-0.1393
G1 X2.0067 Y-0.1818
G1 X2.0158 Y-0.2249
G1 X2.0228 Y-0.2683
G1 X2.0281 Y-0.312
G1 X2.0322 Y-0.3559
G1 X2.0353 Y-0.3998
G1 X2.0377 Y-0.4437
G1 X2.0396 Y-0.4877
G1 X2.0409 Y-0.5317
G1 X2.042 Y-0.5757
G1 X2.0428 Y-0.6197
G1 X2.0434 Y-0.6638
G1 X2.0439 Y-0.7078
G1 X2.0442 Y-0.7518
G1 X2.0445 Y-0.7958
G1 X2.0447 Y-0.8399
G1 X2.045 Y-0.9279
G1 X2.0452 Y-1.016
G1 X2.0453 Y-1.192
G1 X2.0454 Y-1.5883
G1 Y-1.8304
G1 X2.044 Y-1.8413
G1 X2.0385 Y-1.8626
G1 X2.018 Y-1.9016
G1 X1.9875 Y-1.9333
G1 X1.9514 Y-1.9585
G1 X1.9121 Y-1.9784
G1 X1.8709 Y-1.9939
G1 X1.8285 Y-2.0059
G1 X1.7855 Y-2.0151
G1 X1.742 Y-2.0223
G1 X1.6984 Y-2.0277
G1 X1.6545 Y-2.0319
G1 X1.6106 Y-2.0351
G1 X1.5667 Y-2.0376
G1 X1.5227 Y-2.0394
G1 X1.4787 Y-2.0408
G1 X1.4347 Y-2.0419
G1 X1.3907 Y-2.0428
G1 X1.3466 Y-2.0434
G1 X1.3026 Y-2.0439
G1 X1.2586 Y-2.0442
G1 X1.2146 Y-2.0445
G1 X1.1705 Y-2.0447
G1 X1.0825 Y-2.045
G1 X0.9944 Y-2.0452
G1 X0.8624 Y-2.0453
G1 X0.5542 Y-2.0454
G1 X0.3341
G1 X0.3124 Y-2.0414
G1 X0.2719 Y-2.0242
G1 X0.2382 Y-1.9959
G1 X0.211 Y-1.9613
G1 X0.1893 Y-1.923
G1 X0.1721 Y-1.8825
G1 X0.1587 Y-1.8405
G1 X0.1482 Y-1.7978
G1 X0.14 Y-1.7545
G1 X0.1337 Y-1.7109
G1 X0.1288 Y-1.6672
G1 X0.1251 Y-1.6233
G1 X0.1222 Y-1.5794
G1 X0.1199 Y-1.5354
G1 X0.1182 Y-1.4914
G1 X0.1169 Y-1.4474
G1 X0.1159 Y-1.4034
G1 X0.1151 Y-1.3594
G1 X0.1145 Y-1.3154
G1 X0.114 Y-1.2714
G1 X0.1137 Y-1.2273
G1 X0.1134 Y-1.1833
G1 X0.1132 Y-1.1393
G1 X0.1129 Y-1.0512
G1 X0.1127 Y-0.9632
G1 X0.1126 Y-0.8311
G1 X0.1125 Y-0.567
G1 Y-0.3909
G1 X0.114 Y-0.3469
G1 X0.1291 Y-0.3055
G1 X0.1542 Y-0.2693
G1 X0.1858 Y-0.2387
G1 X0.2219 Y-0.2134
G1 X0.2607 Y-0.1928
G1 X0.3015 Y-0.1761
G1 X0.3434 Y-0.1627
G1 X0.3861 Y-0.152
G1 X0.4293 Y-0.1435
G1 X0.4728 Y-0.1368
G1 X0.5165 Y-0.1316
G1 X0.5604 Y-0.1274
G1 X0.6043 Y-0.1241
G1 X0.6482 Y-0.1216
G1 X0.6922 Y-0.1196
G1 X0.7362 Y-0.118
G1 X0.7802 Y-0.1168
G1 X0.8242 Y-0.1158
G1 X0.8682 Y-0.1151
G1 X0.9123 Y-0.1145
G1 X0.9563 Y-0.1141
G1 X1.0003 Y-0.1137
G1 X1.0443 Y-0.1134
G1 X1.0883 Y-0.1132
G1 X1.1764 Y-0.1129
G1 X1.2644 Y-0.1128
G1 X1.3965 Y-0.1126
G1 X1.6166 Y-0.1125
G1 X1.6606 Y-0.1139
G1 X1.702 Y-0.1289
G1 X1.7383 Y-0.1538
G1 X1.7689 Y-0.1855
G1 X1.7943 Y-0.2214
G1 X1.815 Y-0.2603
G1 X1.8317 Y-0.301
G1 X1.8451 Y-0.343
G1 X1.8558 Y-0.3857
G1 X1.8643 Y-0.4289
G1 X1.871 Y-0.4724
G1 X1.8763 Y-0.5161
G1 X1.8804 Y-0.5599
G1 X1.8837 Y-0.6038
G1 X1.8863 Y-0.6478
G1 X1.8883 Y-0.6917
G1 X1.8898 Y-0.7357
G1 X1.8911 Y-0.7798
G1 X1.892 Y-0.8238
G1 X1.8928 Y-0.8678
G1 X1.8934 Y-0.9118
G1 X1.8938 Y-0.9558
G1 X1.8942 Y-0.9998
G1 X1.8944 Y-1.0439
G1 X1.8946 Y-1.0879
G1 X1.8949 Y-1.1759
G1 X1.8951 Y-1.264
G1 X1.8953 Y-1.3961
G1 Y-1.6162
G1 X1.894 Y-1.6602
G1 X1.879 Y-1.7016
G1 X1.8541 Y-1.7379
G1 X1.8225 Y-1.7686
G1 X1.7865 Y-1.794
G1 X1.7477 Y-1.8147
G1 X1.707 Y-1.8315
G1 X1.6651 Y-1.8449
G1 X1.6224 Y-1.8556
G1 X1.5792 Y-1.8641
G1 X1.5357 Y-1.8709
G1 X1.492 Y-1.8762
G1 X1.4482 Y-1.8804
G1 X1.4043 Y-1.8837
G1 X1.3603 Y-1.8862
G1 X1.3163 Y-1.8882
G1 X1.2723 Y-1.8898
G1 X1.2283 Y-1.8911
G1 X1.1843 Y-1.892
G1 X1.1403 Y-1.8928
G1 X1.0963 Y-1.8933
G1 X1.0522 Y-1.8938
G1 X1.0082 Y-1.8942
G1 X0.9642 Y-1.8944
G1 X0.9202 Y-1.8946
G1 X0.8321 Y-1.8949
G1 X0.7441 Y-1.8951
G1 X0.612 Y-1.8953
G1 X0.524
G1 X0.4807 Y-1.8869
G1 X0.4416 Y-1.8668
G1 X0.4078 Y-1.8386
G1 X0.3794 Y-1.8049
G1 X0.3561 Y-1.7676
G1 X0.337 Y-1.7279
G1 X0.3217 Y-1.6867
G1 X0.3093 Y-1.6444
G1 X0.2995 Y-1.6015
G1 X0.2916 Y-1.5582
G1 X0.2854 Y-1.5146
G1 X0.2805 Y-1.4708
G1 X0.2766 Y-1.427
G1 X0.2736 Y-1.3831
G1 X0.2712 Y-1.3391
G1 X0.2693 Y-1.2951
G1 X0.2678 Y-1.2511
G1 X0.2666 Y-1.2071
G1 X0.2657 Y-1.1631
G1 X0.265 Y-1.1191
G1 X0.2645 Y-1.0751
G1 X0.264 Y-1.031
G1 X0.2637 Y-0.987
G1 X0.2634 Y-0.943
G1 X0.2632 Y-0.899
G1 X0.2629 Y-0.8109
G1 X0.2628 Y-0.7229
G1 X0.2626 Y-0.5908
G1 Y-0.5468
G1 X0.2689 Y-0.5032
G1 X0.2863 Y-0.4628
G1 X0.312 Y-0.4271
G1 X0.3438 Y-0.3966
G1 X0.3797 Y-0.371
G1 X0.4183 Y-0.3499
G1 X0.4296 Y-0.3451
G1 X0.4336 Y-0.3433
G1 X0.4376 Y-0.3413
G1 X0.4414 Y-0.3392
G1 X0.4527 Y-0.3327
G1 X0.4611 Y-0.3289
G1 X0.4752 Y-0.3231
G1 X0.4864 Y-0.319
G1 X0.5089 Y-0.3135
G1 X0.5202 Y-0.311
G1 X0.5629 Y-0.3003
G1 X0.6062 Y-0.2927
G1 X0.6498 Y-0.2865
G1 X0.6936 Y-0.2815
G1 X0.7374 Y-0.2776
G1 X0.7813 Y-0.2745
G1 X0.8253 Y-0.272
G1 X0.8693 Y-0.27
G1 X0.9133 Y-0.2684
G1 X0.9573 Y-0.2672
G1 X1.0013 Y-0.2662
G1 X1.0453 Y-0.2654
G1 X1.0893 Y-0.2648
G1 X1.1334 Y-0.2643
G1 X1.1774 Y-0.2639
G1 X1.2214 Y-0.2636
G1 X1.2654 Y-0.2634
G1 X1.3094 Y-0.2632
G1 X1.3975 Y-0.2629
G1 X1.4415 Y-0.2628
G1 X1.4855 Y-0.2641
G1 X1.5277 Y-0.2768
G1 X1.5656 Y-0.2992
G1 X1.5983 Y-0.3286
G1 X1.626 Y-0.3629
G1 X1.649 Y-0.4004
G1 X1.6665 Y-0.4372
G1 X1.6676 Y-0.4393
G1 X1.6687 Y-0.4414
G1 X1.6698 Y-0.4434
G1 X1.6752 Y-0.4527
G1 X1.6789 Y-0.4611
G1 X1.6848 Y-0.4752
G1 X1.6889 Y-0.4864
G1 X1.6944 Y-0.5089
G1 X1.6968 Y-0.5202
G1 X1.7075 Y-0.5629
G1 X1.7152 Y-0.6062
G1 X1.7214 Y-0.6498
G1 X1.7263 Y-0.6936
G1 X1.7303 Y-0.7374
G1 X1.7334 Y-0.7813
G1 X1.7359 Y-0.8253
G1 X1.7379 Y-0.8693
G1 X1.7395 Y-0.9133
G1 X1.7407 Y-0.9573
G1 X1.7417 Y-1.0013
G1 X1.7425 Y-1.0453
G1 X1.7431 Y-1.0893
G1 X1.7436 Y-1.1334
G1 X1.744 Y-1.1774
G1 X1.7443 Y-1.2214
G1 X1.7445 Y-1.2654
G1 X1.7447 Y-1.3094
G1 X1.745 Y-1.3975
G1 Y-1.4415
G1 X1.7437 Y-1.4855
G1 X1.7309 Y-1.5276
G1 X1.7085 Y-1.5655
G1 X1.6791 Y-1.5983
G1 X1.6449 Y-1.626
G1 X1.6074 Y-1.649
G1 X1.5716 Y-1.666
G1 X1.5695 Y-1.667
G1 X1.5674 Y-1.6681
G1 X1.5654 Y-1.6693
G1 X1.5552 Y-1.6752
G1 X1.5468 Y-1.6789
G1 X1.5327 Y-1.6848
G1 X1.5214 Y-1.6889
G1 X1.4989 Y-1.6944
G1 X1.4877 Y-1.6968
G1 X1.445 Y-1.7075
G1 X1.4016 Y-1.7152
G1 X1.358 Y-1.7214
G1 X1.3143 Y-1.7263
G1 X1.2704 Y-1.7303
G1 X1.2265 Y-1.7334
G1 X1.1826 Y-1.7359
G1 X1.1386 Y-1.7379
G1 X1.0946 Y-1.7395
G1 X1.0506 Y-1.7407
G1 X1.0066 Y-1.7417
G1 X0.9626 Y-1.7425
G1 X0.9185 Y-1.7431
G1 X0.8745 Y-1.7436
G1 X0.8305 Y-1.744
G1 X0.7865 Y-1.7443
G1 X0.7425 Y-1.7445
G1 X0.6984 Y-1.7447
G1 X0.6549 Y-1.7381
G1 X0.6145 Y-1.7207
G1 X0.6124 Y-1.7192
G1 X0.6017 Y-1.7126
G1 X0.5901 Y-1.7075
G1 X0.578 Y-1.7042
G1 X0.5654 Y-1.7027
G1 X0.5427 Y-1.7011
G1 X0.5314 Y-1.6991
G1 X0.5202 Y-1.6968
G1 X0.5089 Y-1.6944
G1 X0.4864 Y-1.6889
G1 X0.4752 Y-1.6848
G1 X0.4611 Y-1.6789
G1 X0.4527 Y-1.6752
G1 X0.4414 Y-1.6687
G1 X0.4302 Y-1.6613
G1 X0.4229 Y-1.6564
G1 X0.4068 Y-1.6452
G1 X0.3964 Y-1.6378
G1 X0.3852 Y-1.6276
G1 X0.3804 Y-1.6227
G1 X0.3701 Y-1.6114
G1 X0.362 Y-1.6002
G1 X0.3514 Y-1.585
G1 X0.3465 Y-1.5777
G1 X0.3392 Y-1.5664
G1 X0.3327 Y-1.5552
G1 X0.3289 Y-1.5468
G1 X0.3231 Y-1.5327
G1 X0.319 Y-1.5214
G1 X0.3135 Y-1.4989
G1 X0.311 Y-1.4877
G1 X0.3088 Y-1.4764
G1 X0.3068 Y-1.4652
G1 X0.3052 Y-1.4427
G1 X0.3046 Y-1.4314
G1 Y-0.5764
G1 X0.3052 Y-0.5652
G1 X0.3068 Y-0.5427
G1 X0.3088 Y-0.5314
G1 X0.311 Y-0.5202
G1 X0.3135 Y-0.5089
G1 X0.319 Y-0.4864
G1 X0.3231 Y-0.4752
G1 X0.3289 Y-0.4611
G1 X0.3327 Y-0.4527
G1 X0.3392 Y-0.4414
G1 X0.3465 Y-0.4302
G1 X0.3514 Y-0.4229
G1 X0.3627 Y-0.4068
G1 X0.3701 Y-0.3964
G1 X0.3804 Y-0.3852
G1 X0.3852 Y-0.3803
G1 X0.3964 Y-0.3701
G1 X0.4077 Y-0.362
G1 X0.4229 Y-0.3514
G1 X0.4302 Y-0.3465
G1 X0.4414 Y-0.3392
G1 X0.4415
G1 X0.4447 Y-0.3362
G1 X0.4481 Y-0.3333
G2 X0.4591 Y-0.3271 I0.0237 J-0.0291
G1 X0.4679 Y-0.3239
G1 X0.4901 Y-0.316
G1 X0.4988 Y-0.3129
G2 X0.5113 Y-0.3107 I0.0126 J-0.0353
G1 X0.5157 Y-0.3108
G1 X0.5201 Y-0.311
G1 X0.5202
G1 X0.5314 Y-0.3088
G1 X0.5427 Y-0.3068
G1 X0.5652 Y-0.3052
G1 X0.5764 Y-0.3046
G1 X1.4314
G1 X1.4427 Y-0.3052
G1 X1.4652 Y-0.3068
G1 X1.4764 Y-0.3088
G1 X1.4877 Y-0.311
G1 X1.4989 Y-0.3135
G1 X1.5214 Y-0.319
G1 X1.5327 Y-0.3231
G1 X1.5468 Y-0.3289
G1 X1.5552 Y-0.3327
G1 X1.5664 Y-0.3392
G1 X1.5777 Y-0.3465
G1 X1.585 Y-0.3514
G1 X1.6011 Y-0.3627
G1 X1.6114 Y-0.3701
G1 X1.6227 Y-0.3803
G1 X1.6275 Y-0.3852
G1 X1.6378 Y-0.3964
G1 X1.6458 Y-0.4077
G1 X1.6564 Y-0.4229
G1 X1.6613 Y-0.4302
G1 X1.6687 Y-0.4414
G1 X1.6698 Y-0.4434
G1 X1.6699 Y-0.4435
G1 X1.6729 Y-0.4472
G1 X1.6758 Y-0.451
G2 X1.6809 Y-0.4606 I-0.0303 J-0.0221
G1 X1.6843 Y-0.4704
G1 X1.6913 Y-0.4901
G1 X1.6947 Y-0.4999
G2 X1.6968 Y-0.5105 I-0.0354 J-0.0125
G1 X1.6969 Y-0.5153
G1 X1.6968 Y-0.5201
G1 Y-0.5202
G1 X1.6991 Y-0.5314
G1 X1.7011 Y-0.5427
G1 X1.7027 Y-0.5652
G1 X1.7032 Y-0.5764
G1 Y-1.4314
G1 X1.7027 Y-1.4427
G1 X1.7011 Y-1.4652
G1 X1.6991 Y-1.4764
G1 X1.6968 Y-1.4877
G1 X1.6944 Y-1.4989
G1 X1.6889 Y-1.5214
G1 X1.6848 Y-1.5327
G1 X1.6789 Y-1.5468
G1 X1.6752 Y-1.5552
G1 X1.6687 Y-1.5664
G1 X1.6613 Y-1.5777
G1 X1.6564 Y-1.585
G1 X1.6452 Y-1.6011
G1 X1.6378 Y-1.6114
G1 X1.6275 Y-1.6227
G1 X1.6227 Y-1.6276
G1 X1.6114 Y-1.6378
G1 X1.6002 Y-1.6458
G1 X1.585 Y-1.6564
G1 X1.5777 Y-1.6613
G1 X1.5664 Y-1.6687
G1 X1.5654 Y-1.6693
G1 X1.5653
G1 X1.5616 Y-1.6724
G1 X1.5577 Y-1.6754
G2 X1.5482 Y-1.6804 I-0.0221 J0.0303
G1 X1.5385 Y-1.6839
G1 X1.5178 Y-1.6912
G1 X1.5081 Y-1.6946
G2 X1.4975 Y-1.6967 I-0.0125 J0.0353
G1 X1.4927 Y-1.6969
G1 X1.4878 Y-1.6968
G1 X1.4877
G1 X1.4764 Y-1.6991
G1 X1.4652 Y-1.7011
G1 X1.4427 Y-1.7027
G1 X1.4314 Y-1.7032
G1 X0.5764
G1 X0.5654 Y-1.7027
G1 X0.5649
G1 X0.5613 Y-1.7032 Z-0.1178
G1 X0.5577 Y-1.7038 Z-0.1171
G1 X0.5542 Y-1.7043 Z-0.116
G1 X0.5507 Y-1.7059 Z-0.1141
G1 X0.5474 Y-1.7074 Z-0.1116
G1 X0.5444 Y-1.7088 Z-0.1087
G1 X0.5425 Y-1.7104 Z-0.1057
G1 X0.5408 Y-1.7118 Z-0.1024
G1 X0.5395 Y-1.7129 Z-0.0988
G1 X0.5385 Y-1.7137 Z-0.0951
G1 X0.5379 Y-1.7142 Z-0.0912
G1 X0.5377 Y-1.7144 Z-0.0872
G0 Z0.1969
G0 X-0.0294 Y-2.4034
G0 Z-0.0609
G1 Z-0.0984 F61.
G1 Z-0.1772
G3 X0. Y-2.1992 I-0.9274 J0.2376
G1 Y-2.1933
G1 X-0.0088 Y-2.1502
G1 X-0.0156 Y-2.1067
G1 X-0.0208 Y-2.063
G1 X-0.0247 Y-2.0191
G1 X-0.0278 Y-1.9752
G1 X-0.0301 Y-1.9313
G1 X-0.0319 Y-1.8873
G1 X-0.0332 Y-1.8433
G1 X-0.0342 Y-1.7992
G1 X-0.035 Y-1.7552
G1 X-0.0356 Y-1.7112
G1 X-0.0361 Y-1.6672
G1 X-0.0364 Y-1.6232
G1 X-0.0367 Y-1.5791
G1 X-0.0369 Y-1.5351
G1 X-0.0371 Y-1.4471
G1 X-0.0373 Y-1.315
G1 X-0.0374 Y-1.1389
G1 X-0.0375 Y-0.6106
G1 Y-0.2144
G1 Y-0.1704
G1 X-0.0325 Y-0.1489
G1 X-0.0133 Y-0.1093
G1 X0.0166 Y-0.077
G1 X0.0523 Y-0.0513
G1 X0.0914 Y-0.031
G1 X0.1325 Y-0.0152
G1 X0.1748 Y-0.0029
G1 X0.2178 Y0.0066
G1 X0.2612 Y0.0138
G1 X0.3049 Y0.0194
G1 X0.3487 Y0.0237
G1 X0.3926 Y0.027
G1 X0.4365 Y0.0295
G1 X0.4805 Y0.0314
G1 X0.5245 Y0.0329
G1 X0.5685 Y0.034
G1 X0.6125 Y0.0348
G1 X0.6566 Y0.0355
G1 X0.7006 Y0.0359
G1 X0.7446 Y0.0363
G1 X0.7886 Y0.0366
G1 X0.8327 Y0.0368
G1 X0.9207 Y0.0371
G1 X1.0087 Y0.0373
G1 X1.1408 Y0.0374
G1 X1.449 Y0.0375
G1 X1.8452
G1 X1.8661 Y0.0306
G1 X1.9045 Y0.009
G1 X1.9356 Y-0.0221
G1 X1.9604 Y-0.0585
G1 X1.9798 Y-0.098
G1 X1.995 Y-0.1393
G1 X2.0067 Y-0.1818
G1 X2.0158 Y-0.2249
G1 X2.0228 Y-0.2683
G1 X2.0281 Y-0.312
G1 X2.0322 Y-0.3559
G1 X2.0353 Y-0.3998
G1 X2.0377 Y-0.4437
G1 X2.0396 Y-0.4877
G1 X2.0409 Y-0.5317
G1 X2.042 Y-0.5757
G1 X2.0428 Y-0.6197
G1 X2.0434 Y-0.6638
G1 X2.0439 Y-0.7078
G1 X2.0442 Y-0.7518
G1 X2.0445 Y-0.7958
G1 X2.0447 Y-0.8399
G1 X2.045 Y-0.9279
G1 X2.0452 Y-1.016
G1 X2.0453 Y-1.192
G1 X2.0454 Y-1.5883
G1 Y-1.8304
G1 X2.044 Y-1.8413
G1 X2.0385 Y-1.8626
G1 X2.018 Y-1.9016
G1 X1.9875 Y-1.9333
G1 X1.9514 Y-1.9585
G1 X1.9121 Y-1.9784
G1 X1.8709 Y-1.9939
G1 X1.8285 Y-2.0059
G1 X1.7855 Y-2.0151
G1 X1.742 Y-2.0223
G1 X1.6984 Y-2.0277
G1 X1.6545 Y-2.0319
G1 X1.6106 Y-2.0351
G1 X1.5667 Y-2.0376
G1 X1.5227 Y-2.0394
G1 X1.4787 Y-2.0408
G1 X1.4347 Y-2.0419
G1 X1.3907 Y-2.0428
G1 X1.3466 Y-2.0434
G1 X1.3026 Y-2.0439
G1 X1.2586 Y-2.0442
G1 X1.2146 Y-2.0445
G1 X1.1705 Y-2.0447
G1 X1.0825 Y-2.045
G1 X0.9944 Y-2.0452
G1 X0.8624 Y-2.0453
G1 X0.5542 Y-2.0454
G1 X0.3341
G1 X0.3124 Y-2.0414
G1 X0.2719 Y-2.0242
G1 X0.2382 Y-1.9959
G1 X0.211 Y-1.9613
G1 X0.1893 Y-1.923
G1 X0.1721 Y-1.8825
G1 X0.1587 Y-1.8405
G1 X0.1482 Y-1.7978
G1 X0.14 Y-1.7545
G1 X0.1337 Y-1.7109
G1 X0.1288 Y-1.6672
G1 X0.1251 Y-1.6233
G1 X0.1222 Y-1.5794
G1 X0.1199 Y-1.5354
G1 X0.1182 Y-1.4914
G1 X0.1169 Y-1.4474
G1 X0.1159 Y-1.4034
G1 X0.1151 Y-1.3594
G1 X0.1145 Y-1.3154
G1 X0.114 Y-1.2714
G1 X0.1137 Y-1.2273
G1 X0.1134 Y-1.1833
G1 X0.1132 Y-1.1393
G1 X0.1129 Y-1.0512
G1 X0.1127 Y-0.9632
G1 X0.1126 Y-0.8311
G1 X0.1125 Y-0.567
G1 Y-0.3909
G1 X0.114 Y-0.3469
G1 X0.1291 Y-0.3055
G1 X0.1542 Y-0.2693
G1 X0.1858 Y-0.2387
G1 X0.2219 Y-0.2134
G1 X0.2607 Y-0.1928
G1 X0.3015 Y-0.1761
G1 X0.3434 Y-0.1627
G1 X0.3861 Y-0.152
G1 X0.4293 Y-0.1435
G1 X0.4728 Y-0.1368
G1 X0.5165 Y-0.1316
G1 X0.5604 Y-0.1274
G1 X0.6043 Y-0.1241
G1 X0.6482 Y-0.1216
G1 X0.6922 Y-0.1196
G1 X0.7362 Y-0.118
G1 X0.7802 Y-0.1168
G1 X0.8242 Y-0.1158
G1 X0.8682 Y-0.1151
G1 X0.9123 Y-0.1145
G1 X0.9563 Y-0.1141
G1 X1.0003 Y-0.1137
G1 X1.0443 Y-0.1134
G1 X1.0883 Y-0.1132
G1 X1.1764 Y-0.1129
G1 X1.2644 Y-0.1128
G1 X1.3965 Y-0.1126
G1 X1.6166 Y-0.1125
G1 X1.6606 Y-0.1139
G1 X1.702 Y-0.1289
G1 X1.7383 Y-0.1538
G1 X1.7689 Y-0.1855
G1 X1.7943 Y-0.2214
G1 X1.815 Y-0.2603
G1 X1.8317 Y-0.301
G1 X1.8451 Y-0.343
G1 X1.8558 Y-0.3857
G1 X1.8643 Y-0.4289
G1 X1.871 Y-0.4724
G1 X1.8763 Y-0.5161
G1 X1.8804 Y-0.5599
G1 X1.8837 Y-0.6038
G1 X1.8863 Y-0.6478
G1 X1.8883 Y-0.6917
G1 X1.8898 Y-0.7357
G1 X1.8911 Y-0.7798
G1 X1.892 Y-0.8238
G1 X1.8928 Y-0.8678
G1 X1.8934 Y-0.9118
G1 X1.8938 Y-0.9558
G1 X1.8942 Y-0.9998
G1 X1.8944 Y-1.0439
G1 X1.8946 Y-1.0879
G1 X1.8949 Y-1.1759
G1 X1.8951 Y-1.264
G1 X1.8953 Y-1.3961
G1 Y-1.6162
G1 X1.894 Y-1.6602
G1 X1.879 Y-1.7016
G1 X1.8541 Y-1.7379
G1 X1.8225 Y-1.7686
G1 X1.7865 Y-1.794
G1 X1.7477 Y-1.8147
G1 X1.707 Y-1.8315
G1 X1.6651 Y-1.8449
G1 X1.6224 Y-1.8556
G1 X1.5792 Y-1.8641
G1 X1.5357 Y-1.8709
G1 X1.492 Y-1.8762
G1 X1.4482 Y-1.8804
G1 X1.4043 Y-1.8837
G1 X1.3603 Y-1.8862
G1 X1.3163 Y-1.8882
G1 X1.2723 Y-1.8898
G1 X1.2283 Y-1.8911
G1 X1.1843 Y-1.892
G1 X1.1403 Y-1.8928
G1 X1.0963 Y-1.8933
G1 X1.0522 Y-1.8938
G1 X1.0082 Y-1.8942
G1 X0.9642 Y-1.8944
G1 X0.9202 Y-1.8946
G1 X0.8321 Y-1.8949
G1 X0.7441 Y-1.8951
G1 X0.612 Y-1.8953
G1 X0.524
G1 X0.4807 Y-1.8869
G1 X0.4416 Y-1.8668
G1 X0.4078 Y-1.8386
G1 X0.3794 Y-1.8049
G1 X0.3561 Y-1.7676
G1 X0.337 Y-1.7279
G1 X0.3217 Y-1.6867
G1 X0.3093 Y-1.6444
G1 X0.2995 Y-1.6015
G1 X0.2916 Y-1.5582
G1 X0.2854 Y-1.5146
G1 X0.2805 Y-1.4708
G1 X0.2766 Y-1.427
G1 X0.2736 Y-1.3831
G1 X0.2712 Y-1.3391
G1 X0.2693 Y-1.2951
G1 X0.2678 Y-1.2511
G1 X0.2666 Y-1.2071
G1 X0.2657 Y-1.1631
G1 X0.265 Y-1.1191
G1 X0.2645 Y-1.0751
G1 X0.264 Y-1.031
G1 X0.2637 Y-0.987
G1 X0.2634 Y-0.943
G1 X0.2632 Y-0.899
G1 X0.2629 Y-0.8109
G1 X0.2628 Y-0.7229
G1 X0.2626 Y-0.5908
G1 Y-0.5468
G1 X0.2689 Y-0.5032
G1 X0.2863 Y-0.4628
G1 X0.312 Y-0.4271
G1 X0.3438 Y-0.3966
G1 X0.3797 Y-0.371
G1 X0.4183 Y-0.3499
G1 X0.4296 Y-0.3451
G1 X0.4336 Y-0.3433
G1 X0.4376 Y-0.3413
G1 X0.4414 Y-0.3392
G1 X0.4527 Y-0.3327
G1 X0.4611 Y-0.3289
G1 X0.4752 Y-0.3231
G1 X0.4864 Y-0.319
G1 X0.5089 Y-0.3135
G1 X0.5202 Y-0.311
G1 X0.5629 Y-0.3003
G1 X0.6062 Y-0.2927
G1 X0.6498 Y-0.2865
G1 X0.6936 Y-0.2815
G1 X0.7374 Y-0.2776
G1 X0.7813 Y-0.2745
G1 X0.8253 Y-0.272
G1 X0.8693 Y-0.27
G1 X0.9133 Y-0.2684
G1 X0.9573 Y-0.2672
G1 X1.0013 Y-0.2662
G1 X1.0453 Y-0.2654
G1 X1.0893 Y-0.2648
G1 X1.1334 Y-0.2643
G1 X1.1774 Y-0.2639
G1 X1.2214 Y-0.2636
G1 X1.2654 Y-0.2634
G1 X1.3094 Y-0.2632
G1 X1.3975 Y-0.2629
G1 X1.4415 Y-0.2628
G1 X1.4855 Y-0.2641
G1 X1.5277 Y-0.2768
G1 X1.5656 Y-0.2992
G1 X1.5983 Y-0.3286
G1 X1.626 Y-0.3629
G1 X1.649 Y-0.4004
G1 X1.6665 Y-0.4372
G1 X1.6676 Y-0.4393
G1 X1.6687 Y-0.4414
G1 X1.6698 Y-0.4434
G1 X1.6752 Y-0.4527
G1 X1.6789 Y-0.4611
G1 X1.6848 Y-0.4752
G1 X1.6889 Y-0.4864
G1 X1.6944 Y-0.5089
G1 X1.6968 Y-0.5202
G1 X1.7075 Y-0.5629
G1 X1.7152 Y-0.6062
G1 X1.7214 Y-0.6498
G1 X1.7263 Y-0.6936
G1 X1.7303 Y-0.7374
G1 X1.7334 Y-0.7813
G1 X1.7359 Y-0.8253
G1 X1.7379 Y-0.8693
G1 X1.7395 Y-0.9133
G1 X1.7407 Y-0.9573
G1 X1.7417 Y-1.0013
G1 X1.7425 Y-1.0453
G1 X1.7431 Y-1.0893
G1 X1.7436 Y-1.1334
G1 X1.744 Y-1.1774
G1 X1.7443 Y-1.2214
G1 X1.7445 Y-1.2654
G1 X1.7447 Y-1.3094
G1 X1.745 Y-1.3975
G1 Y-1.4415
G1 X1.7437 Y-1.4855
G1 X1.7309 Y-1.5276
G1 X1.7085 Y-1.5655
G1 X1.6791 Y-1.5983
G1 X1.6449 Y-1.626
G1 X1.6074 Y-1.649
G1 X1.5716 Y-1.666
G1 X1.5695 Y-1.667
G1 X1.5674 Y-1.6681
G1 X1.5654 Y-1.6693
G1 X1.5552 Y-1.6752
G1 X1.5468 Y-1.6789
G1 X1.5327 Y-1.6848
G1 X1.5214 Y-1.6889
G1 X1.4989 Y-1.6944
G1 X1.4877 Y-1.6968
G1 X1.445 Y-1.7075
G1 X1.4016 Y-1.7152
G1 X1.358 Y-1.7214
G1 X1.3143 Y-1.7263
G1 X1.2704 Y-1.7303
G1 X1.2265 Y-1.7334
G1 X1.1826 Y-1.7359
G1 X1.1386 Y-1.7379
G1 X1.0946 Y-1.7395
G1 X1.0506 Y-1.7407
G1 X1.0066 Y-1.7417
G1 X0.9626 Y-1.7425
G1 X0.9185 Y-1.7431
G1 X0.8745 Y-1.7436
G1 X0.8305 Y-1.744
G1 X0.7865 Y-1.7443
G1 X0.7425 Y-1.7445
G1 X0.6984 Y-1.7447
G1 X0.6549 Y-1.7381
G1 X0.6145 Y-1.7207
G1 X0.6124 Y-1.7192
G1 X0.6017 Y-1.7126
G1 X0.5901 Y-1.7075
G1 X0.578 Y-1.7042
G1 X0.5654 Y-1.7027
G1 X0.5427 Y-1.7011
G1 X0.5314 Y-1.6991
G1 X0.5202 Y-1.6968
G1 X0.5089 Y-1.6944
G1 X0.4864 Y-1.6889
G1 X0.4752 Y-1.6848
G1 X0.4611 Y-1.6789
G1 X0.4527 Y-1.6752
G1 X0.4414 Y-1.6687
G1 X0.4302 Y-1.6613
G1 X0.4229 Y-1.6564
G1 X0.4068 Y-1.6452
G1 X0.3964 Y-1.6378
G1 X0.3852 Y-1.6276
G1 X0.3804 Y-1.6227
G1 X0.3701 Y-1.6114
G1 X0.362 Y-1.6002
G1 X0.3514 Y-1.585
G1 X0.3465 Y-1.5777
G1 X0.3392 Y-1.5664
G1 X0.3327 Y-1.5552
G1 X0.3289 Y-1.5468
G1 X0.3231 Y-1.5327
G1 X0.319 Y-1.5214
G1 X0.3135 Y-1.4989
G1 X0.311 Y-1.4877
G1 X0.3088 Y-1.4764
G1 X0.3068 Y-1.4652
G1 X0.3052 Y-1.4427
G1 X0.3046 Y-1.4314
G1 Y-0.5764
G1 X0.3052 Y-0.5652
G1 X0.3068 Y-0.5427
G1 X0.3088 Y-0.5314
G1 X0.311 Y-0.5202
G1 X0.3135 Y-0.5089
G1 X0.319 Y-0.4864
G1 X0.3231 Y-0.4752
G1 X0.3289 Y-0.4611
G1 X0.3327 Y-0.4527
G1 X0.3392 Y-0.4414
G1 X0.3465 Y-0.4302
G1 X0.3514 Y-0.4229
G1 X0.3627 Y-0.4068
G1 X0.3701 Y-0.3964
G1 X0.3804 Y-0.3852
G1 X0.3852 Y-0.3803
G1 X0.3964 Y-0.3701
G1 X0.4077 Y-0.362
G1 X0.4229 Y-0.3514
G1 X0.4302 Y-0.3465
G1 X0.4414 Y-0.3392
G1 X0.4415
G1 X0.4447 Y-0.3362
G1 X0.4481 Y-0.3333
G2 X0.4591 Y-0.3271 I0.0237 J-0.0291
G1 X0.4679 Y-0.3239
G1 X0.4901 Y-0.316
G1 X0.4988 Y-0.3129
G2 X0.5113 Y-0.3107 I0.0126 J-0.0353
G1 X0.5157 Y-0.3108
G1 X0.5201 Y-0.311
G1 X0.5202
G1 X0.5314 Y-0.3088
G1 X0.5427 Y-0.3068
G1 X0.5652 Y-0.3052
G1 X0.5764 Y-0.3046
G1 X1.4314
G1 X1.4427 Y-0.3052
G1 X1.4652 Y-0.3068
G1 X1.4764 Y-0.3088
G1 X1.4877 Y-0.311
G1 X1.4989 Y-0.3135
G1 X1.5214 Y-0.319
G1 X1.5327 Y-0.3231
G1 X1.5468 Y-0.3289
G1 X1.5552 Y-0.3327
G1 X1.5664 Y-0.3392
G1 X1.5777 Y-0.3465
G1 X1.585 Y-0.3514
G1 X1.6011 Y-0.3627
G1 X1.6114 Y-0.3701
G1 X1.6227 Y-0.3803
G1 X1.6275 Y-0.3852
G1 X1.6378 Y-0.3964
G1 X1.6458 Y-0.4077
G1 X1.6564 Y-0.4229
G1 X1.6613 Y-0.4302
G1 X1.6687 Y-0.4414
G1 X1.6698 Y-0.4434
G1 X1.6699 Y-0.4435
G1 X1.6729 Y-0.4472
G1 X1.6758 Y-0.451
G2 X1.6809 Y-0.4606 I-0.0303 J-0.0221
G1 X1.6843 Y-0.4704
G1 X1.6913 Y-0.4901
G1 X1.6947 Y-0.4999
G2 X1.6968 Y-0.5105 I-0.0354 J-0.0125
G1 X1.6969 Y-0.5153
G1 X1.6968 Y-0.5201
G1 Y-0.5202
G1 X1.6991 Y-0.5314
G1 X1.7011 Y-0.5427
G1 X1.7027 Y-0.5652
G1 X1.7032 Y-0.5764
G1 Y-1.4314
G1 X1.7027 Y-1.4427
G1 X1.7011 Y-1.4652
G1 X1.6991 Y-1.4764
G1 X1.6968 Y-1.4877
G1 X1.6944 Y-1.4989
G1 X1.6889 Y-1.5214
G1 X1.6848 Y-1.5327
G1 X1.6789 Y-1.5468
G1 X1.6752 Y-1.5552
G1 X1.6687 Y-1.5664
G1 X1.6613 Y-1.5777
G1 X1.6564 Y-1.585
G1 X1.6452 Y-1.6011
G1 X1.6378 Y-1.6114
G1 X1.6275 Y-1.6227
G1 X1.6227 Y-1.6276
G1 X1.6114 Y-1.6378
G1 X1.6002 Y-1.6458
G1 X1.585 Y-1.6564
G1 X1.5777 Y-1.6613
G1 X1.5664 Y-1.6687
G1 X1.5654 Y-1.6693
G1 X1.5653
G1 X1.5616 Y-1.6724
G1 X1.5577 Y-1.6754
G2 X1.5482 Y-1.6804 I-0.0221 J0.0303
G1 X1.5385 Y-1.6839
G1 X1.5178 Y-1.6912
G1 X1.5081 Y-1.6946
G2 X1.4975 Y-1.6967 I-0.0125 J0.0353
G1 X1.4927 Y-1.6969
G1 X1.4878 Y-1.6968
G1 X1.4877
G1 X1.4764 Y-1.6991
G1 X1.4652 Y-1.7011
G1 X1.4427 Y-1.7027
G1 X1.4314 Y-1.7032
G1 X0.5764
G1 X0.5654 Y-1.7027
G1 X0.5649
G1 X0.5613 Y-1.7032 Z-0.1769
G1 X0.5577 Y-1.7038 Z-0.1762
G1 X0.5542 Y-1.7043 Z-0.175
G1 X0.5507 Y-1.7059 Z-0.1731
G1 X0.5474 Y-1.7074 Z-0.1707
G1 X0.5444 Y-1.7088 Z-0.1678
G1 X0.5425 Y-1.7104 Z-0.1648
G1 X0.5408 Y-1.7118 Z-0.1614
G1 X0.5395 Y-1.7129 Z-0.1579
G1 X0.5385 Y-1.7137 Z-0.1541
G1 X0.5379 Y-1.7142 Z-0.1502
G1 X0.5377 Y-1.7144 Z-0.1463
G0 Z0.1969
G0 X-0.0294 Y-2.4034
G0 Z-0.12
G1 Z-0.1575 F61.
G1 Z-0.2362
G3 X0. Y-2.1992 I-0.9274 J0.2376
G1 Y-2.1933
G1 X-0.0088 Y-2.1502
G1 X-0.0156 Y-2.1067
G1 X-0.0208 Y-2.063
G1 X-0.0247 Y-2.0191
G1 X-0.0278 Y-1.9752
G1 X-0.0301 Y-1.9313
G1 X-0.0319 Y-1.8873
G1 X-0.0332 Y-1.8433
G1 X-0.0342 Y-1.7992
G1 X-0.035 Y-1.7552
G1 X-0.0356 Y-1.7112
G1 X-0.0361 Y-1.6672
G1 X-0.0364 Y-1.6232
G1 X-0.0367 Y-1.5791
G1 X-0.0369 Y-1.5351
G1 X-0.0371 Y-1.4471
G1 X-0.0373 Y-1.315
G1 X-0.0374 Y-1.1389
G1 X-0.0375 Y-0.6106
G1 Y-0.2144
G1 Y-0.1704
G1 X-0.0325 Y-0.1489
G1 X-0.0133 Y-0.1093
G1 X0.0166 Y-0.077
G1 X0.0523 Y-0.0513
G1 X0.0914 Y-0.031
G1 X0.1325 Y-0.0152
G1 X0.1748 Y-0.0029
G1 X0.2178 Y0.0066
G1 X0.2612 Y0.0138
G1 X0.3049 Y0.0194
G1 X0.3487 Y0.0237
G1 X0.3926 Y0.027
G1 X0.4365 Y0.0295
G1 X0.4805 Y0.0314
G1 X0.5245 Y0.0329
G1 X0.5685 Y0.034
G1 X0.6125 Y0.0348
G1 X0.6566 Y0.0355
G1 X0.7006 Y0.0359
G1 X0.7446 Y0.0363
G1 X0.7886 Y0.0366
G1 X0.8327 Y0.0368
G1 X0.9207 Y0.0371
G1 X1.0087 Y0.0373
G1 X1.1408 Y0.0374
G1 X1.449 Y0.0375
G1 X1.8452
G1 X1.8661 Y0.0306
G1 X1.9045 Y0.009
G1 X1.9356 Y-0.0221
G1 X1.9604 Y-0.0585
G1 X1.9798 Y-0.098
G1 X1.995 Y-0.1393
G1 X2.0067 Y-0.1818
G1 X2.0158 Y-0.2249
G1 X2.0228 Y-0.2683
G1 X2.0281 Y-0.312
G1 X2.0322 Y-0.3559
G1 X2.0353 Y-0.3998
G1 X2.0377 Y-0.4437
G1 X2.0396 Y-0.4877
G1 X2.0409 Y-0.5317
G1 X2.042 Y-0.5757
G1 X2.0428 Y-0.6197
G1 X2.0434 Y-0.6638
G1 X2.0439 Y-0.7078
G1 X2.0442 Y-0.7518
G1 X2.0445 Y-0.7958
G1 X2.0447 Y-0.8399
G1 X2.045 Y-0.9279
G1 X2.0452 Y-1.016
G1 X2.0453 Y-1.192
G1 X2.0454 Y-1.5883
G1 Y-1.8304
G1 X2.044 Y-1.8413
G1 X2.0385 Y-1.8626
G1 X2.018 Y-1.9016
G1 X1.9875 Y-1.9333
G1 X1.9514 Y-1.9585
G1 X1.9121 Y-1.9784
G1 X1.8709 Y-1.9939
G1 X1.8285 Y-2.0059
G1 X1.7855 Y-2.0151
G1 X1.742 Y-2.0223
G1 X1.6984 Y-2.0277
G1 X1.6545 Y-2.0319
G1 X1.6106 Y-2.0351
G1 X1.5667 Y-2.0376
G1 X1.5227 Y-2.0394
G1 X1.4787 Y-2.0408
G1 X1.4347 Y-2.0419
G1 X1.3907 Y-2.0428
G1 X1.3466 Y-2.0434
G1 X1.3026 Y-2.0439
G1 X1.2586 Y-2.0442
G1 X1.2146 Y-2.0445
G1 X1.1705 Y-2.0447
G1 X1.0825 Y-2.045
G1 X0.9944 Y-2.0452
G1 X0.8624 Y-2.0453
G1 X0.5542 Y-2.0454
G1 X0.3341
G1 X0.3124 Y-2.0414
G1 X0.2719 Y-2.0242
G1 X0.2382 Y-1.9959
G1 X0.211 Y-1.9613
G1 X0.1893 Y-1.923
G1 X0.1721 Y-1.8825
G1 X0.1587 Y-1.8405
G1 X0.1482 Y-1.7978
G1 X0.14 Y-1.7545
G1 X0.1337 Y-1.7109
G1 X0.1288 Y-1.6672
G1 X0.1251 Y-1.6233
G1 X0.1222 Y-1.5794
G1 X0.1199 Y-1.5354
G1 X0.1182 Y-1.4914
G1 X0.1169 Y-1.4474
G1 X0.1159 Y-1.4034
G1 X0.1151 Y-1.3594
G1 X0.1145 Y-1.3154
G1 X0.114 Y-1.2714
G1 X0.1137 Y-1.2273
G1 X0.1134 Y-1.1833
G1 X0.1132 Y-1.1393
G1 X0.1129 Y-1.0512
G1 X0.1127 Y-0.9632
G1 X0.1126 Y-0.8311
G1 X0.1125 Y-0.567
G1 Y-0.3909
G1 X0.114 Y-0.3469
G1 X0.1291 Y-0.3055
G1 X0.1542 Y-0.2693
G1 X0.1858 Y-0.2387
G1 X0.2219 Y-0.2134
G1 X0.2607 Y-0.1928
G1 X0.3015 Y-0.1761
G1 X0.3434 Y-0.1627
G1 X0.3861 Y-0.152
G1 X0.4293 Y-0.1435
G1 X0.4728 Y-0.1368
G1 X0.5165 Y-0.1316
G1 X0.5604 Y-0.1274
G1 X0.6043 Y-0.1241
G1 X0.6482 Y-0.1216
G1 X0.6922 Y-0.1196
G1 X0.7362 Y-0.118
G1 X0.7802 Y-0.1168
G1 X0.8242 Y-0.1158
G1 X0.8682 Y-0.1151
G1 X0.9123 Y-0.1145
G1 X0.9563 Y-0.1141
G1 X1.0003 Y-0.1137
G1 X1.0443 Y-0.1134
G1 X1.0883 Y-0.1132
G1 X1.1764 Y-0.1129
G1 X1.2644 Y-0.1128
G1 X1.3965 Y-0.1126
G1 X1.6166 Y-0.1125
G1 X1.6606 Y-0.1139
G1 X1.702 Y-0.1289
G1 X1.7383 Y-0.1538
G1 X1.7689 Y-0.1855
G1 X1.7943 Y-0.2214
G1 X1.815 Y-0.2603
G1 X1.8317 Y-0.301
G1 X1.8451 Y-0.343
G1 X1.8558 Y-0.3857
G1 X1.8643 Y-0.4289
G1 X1.871 Y-0.4724
G1 X1.8763 Y-0.5161
G1 X1.8804 Y-0.5599
G1 X1.8837 Y-0.6038
G1 X1.8863 Y-0.6478
G1 X1.8883 Y-0.6917
G1 X1.8898 Y-0.7357
G1 X1.8911 Y-0.7798
G1 X1.892 Y-0.8238
G1 X1.8928 Y-0.8678
G1 X1.8934 Y-0.9118
G1 X1.8938 Y-0.9558
G1 X1.8942 Y-0.9998
G1 X1.8944 Y-1.0439
G1 X1.8946 Y-1.0879
G1 X1.8949 Y-1.1759
G1 X1.8951 Y-1.264
G1 X1.8953 Y-1.3961
G1 Y-1.6162
G1 X1.894 Y-1.6602
G1 X1.879 Y-1.7016
G1 X1.8541 Y-1.7379
G1 X1.8225 Y-1.7686
G1 X1.7865 Y-1.794
G1 X1.7477 Y-1.8147
G1 X1.707 Y-1.8315
G1 X1.6651 Y-1.8449
G1 X1.6224 Y-1.8556
G1 X1.5792 Y-1.8641
G1 X1.5357 Y-1.8709
G1 X1.492 Y-1.8762
G1 X1.4482 Y-1.8804
G1 X1.4043 Y-1.8837
G1 X1.3603 Y-1.8862
G1 X1.3163 Y-1.8882
G1 X1.2723 Y-1.8898
G1 X1.2283 Y-1.8911
G1 X1.1843 Y-1.892
G1 X1.1403 Y-1.8928
G1 X1.0963 Y-1.8933
G1 X1.0522 Y-1.8938
G1 X1.0082 Y-1.8942
G1 X0.9642 Y-1.8944
G1 X0.9202 Y-1.8946
G1 X0.8321 Y-1.8949
G1 X0.7441 Y-1.8951
G1 X0.612 Y-1.8953
G1 X0.524
G1 X0.4807 Y-1.8869
G1 X0.4416 Y-1.8668
G1 X0.4078 Y-1.8386
G1 X0.3794 Y-1.8049
G1 X0.3561 Y-1.7676
G1 X0.337 Y-1.7279
G1 X0.3217 Y-1.6867
G1 X0.3093 Y-1.6444
G1 X0.2995 Y-1.6015
G1 X0.2916 Y-1.5582
G1 X0.2854 Y-1.5146
G1 X0.2805 Y-1.4708
G1 X0.2766 Y-1.427
G1 X0.2736 Y-1.3831
G1 X0.2712 Y-1.3391
G1 X0.2693 Y-1.2951
G1 X0.2678 Y-1.2511
G1 X0.2666 Y-1.2071
G1 X0.2657 Y-1.1631
G1 X0.265 Y-1.1191
G1 X0.2645 Y-1.0751
G1 X0.264 Y-1.031
G1 X0.2637 Y-0.987
G1 X0.2634 Y-0.943
G1 X0.2632 Y-0.899
G1 X0.2629 Y-0.8109
G1 X0.2628 Y-0.7229
G1 X0.2626 Y-0.5908
G1 Y-0.5468
G1 X0.2689 Y-0.5032
G1 X0.2863 Y-0.4628
G1 X0.312 Y-0.4271
G1 X0.3438 Y-0.3966
G1 X0.3797 Y-0.371
G1 X0.4183 Y-0.3499
G1 X0.4296 Y-0.3451
G1 X0.4336 Y-0.3433
G1 X0.4376 Y-0.3413
G1 X0.4414 Y-0.3392
G1 X0.4527 Y-0.3327
G1 X0.4611 Y-0.3289
G1 X0.4752 Y-0.3231
G1 X0.4864 Y-0.319
G1 X0.5089 Y-0.3135
G1 X0.5202 Y-0.311
G1 X0.5629 Y-0.3003
G1 X0.6062 Y-0.2927
G1 X0.6498 Y-0.2865
G1 X0.6936 Y-0.2815
G1 X0.7374 Y-0.2776
G1 X0.7813 Y-0.2745
G1 X0.8253 Y-0.272
G1 X0.8693 Y-0.27
G1 X0.9133 Y-0.2684
G1 X0.9573 Y-0.2672
G1 X1.0013 Y-0.2662
G1 X1.0453 Y-0.2654
G1 X1.0893 Y-0.2648
G1 X1.1334 Y-0.2643
G1 X1.1774 Y-0.2639
G1 X1.2214 Y-0.2636
G1 X1.2654 Y-0.2634
G1 X1.3094 Y-0.2632
G1 X1.3975 Y-0.2629
G1 X1.4415 Y-0.2628
G1 X1.4855 Y-0.2641
G1 X1.5277 Y-0.2768
G1 X1.5656 Y-0.2992
G1 X1.5983 Y-0.3286
G1 X1.626 Y-0.3629
G1 X1.649 Y-0.4004
G1 X1.6665 Y-0.4372
G1 X1.6676 Y-0.4393
G1 X1.6687 Y-0.4414
G1 X1.6698 Y-0.4434
G1 X1.6752 Y-0.4527
G1 X1.6789 Y-0.4611
G1 X1.6848 Y-0.4752
G1 X1.6889 Y-0.4864
G1 X1.6944 Y-0.5089
G1 X1.6968 Y-0.5202
G1 X1.7075 Y-0.5629
G1 X1.7152 Y-0.6062
G1 X1.7214 Y-0.6498
G1 X1.7263 Y-0.6936
G1 X1.7303 Y-0.7374
G1 X1.7334 Y-0.7813
G1 X1.7359 Y-0.8253
G1 X1.7379 Y-0.8693
G1 X1.7395 Y-0.9133
G1 X1.7407 Y-0.9573
G1 X1.7417 Y-1.0013
G1 X1.7425 Y-1.0453
G1 X1.7431 Y-1.0893
G1 X1.7436 Y-1.1334
G1 X1.744 Y-1.1774
G1 X1.7443 Y-1.2214
G1 X1.7445 Y-1.2654
G1 X1.7447 Y-1.3094
G1 X1.745 Y-1.3975
G1 Y-1.4415
G1 X1.7437 Y-1.4855
G1 X1.7309 Y-1.5276
G1 X1.7085 Y-1.5655
G1 X1.6791 Y-1.5983
G1 X1.6449 Y-1.626
G1 X1.6074 Y-1.649
G1 X1.5716 Y-1.666
G1 X1.5695 Y-1.667
G1 X1.5674 Y-1.6681
G1 X1.5654 Y-1.6693
G1 X1.5552 Y-1.6752
G1 X1.5468 Y-1.6789
G1 X1.5327 Y-1.6848
G1 X1.5214 Y-1.6889
G1 X1.4989 Y-1.6944
G1 X1.4877 Y-1.6968
G1 X1.445 Y-1.7075
G1 X1.4016 Y-1.7152
G1 X1.358 Y-1.7214
G1 X1.3143 Y-1.7263
G1 X1.2704 Y-1.7303
G1 X1.2265 Y-1.7334
G1 X1.1826 Y-1.7359
G1 X1.1386 Y-1.7379
G1 X1.0946 Y-1.7395
G1 X1.0506 Y-1.7407
G1 X1.0066 Y-1.7417
G1 X0.9626 Y-1.7425
G1 X0.9185 Y-1.7431
G1 X0.8745 Y-1.7436
G1 X0.8305 Y-1.744
G1 X0.7865 Y-1.7443
G1 X0.7425 Y-1.7445
G1 X0.6984 Y-1.7447
G1 X0.6549 Y-1.7381
G1 X0.6145 Y-1.7207
G1 X0.6124 Y-1.7192
G1 X0.6017 Y-1.7126
G1 X0.5901 Y-1.7075
G1 X0.578 Y-1.7042
G1 X0.5654 Y-1.7027
G1 X0.5427 Y-1.7011
G1 X0.5314 Y-1.6991
G1 X0.5202 Y-1.6968
G1 X0.5089 Y-1.6944
G1 X0.4864 Y-1.6889
G1 X0.4752 Y-1.6848
G1 X0.4611 Y-1.6789
G1 X0.4527 Y-1.6752
G1 X0.4414 Y-1.6687
G1 X0.4302 Y-1.6613
G1 X0.4229 Y-1.6564
G1 X0.4068 Y-1.6452
G1 X0.3964 Y-1.6378
G1 X0.3852 Y-1.6276
G1 X0.3804 Y-1.6227
G1 X0.3701 Y-1.6114
G1 X0.362 Y-1.6002
G1 X0.3514 Y-1.585
G1 X0.3465 Y-1.5777
G1 X0.3392 Y-1.5664
G1 X0.3327 Y-1.5552
G1 X0.3289 Y-1.5468
G1 X0.3231 Y-1.5327
G1 X0.319 Y-1.5214
G1 X0.3135 Y-1.4989
G1 X0.311 Y-1.4877
G1 X0.3088 Y-1.4764
G1 X0.3068 Y-1.4652
G1 X0.3052 Y-1.4427
G1 X0.3046 Y-1.4314
G1 Y-0.5764
G1 X0.3052 Y-0.5652
G1 X0.3068 Y-0.5427
G1 X0.3088 Y-0.5314
G1 X0.311 Y-0.5202
G1 X0.3135 Y-0.5089
G1 X0.319 Y-0.4864
G1 X0.3231 Y-0.4752
G1 X0.3289 Y-0.4611
G1 X0.3327 Y-0.4527
G1 X0.3392 Y-0.4414
G1 X0.3465 Y-0.4302
G1 X0.3514 Y-0.4229
G1 X0.3627 Y-0.4068
G1 X0.3701 Y-0.3964
G1 X0.3804 Y-0.3852
G1 X0.3852 Y-0.3803
G1 X0.3964 Y-0.3701
G1 X0.4077 Y-0.362
G1 X0.4229 Y-0.3514
G1 X0.4302 Y-0.3465
G1 X0.4414 Y-0.3392
G1 X0.4415
G1 X0.4447 Y-0.3362
G1 X0.4481 Y-0.3333
G2 X0.4591 Y-0.3271 I0.0237 J-0.0291
G1 X0.4679 Y-0.3239
G1 X0.4901 Y-0.316
G1 X0.4988 Y-0.3129
G2 X0.5113 Y-0.3107 I0.0126 J-0.0353
G1 X0.5157 Y-0.3108
G1 X0.5201 Y-0.311
G1 X0.5202
G1 X0.5314 Y-0.3088
G1 X0.5427 Y-0.3068
G1 X0.5652 Y-0.3052
G1 X0.5764 Y-0.3046
G1 X1.4314
G1 X1.4427 Y-0.3052
G1 X1.4652 Y-0.3068
G1 X1.4764 Y-0.3088
G1 X1.4877 Y-0.311
G1 X1.4989 Y-0.3135
G1 X1.5214 Y-0.319
G1 X1.5327 Y-0.3231
G1 X1.5468 Y-0.3289
G1 X1.5552 Y-0.3327
G1 X1.5664 Y-0.3392
G1 X1.5777 Y-0.3465
G1 X1.585 Y-0.3514
G1 X1.6011 Y-0.3627
G1 X1.6114 Y-0.3701
G1 X1.6227 Y-0.3803
G1 X1.6275 Y-0.3852
G1 X1.6378 Y-0.3964
G1 X1.6458 Y-0.4077
G1 X1.6564 Y-0.4229
G1 X1.6613 Y-0.4302
G1 X1.6687 Y-0.4414
G1 X1.6698 Y-0.4434
G1 X1.6699 Y-0.4435
G1 X1.6729 Y-0.4472
G1 X1.6758 Y-0.451
G2 X1.6809 Y-0.4606 I-0.0303 J-0.0221
G1 X1.6843 Y-0.4704
G1 X1.6913 Y-0.4901
G1 X1.6947 Y-0.4999
G2 X1.6968 Y-0.5105 I-0.0354 J-0.0125
G1 X1.6969 Y-0.5153
G1 X1.6968 Y-0.5201
G1 Y-0.5202
G1 X1.6991 Y-0.5314
G1 X1.7011 Y-0.5427
G1 X1.7027 Y-0.5652
G1 X1.7032 Y-0.5764
G1 Y-1.4314
G1 X1.7027 Y-1.4427
G1 X1.7011 Y-1.4652
G1 X1.6991 Y-1.4764
G1 X1.6968 Y-1.4877
G1 X1.6944 Y-1.4989
G1 X1.6889 Y-1.5214
G1 X1.6848 Y-1.5327
G1 X1.6789 Y-1.5468
G1 X1.6752 Y-1.5552
G1 X1.6687 Y-1.5664
G1 X1.6613 Y-1.5777
G1 X1.6564 Y-1.585
G1 X1.6452 Y-1.6011
G1 X1.6378 Y-1.6114
G1 X1.6275 Y-1.6227
G1 X1.6227 Y-1.6276
G1 X1.6114 Y-1.6378
G1 X1.6002 Y-1.6458
G1 X1.585 Y-1.6564
G1 X1.5777 Y-1.6613
G1 X1.5664 Y-1.6687
G1 X1.5654 Y-1.6693
G1 X1.5653
G1 X1.5616 Y-1.6724
G1 X1.5577 Y-1.6754
G2 X1.5482 Y-1.6804 I-0.0221 J0.0303
G1 X1.5385 Y-1.6839
G1 X1.5178 Y-1.6912
G1 X1.5081 Y-1.6946
G2 X1.4975 Y-1.6967 I-0.0125 J0.0353
G1 X1.4927 Y-1.6969
G1 X1.4878 Y-1.6968
G1 X1.4877
G1 X1.4764 Y-1.6991
G1 X1.4652 Y-1.7011
G1 X1.4427 Y-1.7027
G1 X1.4314 Y-1.7032
G1 X0.5764
G1 X0.5654 Y-1.7027
G1 X0.5649
G1 X0.5613 Y-1.7032 Z-0.2359
G1 X0.5577 Y-1.7038 Z-0.2352
G1 X0.5542 Y-1.7043 Z-0.2341
G1 X0.5507 Y-1.7059 Z-0.2322
G1 X0.5474 Y-1.7074 Z-0.2297
G1 X0.5444 Y-1.7088 Z-0.2268
G1 X0.5425 Y-1.7104 Z-0.2238
G1 X0.5408 Y-1.7118 Z-0.2205
G1 X0.5395 Y-1.7129 Z-0.2169
G1 X0.5385 Y-1.7137 Z-0.2132
G1 X0.5379 Y-1.7142 Z-0.2093
G1 X0.5377 Y-1.7144 Z-0.2053
G0 Z0.1969
G0 X-0.0294 Y-2.4034
G0 Z-0.179
G1 Z-0.2165 F61.
G1 Z-0.2953
G3 X0. Y-2.1992 I-0.9274 J0.2376
G1 Y-2.1933
G1 X-0.0088 Y-2.1502
G1 X-0.0156 Y-2.1067
G1 X-0.0208 Y-2.063
G1 X-0.0247 Y-2.0191
G1 X-0.0278 Y-1.9752
G1 X-0.0301 Y-1.9313
G1 X-0.0319 Y-1.8873
G1 X-0.0332 Y-1.8433
G1 X-0.0342 Y-1.7992
G1 X-0.035 Y-1.7552
G1 X-0.0356 Y-1.7112
G1 X-0.0361 Y-1.6672
G1 X-0.0364 Y-1.6232
G1 X-0.0367 Y-1.5791
G1 X-0.0369 Y-1.5351
G1 X-0.0371 Y-1.4471
G1 X-0.0373 Y-1.315
G1 X-0.0374 Y-1.1389
G1 X-0.0375 Y-0.6106
G1 Y-0.2144
G1 Y-0.1704
G1 X-0.0325 Y-0.1489
G1 X-0.0133 Y-0.1093
G1 X0.0166 Y-0.077
G1 X0.0523 Y-0.0513
G1 X0.0914 Y-0.031
G1 X0.1325 Y-0.0152
G1 X0.1748 Y-0.0029
G1 X0.2178 Y0.0066
G1 X0.2612 Y0.0138
G1 X0.3049 Y0.0194
G1 X0.3487 Y0.0237
G1 X0.3926 Y0.027
G1 X0.4365 Y0.0295
G1 X0.4805 Y0.0314
G1 X0.5245 Y0.0329
G1 X0.5685 Y0.034
G1 X0.6125 Y0.0348
G1 X0.6566 Y0.0355
G1 X0.7006 Y0.0359
G1 X0.7446 Y0.0363
G1 X0.7886 Y0.0366
G1 X0.8327 Y0.0368
G1 X0.9207 Y0.0371
G1 X1.0087 Y0.0373
G1 X1.1408 Y0.0374
G1 X1.449 Y0.0375
G1 X1.8452
G1 X1.8661 Y0.0306
G1 X1.9045 Y0.009
G1 X1.9356 Y-0.0221
G1 X1.9604 Y-0.0585
G1 X1.9798 Y-0.098
G1 X1.995 Y-0.1393
G1 X2.0067 Y-0.1818
G1 X2.0158 Y-0.2249
G1 X2.0228 Y-0.2683
G1 X2.0281 Y-0.312
G1 X2.0322 Y-0.3559
G1 X2.0353 Y-0.3998
G1 X2.0377 Y-0.4437
G1 X2.0396 Y-0.4877
G1 X2.0409 Y-0.5317
G1 X2.042 Y-0.5757
G1 X2.0428 Y-0.6197
G1 X2.0434 Y-0.6638
G1 X2.0439 Y-0.7078
G1 X2.0442 Y-0.7518
G1 X2.0445 Y-0.7958
G1 X2.0447 Y-0.8399
G1 X2.045 Y-0.9279
G1 X2.0452 Y-1.016
G1 X2.0453 Y-1.192
G1 X2.0454 Y-1.5883
G1 Y-1.8304
G1 X2.044 Y-1.8413
G1 X2.0385 Y-1.8626
G1 X2.018 Y-1.9016
G1 X1.9875 Y-1.9333
G1 X1.9514 Y-1.9585
G1 X1.9121 Y-1.9784
G1 X1.8709 Y-1.9939
G1 X1.8285 Y-2.0059
G1 X1.7855 Y-2.0151
G1 X1.742 Y-2.0223
G1 X1.6984 Y-2.0277
G1 X1.6545 Y-2.0319
G1 X1.6106 Y-2.0351
G1 X1.5667 Y-2.0376
G1 X1.5227 Y-2.0394
G1 X1.4787 Y-2.0408
G1 X1.4347 Y-2.0419
G1 X1.3907 Y-2.0428
G1 X1.3466 Y-2.0434
G1 X1.3026 Y-2.0439
G1 X1.2586 Y-2.0442
G1 X1.2146 Y-2.0445
G1 X1.1705 Y-2.0447
G1 X1.0825 Y-2.045
G1 X0.9944 Y-2.0452
G1 X0.8624 Y-2.0453
G1 X0.5542 Y-2.0454
G1 X0.3341
G1 X0.3124 Y-2.0414
G1 X0.2719 Y-2.0242
G1 X0.2382 Y-1.9959
G1 X0.211 Y-1.9613
G1 X0.1893 Y-1.923
G1 X0.1721 Y-1.8825
G1 X0.1587 Y-1.8405
G1 X0.1482 Y-1.7978
G1 X0.14 Y-1.7545
G1 X0.1337 Y-1.7109
G1 X0.1288 Y-1.6672
G1 X0.1251 Y-1.6233
G1 X0.1222 Y-1.5794
G1 X0.1199 Y-1.5354
G1 X0.1182 Y-1.4914
G1 X0.1169 Y-1.4474
G1 X0.1159 Y-1.4034
G1 X0.1151 Y-1.3594
G1 X0.1145 Y-1.3154
G1 X0.114 Y-1.2714
G1 X0.1137 Y-1.2273
G1 X0.1134 Y-1.1833
G1 X0.1132 Y-1.1393
G1 X0.1129 Y-1.0512
G1 X0.1127 Y-0.9632
G1 X0.1126 Y-0.8311
G1 X0.1125 Y-0.567
G1 Y-0.3909
G1 X0.114 Y-0.3469
G1 X0.1291 Y-0.3055
G1 X0.1542 Y-0.2693
G1 X0.1858 Y-0.2387
G1 X0.2219 Y-0.2134
G1 X0.2607 Y-0.1928
G1 X0.3015 Y-0.1761
G1 X0.3434 Y-0.1627
G1 X0.3861 Y-0.152
G1 X0.4293 Y-0.1435
G1 X0.4728 Y-0.1368
G1 X0.5165 Y-0.1316
G1 X0.5604 Y-0.1274
G1 X0.6043 Y-0.1241
G1 X0.6482 Y-0.1216
G1 X0.6922 Y-0.1196
G1 X0.7362 Y-0.118
G1 X0.7802 Y-0.1168
G1 X0.8242 Y-0.1158
G1 X0.8682 Y-0.1151
G1 X0.9123 Y-0.1145
G1 X0.9563 Y-0.1141
G1 X1.0003 Y-0.1137
G1 X1.0443 Y-0.1134
G1 X1.0883 Y-0.1132
G1 X1.1764 Y-0.1129
G1 X1.2644 Y-0.1128
G1 X1.3965 Y-0.1126
G1 X1.6166 Y-0.1125
G1 X1.6606 Y-0.1139
G1 X1.702 Y-0.1289
G1 X1.7383 Y-0.1538
G1 X1.7689 Y-0.1855
G1 X1.7943 Y-0.2214
G1 X1.815 Y-0.2603
G1 X1.8317 Y-0.301
G1 X1.8451 Y-0.343
G1 X1.8558 Y-0.3857
G1 X1.8643 Y-0.4289
G1 X1.871 Y-0.4724
G1 X1.8763 Y-0.5161
G1 X1.8804 Y-0.5599
G1 X1.8837 Y-0.6038
G1 X1.8863 Y-0.6478
G1 X1.8883 Y-0.6917
G1 X1.8898 Y-0.7357
G1 X1.8911 Y-0.7798
G1 X1.892 Y-0.8238
G1 X1.8928 Y-0.8678
G1 X1.8934 Y-0.9118
G1 X1.8938 Y-0.9558
G1 X1.8942 Y-0.9998
G1 X1.8944 Y-1.0439
G1 X1.8946 Y-1.0879
G1 X1.8949 Y-1.1759
G1 X1.8951 Y-1.264
G1 X1.8953 Y-1.3961
G1 Y-1.6162
G1 X1.894 Y-1.6602
G1 X1.879 Y-1.7016
G1 X1.8541 Y-1.7379
G1 X1.8225 Y-1.7686
G1 X1.7865 Y-1.794
G1 X1.7477 Y-1.8147
G1 X1.707 Y-1.8315
G1 X1.6651 Y-1.8449
G1 X1.6224 Y-1.8556
G1 X1.5792 Y-1.8641
G1 X1.5357 Y-1.8709
G1 X1.492 Y-1.8762
G1 X1.4482 Y-1.8804
G1 X1.4043 Y-1.8837
G1 X1.3603 Y-1.8862
G1 X1.3163 Y-1.8882
G1 X1.2723 Y-1.8898
G1 X1.2283 Y-1.8911
G1 X1.1843 Y-1.892
G1 X1.1403 Y-1.8928
G1 X1.0963 Y-1.8933
G1 X1.0522 Y-1.8938
G1 X1.0082 Y-1.8942
G1 X0.9642 Y-1.8944
G1 X0.9202 Y-1.8946
G1 X0.8321 Y-1.8949
G1 X0.7441 Y-1.8951
G1 X0.612 Y-1.8953
G1 X0.524
G1 X0.4807 Y-1.8869
G1 X0.4416 Y-1.8668
G1 X0.4078 Y-1.8386
G1 X0.3794 Y-1.8049
G1 X0.3561 Y-1.7676
G1 X0.337 Y-1.7279
G1 X0.3217 Y-1.6867
G1 X0.3093 Y-1.6444
G1 X0.2995 Y-1.6015
G1 X0.2916 Y-1.5582
G1 X0.2854 Y-1.5146
G1 X0.2805 Y-1.4708
G1 X0.2766 Y-1.427
G1 X0.2736 Y-1.3831
G1 X0.2712 Y-1.3391
G1 X0.2693 Y-1.2951
G1 X0.2678 Y-1.2511
G1 X0.2666 Y-1.2071
G1 X0.2657 Y-1.1631
G1 X0.265 Y-1.1191
G1 X0.2645 Y-1.0751
G1 X0.264 Y-1.031
G1 X0.2637 Y-0.987
G1 X0.2634 Y-0.943
G1 X0.2632 Y-0.899
G1 X0.2629 Y-0.8109
G1 X0.2628 Y-0.7229
G1 X0.2626 Y-0.5908
G1 Y-0.5468
G1 X0.2689 Y-0.5032
G1 X0.2863 Y-0.4628
G1 X0.312 Y-0.4271
G1 X0.3438 Y-0.3966
G1 X0.3797 Y-0.371
G1 X0.4183 Y-0.3499
G1 X0.4296 Y-0.3451
G1 X0.4336 Y-0.3433
G1 X0.4376 Y-0.3413
G1 X0.4414 Y-0.3392
G1 X0.4527 Y-0.3327
G1 X0.4611 Y-0.3289
G1 X0.4752 Y-0.3231
G1 X0.4864 Y-0.319
G1 X0.5089 Y-0.3135
G1 X0.5202 Y-0.311
G1 X0.5629 Y-0.3003
G1 X0.6062 Y-0.2927
G1 X0.6498 Y-0.2865
G1 X0.6936 Y-0.2815
G1 X0.7374 Y-0.2776
G1 X0.7813 Y-0.2745
G1 X0.8253 Y-0.272
G1 X0.8693 Y-0.27
G1 X0.9133 Y-0.2684
G1 X0.9573 Y-0.2672
G1 X1.0013 Y-0.2662
G1 X1.0453 Y-0.2654
G1 X1.0893 Y-0.2648
G1 X1.1334 Y-0.2643
G1 X1.1774 Y-0.2639
G1 X1.2214 Y-0.2636
G1 X1.2654 Y-0.2634
G1 X1.3094 Y-0.2632
G1 X1.3975 Y-0.2629
G1 X1.4415 Y-0.2628
G1 X1.4855 Y-0.2641
G1 X1.5277 Y-0.2768
G1 X1.5656 Y-0.2992
G1 X1.5983 Y-0.3286
G1 X1.626 Y-0.3629
G1 X1.649 Y-0.4004
G1 X1.6665 Y-0.4372
G1 X1.6676 Y-0.4393
G1 X1.6687 Y-0.4414
G1 X1.6698 Y-0.4434
G1 X1.6752 Y-0.4527
G1 X1.6789 Y-0.4611
G1 X1.6848 Y-0.4752
G1 X1.6889 Y-0.4864
G1 X1.6944 Y-0.5089
G1 X1.6968 Y-0.5202
G1 X1.7075 Y-0.5629
G1 X1.7152 Y-0.6062
G1 X1.7214 Y-0.6498
G1 X1.7263 Y-0.6936
G1 X1.7303 Y-0.7374
G1 X1.7334 Y-0.7813
G1 X1.7359 Y-0.8253
G1 X1.7379 Y-0.8693
G1 X1.7395 Y-0.9133
G1 X1.7407 Y-0.9573
G1 X1.7417 Y-1.0013
G1 X1.7425 Y-1.0453
G1 X1.7431 Y-1.0893
G1 X1.7436 Y-1.1334
G1 X1.744 Y-1.1774
G1 X1.7443 Y-1.2214
G1 X1.7445 Y-1.2654
G1 X1.7447 Y-1.3094
G1 X1.745 Y-1.3975
G1 Y-1.4415
G1 X1.7437 Y-1.4855
G1 X1.7309 Y-1.5276
G1 X1.7085 Y-1.5655
G1 X1.6791 Y-1.5983
G1 X1.6449 Y-1.626
G1 X1.6074 Y-1.649
G1 X1.5716 Y-1.666
G1 X1.5695 Y-1.667
G1 X1.5674 Y-1.6681
G1 X1.5654 Y-1.6693
G1 X1.5552 Y-1.6752
G1 X1.5468 Y-1.6789
G1 X1.5327 Y-1.6848
G1 X1.5214 Y-1.6889
G1 X1.4989 Y-1.6944
G1 X1.4877 Y-1.6968
G1 X1.445 Y-1.7075
G1 X1.4016 Y-1.7152
G1 X1.358 Y-1.7214
G1 X1.3143 Y-1.7263
G1 X1.2704 Y-1.7303
G1 X1.2265 Y-1.7334
G1 X1.1826 Y-1.7359
G1 X1.1386 Y-1.7379
G1 X1.0946 Y-1.7395
G1 X1.0506 Y-1.7407
G1 X1.0066 Y-1.7417
G1 X0.9626 Y-1.7425
G1 X0.9185 Y-1.7431
G1 X0.8745 Y-1.7436
G1 X0.8305 Y-1.744
G1 X0.7865 Y-1.7443
G1 X0.7425 Y-1.7445
G1 X0.6984 Y-1.7447
G1 X0.6549 Y-1.7381
G1 X0.6145 Y-1.7207
G1 X0.6124 Y-1.7192
G1 X0.6017 Y-1.7126
G1 X0.5901 Y-1.7075
G1 X0.578 Y-1.7042
G1 X0.5654 Y-1.7027
G1 X0.5427 Y-1.7011
G1 X0.5314 Y-1.6991
G1 X0.5202 Y-1.6968
G1 X0.5089 Y-1.6944
G1 X0.4864 Y-1.6889
G1 X0.4752 Y-1.6848
G1 X0.4611 Y-1.6789
G1 X0.4527 Y-1.6752
G1 X0.4414 Y-1.6687
G1 X0.4302 Y-1.6613
G1 X0.4229 Y-1.6564
G1 X0.4068 Y-1.6452
G1 X0.3964 Y-1.6378
G1 X0.3852 Y-1.6276
G1 X0.3804 Y-1.6227
G1 X0.3701 Y-1.6114
G1 X0.362 Y-1.6002
G1 X0.3514 Y-1.585
G1 X0.3465 Y-1.5777
G1 X0.3392 Y-1.5664
G1 X0.3327 Y-1.5552
G1 X0.3289 Y-1.5468
G1 X0.3231 Y-1.5327
G1 X0.319 Y-1.5214
G1 X0.3135 Y-1.4989
G1 X0.311 Y-1.4877
G1 X0.3088 Y-1.4764
G1 X0.3068 Y-1.4652
G1 X0.3052 Y-1.4427
G1 X0.3046 Y-1.4314
G1 Y-0.5764
G1 X0.3052 Y-0.5652
G1 X0.3068 Y-0.5427
G1 X0.3088 Y-0.5314
G1 X0.311 Y-0.5202
G1 X0.3135 Y-0.5089
G1 X0.319 Y-0.4864
G1 X0.3231 Y-0.4752
G1 X0.3289 Y-0.4611
G1 X0.3327 Y-0.4527
G1 X0.3392 Y-0.4414
G1 X0.3465 Y-0.4302
G1 X0.3514 Y-0.4229
G1 X0.3627 Y-0.4068
G1 X0.3701 Y-0.3964
G1 X0.3804 Y-0.3852
G1 X0.3852 Y-0.3803
G1 X0.3964 Y-0.3701
G1 X0.4077 Y-0.362
G1 X0.4229 Y-0.3514
G1 X0.4302 Y-0.3465
G1 X0.4414 Y-0.3392
G1 X0.4415
G1 X0.4447 Y-0.3362
G1 X0.4481 Y-0.3333
G2 X0.4591 Y-0.3271 I0.0237 J-0.0291
G1 X0.4679 Y-0.3239
G1 X0.4901 Y-0.316
G1 X0.4988 Y-0.3129
G2 X0.5113 Y-0.3107 I0.0126 J-0.0353
G1 X0.5157 Y-0.3108
G1 X0.5201 Y-0.311
G1 X0.5202
G1 X0.5314 Y-0.3088
G1 X0.5427 Y-0.3068
G1 X0.5652 Y-0.3052
G1 X0.5764 Y-0.3046
G1 X1.4314
G1 X1.4427 Y-0.3052
G1 X1.4652 Y-0.3068
G1 X1.4764 Y-0.3088
G1 X1.4877 Y-0.311
G1 X1.4989 Y-0.3135
G1 X1.5214 Y-0.319
G1 X1.5327 Y-0.3231
G1 X1.5468 Y-0.3289
G1 X1.5552 Y-0.3327
G1 X1.5664 Y-0.3392
G1 X1.5777 Y-0.3465
G1 X1.585 Y-0.3514
G1 X1.6011 Y-0.3627
G1 X1.6114 Y-0.3701
G1 X1.6227 Y-0.3803
G1 X1.6275 Y-0.3852
G1 X1.6378 Y-0.3964
G1 X1.6458 Y-0.4077
G1 X1.6564 Y-0.4229
G1 X1.6613 Y-0.4302
G1 X1.6687 Y-0.4414
G1 X1.6698 Y-0.4434
G1 X1.6699 Y-0.4435
G1 X1.6729 Y-0.4472
G1 X1.6758 Y-0.451
G2 X1.6809 Y-0.4606 I-0.0303 J-0.0221
G1 X1.6843 Y-0.4704
G1 X1.6913 Y-0.4901
G1 X1.6947 Y-0.4999
G2 X1.6968 Y-0.5105 I-0.0354 J-0.0125
G1 X1.6969 Y-0.5153
G1 X1.6968 Y-0.5201
G1 Y-0.5202
G1 X1.6991 Y-0.5314
G1 X1.7011 Y-0.5427
G1 X1.7027 Y-0.5652
G1 X1.7032 Y-0.5764
G1 Y-1.4314
G1 X1.7027 Y-1.4427
G1 X1.7011 Y-1.4652
G1 X1.6991 Y-1.4764
G1 X1.6968 Y-1.4877
G1 X1.6944 Y-1.4989
G1 X1.6889 Y-1.5214
G1 X1.6848 Y-1.5327
G1 X1.6789 Y-1.5468
G1 X1.6752 Y-1.5552
G1 X1.6687 Y-1.5664
G1 X1.6613 Y-1.5777
G1 X1.6564 Y-1.585
G1 X1.6452 Y-1.6011
G1 X1.6378 Y-1.6114
G1 X1.6275 Y-1.6227
G1 X1.6227 Y-1.6276
G1 X1.6114 Y-1.6378
G1 X1.6002 Y-1.6458
G1 X1.585 Y-1.6564
G1 X1.5777 Y-1.6613
G1 X1.5664 Y-1.6687
G1 X1.5654 Y-1.6693
G1 X1.5653
G1 X1.5616 Y-1.6724
G1 X1.5577 Y-1.6754
G2 X1.5482 Y-1.6804 I-0.0221 J0.0303
G1 X1.5385 Y-1.6839
G1 X1.5178 Y-1.6912
G1 X1.5081 Y-1.6946
G2 X1.4975 Y-1.6967 I-0.0125 J0.0353
G1 X1.4927 Y-1.6969
G1 X1.4878 Y-1.6968
G1 X1.4877
G1 X1.4764 Y-1.6991
G1 X1.4652 Y-1.7011
G1 X1.4427 Y-1.7027
G1 X1.4314 Y-1.7032
G1 X0.5764
G1 X0.5654 Y-1.7027
G1 X0.5649
G1 X0.5613 Y-1.7032 Z-0.295
G1 X0.5577 Y-1.7038 Z-0.2943
G1 X0.5542 Y-1.7043 Z-0.2931
G1 X0.5507 Y-1.7059 Z-0.2912
G1 X0.5474 Y-1.7074 Z-0.2888
G1 X0.5444 Y-1.7088 Z-0.2859
G1 X0.5425 Y-1.7104 Z-0.2829
G1 X0.5408 Y-1.7118 Z-0.2796
G1 X0.5395 Y-1.7129 Z-0.276
G1 X0.5385 Y-1.7137 Z-0.2722
G1 X0.5379 Y-1.7142 Z-0.2683
G1 X0.5377 Y-1.7144 Z-0.2644
G0 Z0.1969
G0 X-0.0294 Y-2.4034
G0 Z-0.2381
G1 Z-0.2756 F61.
G1 Z-0.3543
G3 X0. Y-2.1992 I-0.9274 J0.2376
G1 Y-2.1933
G1 X-0.0088 Y-2.1502
G1 X-0.0156 Y-2.1067
G1 X-0.0208 Y-2.063
G1 X-0.0247 Y-2.0191
G1 X-0.0278 Y-1.9752
G1 X-0.0301 Y-1.9313
G1 X-0.0319 Y-1.8873
G1 X-0.0332 Y-1.8433
G1 X-0.0342 Y-1.7992
G1 X-0.035 Y-1.7552
G1 X-0.0356 Y-1.7112
G1 X-0.0361 Y-1.6672
G1 X-0.0364 Y-1.6232
G1 X-0.0367 Y-1.5791
G1 X-0.0369 Y-1.5351
G1 X-0.0371 Y-1.4471
G1 X-0.0373 Y-1.315
G1 X-0.0374 Y-1.1389
G1 X-0.0375 Y-0.6106
G1 Y-0.2144
G1 Y-0.1704
G1 X-0.0325 Y-0.1489
G1 X-0.0133 Y-0.1093
G1 X0.0166 Y-0.077
G1 X0.0523 Y-0.0513
G1 X0.0914 Y-0.031
G1 X0.1325 Y-0.0152
G1 X0.1748 Y-0.0029
G1 X0.2178 Y0.0066
G1 X0.2612 Y0.0138
G1 X0.3049 Y0.0194
G1 X0.3487 Y0.0237
G1 X0.3926 Y0.027
G1 X0.4365 Y0.0295
G1 X0.4805 Y0.0314
G1 X0.5245 Y0.0329
G1 X0.5685 Y0.034
G1 X0.6125 Y0.0348
G1 X0.6566 Y0.0355
G1 X0.7006 Y0.0359
G1 X0.7446 Y0.0363
G1 X0.7886 Y0.0366
G1 X0.8327 Y0.0368
G1 X0.9207 Y0.0371
G1 X1.0087 Y0.0373
G1 X1.1408 Y0.0374
G1 X1.449 Y0.0375
G1 X1.8452
G1 X1.8661 Y0.0306
G1 X1.9045 Y0.009
G1 X1.9356 Y-0.0221
G1 X1.9604 Y-0.0585
G1 X1.9798 Y-0.098
G1 X1.995 Y-0.1393
G1 X2.0067 Y-0.1818
G1 X2.0158 Y-0.2249
G1 X2.0228 Y-0.2683
G1 X2.0281 Y-0.312
G1 X2.0322 Y-0.3559
G1 X2.0353 Y-0.3998
G1 X2.0377 Y-0.4437
G1 X2.0396 Y-0.4877
G1 X2.0409 Y-0.5317
G1 X2.042 Y-0.5757
G1 X2.0428 Y-0.6197
G1 X2.0434 Y-0.6638
G1 X2.0439 Y-0.7078
G1 X2.0442 Y-0.7518
G1 X2.0445 Y-0.7958
G1 X2.0447 Y-0.8399
G1 X2.045 Y-0.9279
G1 X2.0452 Y-1.016
G1 X2.0453 Y-1.192
G1 X2.0454 Y-1.5883
G1 Y-1.8304
G1 X2.044 Y-1.8413
G1 X2.0385 Y-1.8626
G1 X2.018 Y-1.9016
G1 X1.9875 Y-1.9333
G1 X1.9514 Y-1.9585
G1 X1.9121 Y-1.9784
G1 X1.8709 Y-1.9939
G1 X1.8285 Y-2.0059
G1 X1.7855 Y-2.0151
G1 X1.742 Y-2.0223
G1 X1.6984 Y-2.0277
G1 X1.6545 Y-2.0319
G1 X1.6106 Y-2.0351
G1 X1.5667 Y-2.0376
G1 X1.5227 Y-2.0394
G1 X1.4787 Y-2.0408
G1 X1.4347 Y-2.0419
G1 X1.3907 Y-2.0428
G1 X1.3466 Y-2.0434
G1 X1.3026 Y-2.0439
G1 X1.2586 Y-2.0442
G1 X1.2146 Y-2.0445
G1 X1.1705 Y-2.0447
G1 X1.0825 Y-2.045
G1 X0.9944 Y-2.0452
G1 X0.8624 Y-2.0453
G1 X0.5542 Y-2.0454
G1 X0.3341
G1 X0.3124 Y-2.0414
G1 X0.2719 Y-2.0242
G1 X0.2382 Y-1.9959
G1 X0.211 Y-1.9613
G1 X0.1893 Y-1.923
G1 X0.1721 Y-1.8825
G1 X0.1587 Y-1.8405
G1 X0.1482 Y-1.7978
G1 X0.14 Y-1.7545
G1 X0.1337 Y-1.7109
G1 X0.1288 Y-1.6672
G1 X0.1251 Y-1.6233
G1 X0.1222 Y-1.5794
G1 X0.1199 Y-1.5354
G1 X0.1182 Y-1.4914
G1 X0.1169 Y-1.4474
G1 X0.1159 Y-1.4034
G1 X0.1151 Y-1.3594
G1 X0.1145 Y-1.3154
G1 X0.114 Y-1.2714
G1 X0.1137 Y-1.2273
G1 X0.1134 Y-1.1833
G1 X0.1132 Y-1.1393
G1 X0.1129 Y-1.0512
G1 X0.1127 Y-0.9632
G1 X0.1126 Y-0.8311
G1 X0.1125 Y-0.567
G1 Y-0.3909
G1 X0.114 Y-0.3469
G1 X0.1291 Y-0.3055
G1 X0.1542 Y-0.2693
G1 X0.1858 Y-0.2387
G1 X0.2219 Y-0.2134
G1 X0.2607 Y-0.1928
G1 X0.3015 Y-0.1761
G1 X0.3434 Y-0.1627
G1 X0.3861 Y-0.152
G1 X0.4293 Y-0.1435
G1 X0.4728 Y-0.1368
G1 X0.5165 Y-0.1316
G1 X0.5604 Y-0.1274
G1 X0.6043 Y-0.1241
G1 X0.6482 Y-0.1216
G1 X0.6922 Y-0.1196
G1 X0.7362 Y-0.118
G1 X0.7802 Y-0.1168
G1 X0.8242 Y-0.1158
G1 X0.8682 Y-0.1151
G1 X0.9123 Y-0.1145
G1 X0.9563 Y-0.1141
G1 X1.0003 Y-0.1137
G1 X1.0443 Y-0.1134
G1 X1.0883 Y-0.1132
G1 X1.1764 Y-0.1129
G1 X1.2644 Y-0.1128
G1 X1.3965 Y-0.1126
G1 X1.6166 Y-0.1125
G1 X1.6606 Y-0.1139
G1 X1.702 Y-0.1289
G1 X1.7383 Y-0.1538
G1 X1.7689 Y-0.1855
G1 X1.7943 Y-0.2214
G1 X1.815 Y-0.2603
G1 X1.8317 Y-0.301
G1 X1.8451 Y-0.343
G1 X1.8558 Y-0.3857
G1 X1.8643 Y-0.4289
G1 X1.871 Y-0.4724
G1 X1.8763 Y-0.5161
G1 X1.8804 Y-0.5599
G1 X1.8837 Y-0.6038
G1 X1.8863 Y-0.6478
G1 X1.8883 Y-0.6917
G1 X1.8898 Y-0.7357
G1 X1.8911 Y-0.7798
G1 X1.892 Y-0.8238
G1 X1.8928 Y-0.8678
G1 X1.8934 Y-0.9118
G1 X1.8938 Y-0.9558
G1 X1.8942 Y-0.9998
G1 X1.8944 Y-1.0439
G1 X1.8946 Y-1.0879
G1 X1.8949 Y-1.1759
G1 X1.8951 Y-1.264
G1 X1.8953 Y-1.3961
G1 Y-1.6162
G1 X1.894 Y-1.6602
G1 X1.879 Y-1.7016
G1 X1.8541 Y-1.7379
G1 X1.8225 Y-1.7686
G1 X1.7865 Y-1.794
G1 X1.7477 Y-1.8147
G1 X1.707 Y-1.8315
G1 X1.6651 Y-1.8449
G1 X1.6224 Y-1.8556
G1 X1.5792 Y-1.8641
G1 X1.5357 Y-1.8709
G1 X1.492 Y-1.8762
G1 X1.4482 Y-1.8804
G1 X1.4043 Y-1.8837
G1 X1.3603 Y-1.8862
G1 X1.3163 Y-1.8882
G1 X1.2723 Y-1.8898
G1 X1.2283 Y-1.8911
G1 X1.1843 Y-1.892
G1 X1.1403 Y-1.8928
G1 X1.0963 Y-1.8933
G1 X1.0522 Y-1.8938
G1 X1.0082 Y-1.8942
G1 X0.9642 Y-1.8944
G1 X0.9202 Y-1.8946
G1 X0.8321 Y-1.8949
G1 X0.7441 Y-1.8951
G1 X0.612 Y-1.8953
G1 X0.524
G1 X0.4807 Y-1.8869
G1 X0.4416 Y-1.8668
G1 X0.4078 Y-1.8386
G1 X0.3794 Y-1.8049
G1 X0.3561 Y-1.7676
G1 X0.337 Y-1.7279
G1 X0.3217 Y-1.6867
G1 X0.3093 Y-1.6444
G1 X0.2995 Y-1.6015
G1 X0.2916 Y-1.5582
G1 X0.2854 Y-1.5146
G1 X0.2805 Y-1.4708
G1 X0.2766 Y-1.427
G1 X0.2736 Y-1.3831
G1 X0.2712 Y-1.3391
G1 X0.2693 Y-1.2951
G1 X0.2678 Y-1.2511
G1 X0.2666 Y-1.2071
G1 X0.2657 Y-1.1631
G1 X0.265 Y-1.1191
G1 X0.2645 Y-1.0751
G1 X0.264 Y-1.031
G1 X0.2637 Y-0.987
G1 X0.2634 Y-0.943
G1 X0.2632 Y-0.899
G1 X0.2629 Y-0.8109
G1 X0.2628 Y-0.7229
G1 X0.2626 Y-0.5908
G1 Y-0.5468
G1 X0.2689 Y-0.5032
G1 X0.2863 Y-0.4628
G1 X0.312 Y-0.4271
G1 X0.3438 Y-0.3966
G1 X0.3797 Y-0.371
G1 X0.4183 Y-0.3499
G1 X0.4296 Y-0.3451
G1 X0.4336 Y-0.3433
G1 X0.4376 Y-0.3413
G1 X0.4414 Y-0.3392
G1 X0.4527 Y-0.3327
G1 X0.4611 Y-0.3289
G1 X0.4752 Y-0.3231
G1 X0.4864 Y-0.319
G1 X0.5089 Y-0.3135
G1 X0.5202 Y-0.311
G1 X0.5629 Y-0.3003
G1 X0.6062 Y-0.2927
G1 X0.6498 Y-0.2865
G1 X0.6936 Y-0.2815
G1 X0.7374 Y-0.2776
G1 X0.7813 Y-0.2745
G1 X0.8253 Y-0.272
G1 X0.8693 Y-0.27
G1 X0.9133 Y-0.2684
G1 X0.9573 Y-0.2672
G1 X1.0013 Y-0.2662
G1 X1.0453 Y-0.2654
G1 X1.0893 Y-0.2648
G1 X1.1334 Y-0.2643
G1 X1.1774 Y-0.2639
G1 X1.2214 Y-0.2636
G1 X1.2654 Y-0.2634
G1 X1.3094 Y-0.2632
G1 X1.3975 Y-0.2629
G1 X1.4415 Y-0.2628
G1 X1.4855 Y-0.2641
G1 X1.5277 Y-0.2768
G1 X1.5656 Y-0.2992
G1 X1.5983 Y-0.3286
G1 X1.626 Y-0.3629
G1 X1.649 Y-0.4004
G1 X1.6665 Y-0.4372
G1 X1.6676 Y-0.4393
G1 X1.6687 Y-0.4414
G1 X1.6698 Y-0.4434
G1 X1.6752 Y-0.4527
G1 X1.6789 Y-0.4611
G1 X1.6848 Y-0.4752
G1 X1.6889 Y-0.4864
G1 X1.6944 Y-0.5089
G1 X1.6968 Y-0.5202
G1 X1.7075 Y-0.5629
G1 X1.7152 Y-0.6062
G1 X1.7214 Y-0.6498
G1 X1.7263 Y-0.6936
G1 X1.7303 Y-0.7374
G1 X1.7334 Y-0.7813
G1 X1.7359 Y-0.8253
G1 X1.7379 Y-0.8693
G1 X1.7395 Y-0.9133
G1 X1.7407 Y-0.9573
G1 X1.7417 Y-1.0013
G1 X1.7425 Y-1.0453
G1 X1.7431 Y-1.0893
G1 X1.7436 Y-1.1334
G1 X1.744 Y-1.1774
G1 X1.7443 Y-1.2214
G1 X1.7445 Y-1.2654
G1 X1.7447 Y-1.3094
G1 X1.745 Y-1.3975
G1 Y-1.4415
G1 X1.7437 Y-1.4855
G1 X1.7309 Y-1.5276
G1 X1.7085 Y-1.5655
G1 X1.6791 Y-1.5983
G1 X1.6449 Y-1.626
G1 X1.6074 Y-1.649
G1 X1.5716 Y-1.666
G1 X1.5695 Y-1.667
G1 X1.5674 Y-1.6681
G1 X1.5654 Y-1.6693
G1 X1.5552 Y-1.6752
G1 X1.5468 Y-1.6789
G1 X1.5327 Y-1.6848
G1 X1.5214 Y-1.6889
G1 X1.4989 Y-1.6944
G1 X1.4877 Y-1.6968
G1 X1.445 Y-1.7075
G1 X1.4016 Y-1.7152
G1 X1.358 Y-1.7214
G1 X1.3143 Y-1.7263
G1 X1.2704 Y-1.7303
G1 X1.2265 Y-1.7334
G1 X1.1826 Y-1.7359
G1 X1.1386 Y-1.7379
G1 X1.0946 Y-1.7395
G1 X1.0506 Y-1.7407
G1 X1.0066 Y-1.7417
G1 X0.9626 Y-1.7425
G1 X0.9185 Y-1.7431
G1 X0.8745 Y-1.7436
G1 X0.8305 Y-1.744
G1 X0.7865 Y-1.7443
G1 X0.7425 Y-1.7445
G1 X0.6984 Y-1.7447
G1 X0.6549 Y-1.7381
G1 X0.6145 Y-1.7207
G1 X0.6124 Y-1.7192
G1 X0.6017 Y-1.7126
G1 X0.5901 Y-1.7075
G1 X0.578 Y-1.7042
G1 X0.5654 Y-1.7027
G1 X0.5427 Y-1.7011
G1 X0.5314 Y-1.6991
G1 X0.5202 Y-1.6968
G1 X0.5089 Y-1.6944
G1 X0.4864 Y-1.6889
G1 X0.4752 Y-1.6848
G1 X0.4611 Y-1.6789
G1 X0.4527 Y-1.6752
G1 X0.4414 Y-1.6687
G1 X0.4302 Y-1.6613
G1 X0.4229 Y-1.6564
G1 X0.4068 Y-1.6452
G1 X0.3964 Y-1.6378
G1 X0.3852 Y-1.6276
G1 X0.3804 Y-1.6227
G1 X0.3701 Y-1.6114
G1 X0.362 Y-1.6002
G1 X0.3514 Y-1.585
G1 X0.3465 Y-1.5777
G1 X0.3392 Y-1.5664
G1 X0.3327 Y-1.5552
G1 X0.3289 Y-1.5468
G1 X0.3231 Y-1.5327
G1 X0.319 Y-1.5214
G1 X0.3135 Y-1.4989
G1 X0.311 Y-1.4877
G1 X0.3088 Y-1.4764
G1 X0.3068 Y-1.4652
G1 X0.3052 Y-1.4427
G1 X0.3046 Y-1.4314
G1 Y-0.5764
G1 X0.3052 Y-0.5652
G1 X0.3068 Y-0.5427
G1 X0.3088 Y-0.5314
G1 X0.311 Y-0.5202
G1 X0.3135 Y-0.5089
G1 X0.319 Y-0.4864
G1 X0.3231 Y-0.4752
G1 X0.3289 Y-0.4611
G1 X0.3327 Y-0.4527
G1 X0.3392 Y-0.4414
G1 X0.3465 Y-0.4302
G1 X0.3514 Y-0.4229
G1 X0.3627 Y-0.4068
G1 X0.3701 Y-0.3964
G1 X0.3804 Y-0.3852
G1 X0.3852 Y-0.3803
G1 X0.3964 Y-0.3701
G1 X0.4077 Y-0.362
G1 X0.4229 Y-0.3514
G1 X0.4302 Y-0.3465
G1 X0.4414 Y-0.3392
G1 X0.4415
G1 X0.4447 Y-0.3362
G1 X0.4481 Y-0.3333
G2 X0.4591 Y-0.3271 I0.0237 J-0.0291
G1 X0.4679 Y-0.3239
G1 X0.4901 Y-0.316
G1 X0.4988 Y-0.3129
G2 X0.5113 Y-0.3107 I0.0126 J-0.0353
G1 X0.5157 Y-0.3108
G1 X0.5201 Y-0.311
G1 X0.5202
G1 X0.5314 Y-0.3088
G1 X0.5427 Y-0.3068
G1 X0.5652 Y-0.3052
G1 X0.5764 Y-0.3046
G1 X1.4314
G1 X1.4427 Y-0.3052
G1 X1.4652 Y-0.3068
G1 X1.4764 Y-0.3088
G1 X1.4877 Y-0.311
G1 X1.4989 Y-0.3135
G1 X1.5214 Y-0.319
G1 X1.5327 Y-0.3231
G1 X1.5468 Y-0.3289
G1 X1.5552 Y-0.3327
G1 X1.5664 Y-0.3392
G1 X1.5777 Y-0.3465
G1 X1.585 Y-0.3514
G1 X1.6011 Y-0.3627
G1 X1.6114 Y-0.3701
G1 X1.6227 Y-0.3803
G1 X1.6275 Y-0.3852
G1 X1.6378 Y-0.3964
G1 X1.6458 Y-0.4077
G1 X1.6564 Y-0.4229
G1 X1.6613 Y-0.4302
G1 X1.6687 Y-0.4414
G1 X1.6698 Y-0.4434
G1 X1.6699 Y-0.4435
G1 X1.6729 Y-0.4472
G1 X1.6758 Y-0.451
G2 X1.6809 Y-0.4606 I-0.0303 J-0.0221
G1 X1.6843 Y-0.4704
G1 X1.6913 Y-0.4901
G1 X1.6947 Y-0.4999
G2 X1.6968 Y-0.5105 I-0.0354 J-0.0125
G1 X1.6969 Y-0.5153
G1 X1.6968 Y-0.5201
G1 Y-0.5202
G1 X1.6991 Y-0.5314
G1 X1.7011 Y-0.5427
G1 X1.7027 Y-0.5652
G1 X1.7032 Y-0.5764
G1 Y-1.4314
G1 X1.7027 Y-1.4427
G1 X1.7011 Y-1.4652
G1 X1.6991 Y-1.4764
G1 X1.6968 Y-1.4877
G1 X1.6944 Y-1.4989
G1 X1.6889 Y-1.5214
G1 X1.6848 Y-1.5327
G1 X1.6789 Y-1.5468
G1 X1.6752 Y-1.5552
G1 X1.6687 Y-1.5664
G1 X1.6613 Y-1.5777
G1 X1.6564 Y-1.585
G1 X1.6452 Y-1.6011
G1 X1.6378 Y-1.6114
G1 X1.6275 Y-1.6227
G1 X1.6227 Y-1.6276
G1 X1.6114 Y-1.6378
G1 X1.6002 Y-1.6458
G1 X1.585 Y-1.6564
G1 X1.5777 Y-1.6613
G1 X1.5664 Y-1.6687
G1 X1.5654 Y-1.6693
G1 X1.5653
G1 X1.5616 Y-1.6724
G1 X1.5577 Y-1.6754
G2 X1.5482 Y-1.6804 I-0.0221 J0.0303
G1 X1.5385 Y-1.6839
G1 X1.5178 Y-1.6912
G1 X1.5081 Y-1.6946
G2 X1.4975 Y-1.6967 I-0.0125 J0.0353
G1 X1.4927 Y-1.6969
G1 X1.4878 Y-1.6968
G1 X1.4877
G1 X1.4764 Y-1.6991
G1 X1.4652 Y-1.7011
G1 X1.4427 Y-1.7027
G1 X1.4314 Y-1.7032
G1 X0.5764
G1 X0.5654 Y-1.7027
G1 X0.5649
G1 X0.5613 Y-1.7032 Z-0.354
G1 X0.5577 Y-1.7038 Z-0.3533
G1 X0.5542 Y-1.7043 Z-0.3522
G1 X0.5507 Y-1.7059 Z-0.3503
G1 X0.5474 Y-1.7074 Z-0.3479
G1 X0.5444 Y-1.7088 Z-0.3449
G1 X0.5425 Y-1.7104 Z-0.3419
G1 X0.5408 Y-1.7118 Z-0.3386
G1 X0.5395 Y-1.7129 Z-0.335
G1 X0.5385 Y-1.7137 Z-0.3313
G1 X0.5379 Y-1.7142 Z-0.3274
G1 X0.5377 Y-1.7144 Z-0.3234
G0 Z0.1969
G0 X-0.0294 Y-2.4034
G0 Z-0.242
G1 Z-0.2795 F61.
G1 Z-0.3583
G3 X0. Y-2.1992 I-0.9274 J0.2376
G1 Y-2.1933
G1 X-0.0088 Y-2.1502
G1 X-0.0156 Y-2.1067
G1 X-0.0208 Y-2.063
G1 X-0.0247 Y-2.0191
G1 X-0.0278 Y-1.9752
G1 X-0.0301 Y-1.9313
G1 X-0.0319 Y-1.8873
G1 X-0.0332 Y-1.8433
G1 X-0.0342 Y-1.7992
G1 X-0.035 Y-1.7552
G1 X-0.0356 Y-1.7112
G1 X-0.0361 Y-1.6672
G1 X-0.0364 Y-1.6232
G1 X-0.0367 Y-1.5791
G1 X-0.0369 Y-1.5351
G1 X-0.0371 Y-1.4471
G1 X-0.0373 Y-1.315
G1 X-0.0374 Y-1.1389
G1 X-0.0375 Y-0.6106
G1 Y-0.2144
G1 Y-0.1704
G1 X-0.0325 Y-0.1489
G1 X-0.0133 Y-0.1093
G1 X0.0166 Y-0.077
G1 X0.0523 Y-0.0513
G1 X0.0914 Y-0.031
G1 X0.1325 Y-0.0152
G1 X0.1748 Y-0.0029
G1 X0.2178 Y0.0066
G1 X0.2612 Y0.0138
G1 X0.3049 Y0.0194
G1 X0.3487 Y0.0237
G1 X0.3926 Y0.027
G1 X0.4365 Y0.0295
G1 X0.4805 Y0.0314
G1 X0.5245 Y0.0329
G1 X0.5685 Y0.034
G1 X0.6125 Y0.0348
G1 X0.6566 Y0.0355
G1 X0.7006 Y0.0359
G1 X0.7446 Y0.0363
G1 X0.7886 Y0.0366
G1 X0.8327 Y0.0368
G1 X0.9207 Y0.0371
G1 X1.0087 Y0.0373
G1 X1.1408 Y0.0374
G1 X1.449 Y0.0375
G1 X1.8452
G1 X1.8661 Y0.0306
G1 X1.9045 Y0.009
G1 X1.9356 Y-0.0221
G1 X1.9604 Y-0.0585
G1 X1.9798 Y-0.098
G1 X1.995 Y-0.1393
G1 X2.0067 Y-0.1818
G1 X2.0158 Y-0.2249
G1 X2.0228 Y-0.2683
G1 X2.0281 Y-0.312
G1 X2.0322 Y-0.3559
G1 X2.0353 Y-0.3998
G1 X2.0377 Y-0.4437
G1 X2.0396 Y-0.4877
G1 X2.0409 Y-0.5317
G1 X2.042 Y-0.5757
G1 X2.0428 Y-0.6197
G1 X2.0434 Y-0.6638
G1 X2.0439 Y-0.7078
G1 X2.0442 Y-0.7518
G1 X2.0445 Y-0.7958
G1 X2.0447 Y-0.8399
G1 X2.045 Y-0.9279
G1 X2.0452 Y-1.016
G1 X2.0453 Y-1.192
G1 X2.0454 Y-1.5883
G1 Y-1.8304
G1 X2.044 Y-1.8413
G1 X2.0385 Y-1.8626
G1 X2.018 Y-1.9016
G1 X1.9875 Y-1.9333
G1 X1.9514 Y-1.9585
G1 X1.9121 Y-1.9784
G1 X1.8709 Y-1.9939
G1 X1.8285 Y-2.0059
G1 X1.7855 Y-2.0151
G1 X1.742 Y-2.0223
G1 X1.6984 Y-2.0277
G1 X1.6545 Y-2.0319
G1 X1.6106 Y-2.0351
G1 X1.5667 Y-2.0376
G1 X1.5227 Y-2.0394
G1 X1.4787 Y-2.0408
G1 X1.4347 Y-2.0419
G1 X1.3907 Y-2.0428
G1 X1.3466 Y-2.0434
G1 X1.3026 Y-2.0439
G1 X1.2586 Y-2.0442
G1 X1.2146 Y-2.0445
G1 X1.1705 Y-2.0447
G1 X1.0825 Y-2.045
G1 X0.9944 Y-2.0452
G1 X0.8624 Y-2.0453
G1 X0.5542 Y-2.0454
G1 X0.3341
G1 X0.3124 Y-2.0414
G1 X0.2719 Y-2.0242
G1 X0.2382 Y-1.9959
G1 X0.211 Y-1.9613
G1 X0.1893 Y-1.923
G1 X0.1721 Y-1.8825
G1 X0.1587 Y-1.8405
G1 X0.1482 Y-1.7978
G1 X0.14 Y-1.7545
G1 X0.1337 Y-1.7109
G1 X0.1288 Y-1.6672
G1 X0.1251 Y-1.6233
G1 X0.1222 Y-1.5794
G1 X0.1199 Y-1.5354
G1 X0.1182 Y-1.4914
G1 X0.1169 Y-1.4474
G1 X0.1159 Y-1.4034
G1 X0.1151 Y-1.3594
G1 X0.1145 Y-1.3154
G1 X0.114 Y-1.2714
G1 X0.1137 Y-1.2273
G1 X0.1134 Y-1.1833
G1 X0.1132 Y-1.1393
G1 X0.1129 Y-1.0512
G1 X0.1127 Y-0.9632
G1 X0.1126 Y-0.8311
G1 X0.1125 Y-0.567
G1 Y-0.3909
G1 X0.114 Y-0.3469
G1 X0.1291 Y-0.3055
G1 X0.1542 Y-0.2693
G1 X0.1858 Y-0.2387
G1 X0.2219 Y-0.2134
G1 X0.2607 Y-0.1928
G1 X0.3015 Y-0.1761
G1 X0.3434 Y-0.1627
G1 X0.3861 Y-0.152
G1 X0.4293 Y-0.1435
G1 X0.4728 Y-0.1368
G1 X0.5165 Y-0.1316
G1 X0.5604 Y-0.1274
G1 X0.6043 Y-0.1241
G1 X0.6482 Y-0.1216
G1 X0.6922 Y-0.1196
G1 X0.7362 Y-0.118
G1 X0.7802 Y-0.1168
G1 X0.8242 Y-0.1158
G1 X0.8682 Y-0.1151
G1 X0.9123 Y-0.1145
G1 X0.9563 Y-0.1141
G1 X1.0003 Y-0.1137
G1 X1.0443 Y-0.1134
G1 X1.0883 Y-0.1132
G1 X1.1764 Y-0.1129
G1 X1.2644 Y-0.1128
G1 X1.3965 Y-0.1126
G1 X1.6166 Y-0.1125
G1 X1.6606 Y-0.1139
G1 X1.702 Y-0.1289
G1 X1.7383 Y-0.1538
G1 X1.7689 Y-0.1855
G1 X1.7943 Y-0.2214
G1 X1.815 Y-0.2603
G1 X1.8317 Y-0.301
G1 X1.8451 Y-0.343
G1 X1.8558 Y-0.3857
G1 X1.8643 Y-0.4289
G1 X1.871 Y-0.4724
G1 X1.8763 Y-0.5161
G1 X1.8804 Y-0.5599
G1 X1.8837 Y-0.6038
G1 X1.8863 Y-0.6478
G1 X1.8883 Y-0.6917
G1 X1.8898 Y-0.7357
G1 X1.8911 Y-0.7798
G1 X1.892 Y-0.8238
G1 X1.8928 Y-0.8678
G1 X1.8934 Y-0.9118
G1 X1.8938 Y-0.9558
G1 X1.8942 Y-0.9998
G1 X1.8944 Y-1.0439
G1 X1.8946 Y-1.0879
G1 X1.8949 Y-1.1759
G1 X1.8951 Y-1.264
G1 X1.8953 Y-1.3961
G1 Y-1.6162
G1 X1.894 Y-1.6602
G1 X1.879 Y-1.7016
G1 X1.8541 Y-1.7379
G1 X1.8225 Y-1.7686
G1 X1.7865 Y-1.794
G1 X1.7477 Y-1.8147
G1 X1.707 Y-1.8315
G1 X1.6651 Y-1.8449
G1 X1.6224 Y-1.8556
G1 X1.5792 Y-1.8641
G1 X1.5357 Y-1.8709
G1 X1.492 Y-1.8762
G1 X1.4482 Y-1.8804
G1 X1.4043 Y-1.8837
G1 X1.3603 Y-1.8862
G1 X1.3163 Y-1.8882
G1 X1.2723 Y-1.8898
G1 X1.2283 Y-1.8911
G1 X1.1843 Y-1.892
G1 X1.1403 Y-1.8928
G1 X1.0963 Y-1.8933
G1 X1.0522 Y-1.8938
G1 X1.0082 Y-1.8942
G1 X0.9642 Y-1.8944
G1 X0.9202 Y-1.8946
G1 X0.8321 Y-1.8949
G1 X0.7441 Y-1.8951
G1 X0.612 Y-1.8953
G1 X0.524
G1 X0.4807 Y-1.8869
G1 X0.4416 Y-1.8668
G1 X0.4078 Y-1.8386
G1 X0.3794 Y-1.8049
G1 X0.3561 Y-1.7676
G1 X0.337 Y-1.7279
G1 X0.3217 Y-1.6867
G1 X0.3093 Y-1.6444
G1 X0.2995 Y-1.6015
G1 X0.2916 Y-1.5582
G1 X0.2854 Y-1.5146
G1 X0.2805 Y-1.4708
G1 X0.2766 Y-1.427
G1 X0.2736 Y-1.3831
G1 X0.2712 Y-1.3391
G1 X0.2693 Y-1.2951
G1 X0.2678 Y-1.2511
G1 X0.2666 Y-1.2071
G1 X0.2657 Y-1.1631
G1 X0.265 Y-1.1191
G1 X0.2645 Y-1.0751
G1 X0.264 Y-1.031
G1 X0.2637 Y-0.987
G1 X0.2634 Y-0.943
G1 X0.2632 Y-0.899
G1 X0.2629 Y-0.8109
G1 X0.2628 Y-0.7229
G1 X0.2626 Y-0.5908
G1 Y-0.5468
G1 X0.2689 Y-0.5032
G1 X0.2863 Y-0.4628
G1 X0.312 Y-0.4271
G1 X0.3438 Y-0.3966
G1 X0.3797 Y-0.371
G1 X0.4183 Y-0.3499
G1 X0.4296 Y-0.3451
G1 X0.4336 Y-0.3433
G1 X0.4376 Y-0.3413
G1 X0.4414 Y-0.3392
G1 X0.4527 Y-0.3327
G1 X0.4611 Y-0.3289
G1 X0.4752 Y-0.3231
G1 X0.4864 Y-0.319
G1 X0.5089 Y-0.3135
G1 X0.5202 Y-0.311
G1 X0.5629 Y-0.3003
G1 X0.6062 Y-0.2927
G1 X0.6498 Y-0.2865
G1 X0.6936 Y-0.2815
G1 X0.7374 Y-0.2776
G1 X0.7813 Y-0.2745
G1 X0.8253 Y-0.272
G1 X0.8693 Y-0.27
G1 X0.9133 Y-0.2684
G1 X0.9573 Y-0.2672
G1 X1.0013 Y-0.2662
G1 X1.0453 Y-0.2654
G1 X1.0893 Y-0.2648
G1 X1.1334 Y-0.2643
G1 X1.1774 Y-0.2639
G1 X1.2214 Y-0.2636
G1 X1.2654 Y-0.2634
G1 X1.3094 Y-0.2632
G1 X1.3975 Y-0.2629
G1 X1.4415 Y-0.2628
G1 X1.4855 Y-0.2641
G1 X1.5277 Y-0.2768
G1 X1.5656 Y-0.2992
G1 X1.5983 Y-0.3286
G1 X1.626 Y-0.3629
G1 X1.649 Y-0.4004
G1 X1.6665 Y-0.4372
G1 X1.6676 Y-0.4393
G1 X1.6687 Y-0.4414
G1 X1.6698 Y-0.4434
G1 X1.6752 Y-0.4527
G1 X1.6789 Y-0.4611
G1 X1.6848 Y-0.4752
G1 X1.6889 Y-0.4864
G1 X1.6944 Y-0.5089
G1 X1.6968 Y-0.5202
G1 X1.7075 Y-0.5629
G1 X1.7152 Y-0.6062
G1 X1.7214 Y-0.6498
G1 X1.7263 Y-0.6936
G1 X1.7303 Y-0.7374
G1 X1.7334 Y-0.7813
G1 X1.7359 Y-0.8253
G1 X1.7379 Y-0.8693
G1 X1.7395 Y-0.9133
G1 X1.7407 Y-0.9573
G1 X1.7417 Y-1.0013
G1 X1.7425 Y-1.0453
G1 X1.7431 Y-1.0893
G1 X1.7436 Y-1.1334
G1 X1.744 Y-1.1774
G1 X1.7443 Y-1.2214
G1 X1.7445 Y-1.2654
G1 X1.7447 Y-1.3094
G1 X1.745 Y-1.3975
G1 Y-1.4415
G1 X1.7437 Y-1.4855
G1 X1.7309 Y-1.5276
G1 X1.7085 Y-1.5655
G1 X1.6791 Y-1.5983
G1 X1.6449 Y-1.626
G1 X1.6074 Y-1.649
G1 X1.5716 Y-1.666
G1 X1.5695 Y-1.667
G1 X1.5674 Y-1.6681
G1 X1.5654 Y-1.6693
G1 X1.5552 Y-1.6752
G1 X1.5468 Y-1.6789
G1 X1.5327 Y-1.6848
G1 X1.5214 Y-1.6889
G1 X1.4989 Y-1.6944
G1 X1.4877 Y-1.6968
G1 X1.445 Y-1.7075
G1 X1.4016 Y-1.7152
G1 X1.358 Y-1.7214
G1 X1.3143 Y-1.7263
G1 X1.2704 Y-1.7303
G1 X1.2265 Y-1.7334
G1 X1.1826 Y-1.7359
G1 X1.1386 Y-1.7379
G1 X1.0946 Y-1.7395
G1 X1.0506 Y-1.7407
G1 X1.0066 Y-1.7417
G1 X0.9626 Y-1.7425
G1 X0.9185 Y-1.7431
G1 X0.8745 Y-1.7436
G1 X0.8305 Y-1.744
G1 X0.7865 Y-1.7443
G1 X0.7425 Y-1.7445
G1 X0.6984 Y-1.7447
G1 X0.6549 Y-1.7381
G1 X0.6145 Y-1.7207
G1 X0.6124 Y-1.7192
G1 X0.6017 Y-1.7126
G1 X0.5901 Y-1.7075
G1 X0.578 Y-1.7042
G1 X0.5654 Y-1.7027
G1 X0.5427 Y-1.7011
G1 X0.5314 Y-1.6991
G1 X0.5202 Y-1.6968
G1 X0.5089 Y-1.6944
G1 X0.4864 Y-1.6889
G1 X0.4752 Y-1.6848
G1 X0.4611 Y-1.6789
G1 X0.4527 Y-1.6752
G1 X0.4414 Y-1.6687
G1 X0.4302 Y-1.6613
G1 X0.4229 Y-1.6564
G1 X0.4068 Y-1.6452
G1 X0.3964 Y-1.6378
G1 X0.3852 Y-1.6276
G1 X0.3804 Y-1.6227
G1 X0.3701 Y-1.6114
G1 X0.362 Y-1.6002
G1 X0.3514 Y-1.585
G1 X0.3465 Y-1.5777
G1 X0.3392 Y-1.5664
G1 X0.3327 Y-1.5552
G1 X0.3289 Y-1.5468
G1 X0.3231 Y-1.5327
G1 X0.319 Y-1.5214
G1 X0.3135 Y-1.4989
G1 X0.311 Y-1.4877
G1 X0.3088 Y-1.4764
G1 X0.3068 Y-1.4652
G1 X0.3052 Y-1.4427
G1 X0.3046 Y-1.4314
G1 Y-0.5764
G1 X0.3052 Y-0.5652
G1 X0.3068 Y-0.5427
G1 X0.3088 Y-0.5314
G1 X0.311 Y-0.5202
G1 X0.3135 Y-0.5089
G1 X0.319 Y-0.4864
G1 X0.3231 Y-0.4752
G1 X0.3289 Y-0.4611
G1 X0.3327 Y-0.4527
G1 X0.3392 Y-0.4414
G1 X0.3465 Y-0.4302
G1 X0.3514 Y-0.4229
G1 X0.3627 Y-0.4068
G1 X0.3701 Y-0.3964
G1 X0.3804 Y-0.3852
G1 X0.3852 Y-0.3803
G1 X0.3964 Y-0.3701
G1 X0.4077 Y-0.362
G1 X0.4229 Y-0.3514
G1 X0.4302 Y-0.3465
G1 X0.4414 Y-0.3392
G1 X0.4415
G1 X0.4447 Y-0.3362
G1 X0.4481 Y-0.3333
G2 X0.4591 Y-0.3271 I0.0237 J-0.0291
G1 X0.4679 Y-0.3239
G1 X0.4901 Y-0.316
G1 X0.4988 Y-0.3129
G2 X0.5113 Y-0.3107 I0.0126 J-0.0353
G1 X0.5157 Y-0.3108
G1 X0.5201 Y-0.311
G1 X0.5202
G1 X0.5314 Y-0.3088
G1 X0.5427 Y-0.3068
G1 X0.5652 Y-0.3052
G1 X0.5764 Y-0.3046
G1 X1.4314
G1 X1.4427 Y-0.3052
G1 X1.4652 Y-0.3068
G1 X1.4764 Y-0.3088
G1 X1.4877 Y-0.311
G1 X1.4989 Y-0.3135
G1 X1.5214 Y-0.319
G1 X1.5327 Y-0.3231
G1 X1.5468 Y-0.3289
G1 X1.5552 Y-0.3327
G1 X1.5664 Y-0.3392
G1 X1.5777 Y-0.3465
G1 X1.585 Y-0.3514
G1 X1.6011 Y-0.3627
G1 X1.6114 Y-0.3701
G1 X1.6227 Y-0.3803
G1 X1.6275 Y-0.3852
G1 X1.6378 Y-0.3964
G1 X1.6458 Y-0.4077
G1 X1.6564 Y-0.4229
G1 X1.6613 Y-0.4302
G1 X1.6687 Y-0.4414
G1 X1.6698 Y-0.4434
G1 X1.6699 Y-0.4435
G1 X1.6729 Y-0.4472
G1 X1.6758 Y-0.451
G2 X1.6809 Y-0.4606 I-0.0303 J-0.0221
G1 X1.6843 Y-0.4704
G1 X1.6913 Y-0.4901
G1 X1.6947 Y-0.4999
G2 X1.6968 Y-0.5105 I-0.0354 J-0.0125
G1 X1.6969 Y-0.5153
G1 X1.6968 Y-0.5201
G1 Y-0.5202
G1 X1.6991 Y-0.5314
G1 X1.7011 Y-0.5427
G1 X1.7027 Y-0.5652
G1 X1.7032 Y-0.5764
G1 Y-1.4314
G1 X1.7027 Y-1.4427
G1 X1.7011 Y-1.4652
G1 X1.6991 Y-1.4764
G1 X1.6968 Y-1.4877
G1 X1.6944 Y-1.4989
G1 X1.6889 Y-1.5214
G1 X1.6848 Y-1.5327
G1 X1.6789 Y-1.5468
G1 X1.6752 Y-1.5552
G1 X1.6687 Y-1.5664
G1 X1.6613 Y-1.5777
G1 X1.6564 Y-1.585
G1 X1.6452 Y-1.6011
G1 X1.6378 Y-1.6114
G1 X1.6275 Y-1.6227
G1 X1.6227 Y-1.6276
G1 X1.6114 Y-1.6378
G1 X1.6002 Y-1.6458
G1 X1.585 Y-1.6564
G1 X1.5777 Y-1.6613
G1 X1.5664 Y-1.6687
G1 X1.5654 Y-1.6693
G1 X1.5653
G1 X1.5616 Y-1.6724
G1 X1.5577 Y-1.6754
G2 X1.5482 Y-1.6804 I-0.0221 J0.0303
G1 X1.5385 Y-1.6839
G1 X1.5178 Y-1.6912
G1 X1.5081 Y-1.6946
G2 X1.4975 Y-1.6967 I-0.0125 J0.0353
G1 X1.4927 Y-1.6969
G1 X1.4878 Y-1.6968
G1 X1.4877
G1 X1.4764 Y-1.6991
G1 X1.4652 Y-1.7011
G1 X1.4427 Y-1.7027
G1 X1.4314 Y-1.7032
G1 X0.5764
G1 X0.5654 Y-1.7027
G3 X0.5377 Y-1.7144 I-0.0005 J-0.0375
G1 X0.5346 Y-1.7177 Z-0.358
G1 X0.5316 Y-1.7209 Z-0.3572
G1 X0.5286 Y-1.724 Z-0.3558
G1 X0.5257 Y-1.727 Z-0.354
G1 X0.5231 Y-1.7298 Z-0.3516
G1 X0.5206 Y-1.7324 Z-0.3488
G1 X0.5184 Y-1.7347 Z-0.3456
G1 X0.5165 Y-1.7368 Z-0.3421
G1 X0.5149 Y-1.7385 Z-0.3382
G1 X0.5136 Y-1.7398 Z-0.3341
G1 X0.5127 Y-1.7408 Z-0.3297
G1 X0.5121 Y-1.7414 Z-0.3253
G1 X0.5119 Y-1.7416 Z-0.3208
G0 Z0.5906
M5 M9

G30
M30
%
