%
(Holder-sideFace1)
(Machine)
(  vendor Tormach)
(  model 770M)
(  description Tormach 770M 3-axis)
(T1  D=0.375 CR=0. - ZMIN=-0.1181 - flat end mill)
G90 G54 G64 G50 G17 G40 G80 G94 G91.1 G49
G20 (Inch)
G30

N10(SideFaceOp1)
T1 G43 H1 M6
S5000 M3 M8
G54
G0 X2.2516 Y-0.3738
G0 Z0.5906
G0 Z0.1969
G1 Z-0.0806 F61.
G1 X2.2514 Z-0.0851
G1 X2.2505 Z-0.0896
G1 X2.2492 Z-0.0939
G1 X2.2473 Z-0.098
G1 X2.245 Z-0.1019
G1 X2.2422 Z-0.1055
G1 X2.239 Z-0.1087
G1 X2.2354 Z-0.1115
G1 X2.2316 Z-0.1138
G1 X2.2274 Z-0.1157
G1 X2.2231 Z-0.117
G1 X2.2186 Z-0.1178
G1 X2.2141 Z-0.1181
G1 X2.0079
G1 X0.
G2 Y-0.1817 I0. J0.096
G1 X2.0079
G1 X2.0124 Z-0.1178
G1 X2.0168 Z-0.117
G1 X2.0212 Z-0.1157
G1 X2.0253 Z-0.1138
G1 X2.0292 Z-0.1115
G1 X2.0327 Z-0.1087
G1 X2.0359 Z-0.1055
G1 X2.0387 Z-0.1019
G1 X2.0411 Z-0.098
G1 X2.0429 Z-0.0939
G1 X2.0443 Z-0.0896
G1 X2.0451 Z-0.0851
G1 X2.0454 Z-0.0806
G0 Z0.5906
M5 M9

G30
M30
%
