%
(Holder-secondFace)
(Machine)
(  vendor Tormach)
(  model 770M)
(  description Tormach 770M 3-axis)
(T1  D=0.375 CR=0. - ZMIN=-0.0669 - flat end mill)
(T4  D=0.25 CR=0. - ZMIN=-0.185 - flat end mill)
G90 G54 G64 G50 G17 G40 G80 G94 G91.1 G49
G20 (Inch)
G30

N10(screwHeadDrills)
T4 G43 H4 M6
S3820 M3 M8
G54
G0 X1.3386 Y-1.3386
G0 Z0.5906
G0 Z0.1969
G98 G81 X1.3386 Y-1.3386 Z-0.185 R0.1299 F10.
X0.6693
Y-0.6693
X1.3386
G80
G0 Z0.5906
M5 M9
G30

N20(BottomFaceOp)
M1
T1 G43 H1 M6
S5000 M3 M8
G0 X2.2516 Y-1.8568
G0 Z0.5906
G0 Z0.1969
G1 Z-0.0294 F61.
G1 X2.2514 Z-0.0339
G1 X2.2505 Z-0.0384
G1 X2.2492 Z-0.0427
G1 X2.2473 Z-0.0469
G1 X2.245 Z-0.0507
G1 X2.2422 Z-0.0543
G1 X2.239 Z-0.0575
G1 X2.2354 Z-0.0603
G1 X2.2316 Z-0.0626
G1 X2.2274 Z-0.0645
G1 X2.2231 Z-0.0658
G1 X2.2186 Z-0.0667
G1 X2.2141 Z-0.0669
G1 X2.0079
G1 X0.
G2 Y-1.5218 I0. J0.1675
G1 X2.0079
G3 Y-1.1867 I0. J0.1675
G1 X0.
G2 Y-0.8517 I0. J0.1675
G1 X2.0079
G3 Y-0.5167 I0. J0.1675
G1 X0.
G2 Y-0.1817 I0. J0.1675
G1 X2.0079
G1 X2.0124 Z-0.0667
G1 X2.0168 Z-0.0658
G1 X2.0212 Z-0.0645
G1 X2.0253 Z-0.0626
G1 X2.0292 Z-0.0603
G1 X2.0327 Z-0.0575
G1 X2.0359 Z-0.0543
G1 X2.0387 Z-0.0507
G1 X2.0411 Z-0.0469
G1 X2.0429 Z-0.0427
G1 X2.0443 Z-0.0384
G1 X2.0451 Z-0.0339
G1 X2.0454 Z-0.0294
G0 Z0.5906
M5 M9

G30
M30
%
