%
(Holder-firstFace)
(Machine)
(  vendor Tormach)
(  model 770M)
(  description Tormach 770M 3-axis)
(T1  D=0.375 CR=0. - ZMIN=-0.0531 - flat end mill)
(T4  D=0.25 CR=0. - ZMIN=-0.3878 - flat end mill)
(T6  D=0.1094 CR=0. TAPER=118deg - ZMIN=-0.3091 - drill)
G90 G54 G64 G50 G17 G40 G80 G94 G91.1 G49
G20 (Inch)
G30

N10(screwHoleDrills)
T6 G43 H6 M6
S8731 M3 M8
G54
G0 X1.3386 Y-1.3386
G0 Z0.5906
G0 Z0.1969
G98 G81 X1.3386 Y-1.3386 Z-0.3091 R0.1634 F17.5
X0.6693
Y-0.6693
X1.3386
G80
G0 Z0.5906
M5 M9
G30

N20(shaftHoleCircle)
M1
T4 G43 H4 M6
S3820 M3 M8
G0 X1.0218 Y-0.9843
G0 Z0.5906
G0 Z0.0059
G1 Z-0.0478 F30.
G1 X1.0214 Z-0.0517
G1 X1.0205 Z-0.0556
G1 X1.019 Z-0.0592
G1 X1.017 Z-0.0625
G1 X1.0144 Z-0.0655
G1 X1.0114 Z-0.0681
G1 X1.0081 Z-0.0701
G1 X1.0045 Z-0.0716
G1 X1.0007 Z-0.0725
G1 X0.9968 Z-0.0728
G1 X0.9843
G3 X0.9646 Y-1.0039 I0. J-0.0197
G3 X1.0433 I0.0394 J0.
G3 X0.9646 I-0.0394 J0.
G3 X0.9843 Y-1.0236 I0.0197 J0.
G1 X0.9968
G1 X1.0007 Z-0.0725
G1 X1.0045 Z-0.0716
G1 X1.0081 Z-0.0701
G1 X1.0114 Z-0.0681
G1 X1.0144 Z-0.0655
G1 X1.017 Z-0.0625
G1 X1.019 Z-0.0592
G1 X1.0205 Z-0.0556
G1 X1.0214 Z-0.0517
G1 X1.0218 Z-0.0478
G0 Z0.1969
G0 Y-0.9843
G0 Z-0.0335
G1 Z-0.0872 F30.
G1 X1.0214 Z-0.0911
G1 X1.0205 Z-0.0949
G1 X1.019 Z-0.0986
G1 X1.017 Z-0.1019
G1 X1.0144 Z-0.1049
G1 X1.0114 Z-0.1074
G1 X1.0081 Z-0.1095
G1 X1.0045 Z-0.111
G1 X1.0007 Z-0.1119
G1 X0.9968 Z-0.1122
G1 X0.9843
G3 X0.9646 Y-1.0039 I0. J-0.0197
G3 X1.0433 I0.0394 J0.
G3 X0.9646 I-0.0394 J0.
G3 X0.9843 Y-1.0236 I0.0197 J0.
G1 X0.9968
G1 X1.0007 Z-0.1119
G1 X1.0045 Z-0.111
G1 X1.0081 Z-0.1095
G1 X1.0114 Z-0.1074
G1 X1.0144 Z-0.1049
G1 X1.017 Z-0.1019
G1 X1.019 Z-0.0986
G1 X1.0205 Z-0.0949
G1 X1.0214 Z-0.0911
G1 X1.0218 Z-0.0872
G0 Z0.1969
G0 Y-0.9843
G0 Z-0.0728
G1 Z-0.1266 F30.
G1 X1.0214 Z-0.1305
G1 X1.0205 Z-0.1343
G1 X1.019 Z-0.1379
G1 X1.017 Z-0.1413
G1 X1.0144 Z-0.1443
G1 X1.0114 Z-0.1468
G1 X1.0081 Z-0.1488
G1 X1.0045 Z-0.1504
G1 X1.0007 Z-0.1513
G1 X0.9968 Z-0.1516
G1 X0.9843
G3 X0.9646 Y-1.0039 I0. J-0.0197
G3 X1.0433 I0.0394 J0.
G3 X0.9646 I-0.0394 J0.
G3 X0.9843 Y-1.0236 I0.0197 J0.
G1 X0.9968
G1 X1.0007 Z-0.1513
G1 X1.0045 Z-0.1504
G1 X1.0081 Z-0.1488
G1 X1.0114 Z-0.1468
G1 X1.0144 Z-0.1443
G1 X1.017 Z-0.1413
G1 X1.019 Z-0.1379
G1 X1.0205 Z-0.1343
G1 X1.0214 Z-0.1305
G1 X1.0218 Z-0.1266
G0 Z0.1969
G0 Y-0.9843
G0 Z-0.1122
G1 Z-0.1659 F30.
G1 X1.0214 Z-0.1699
G1 X1.0205 Z-0.1737
G1 X1.019 Z-0.1773
G1 X1.017 Z-0.1806
G1 X1.0144 Z-0.1836
G1 X1.0114 Z-0.1862
G1 X1.0081 Z-0.1882
G1 X1.0045 Z-0.1897
G1 X1.0007 Z-0.1906
G1 X0.9968 Z-0.1909
G1 X0.9843
G3 X0.9646 Y-1.0039 I0. J-0.0197
G3 X1.0433 I0.0394 J0.
G3 X0.9646 I-0.0394 J0.
G3 X0.9843 Y-1.0236 I0.0197 J0.
G1 X0.9968
G1 X1.0007 Z-0.1906
G1 X1.0045 Z-0.1897
G1 X1.0081 Z-0.1882
G1 X1.0114 Z-0.1862
G1 X1.0144 Z-0.1836
G1 X1.017 Z-0.1806
G1 X1.019 Z-0.1773
G1 X1.0205 Z-0.1737
G1 X1.0214 Z-0.1699
G1 X1.0218 Z-0.1659
G0 Z0.1969
G0 Y-0.9843
G0 Z-0.1516
G1 Z-0.2053 F30.
G1 X1.0214 Z-0.2092
G1 X1.0205 Z-0.213
G1 X1.019 Z-0.2167
G1 X1.017 Z-0.22
G1 X1.0144 Z-0.223
G1 X1.0114 Z-0.2255
G1 X1.0081 Z-0.2276
G1 X1.0045 Z-0.2291
G1 X1.0007 Z-0.23
G1 X0.9968 Z-0.2303
G1 X0.9843
G3 X0.9646 Y-1.0039 I0. J-0.0197
G3 X1.0433 I0.0394 J0.
G3 X0.9646 I-0.0394 J0.
G3 X0.9843 Y-1.0236 I0.0197 J0.
G1 X0.9968
G1 X1.0007 Z-0.23
G1 X1.0045 Z-0.2291
G1 X1.0081 Z-0.2276
G1 X1.0114 Z-0.2255
G1 X1.0144 Z-0.223
G1 X1.017 Z-0.22
G1 X1.019 Z-0.2167
G1 X1.0205 Z-0.213
G1 X1.0214 Z-0.2092
G1 X1.0218 Z-0.2053
G0 Z0.1969
G0 Y-0.9843
G0 Z-0.1909
G1 Z-0.2447 F30.
G1 X1.0214 Z-0.2486
G1 X1.0205 Z-0.2524
G1 X1.019 Z-0.256
G1 X1.017 Z-0.2594
G1 X1.0144 Z-0.2624
G1 X1.0114 Z-0.2649
G1 X1.0081 Z-0.267
G1 X1.0045 Z-0.2685
G1 X1.0007 Z-0.2694
G1 X0.9968 Z-0.2697
G1 X0.9843
G3 X0.9646 Y-1.0039 I0. J-0.0197
G3 X1.0433 I0.0394 J0.
G3 X0.9646 I-0.0394 J0.
G3 X0.9843 Y-1.0236 I0.0197 J0.
G1 X0.9968
G1 X1.0007 Z-0.2694
G1 X1.0045 Z-0.2685
G1 X1.0081 Z-0.267
G1 X1.0114 Z-0.2649
G1 X1.0144 Z-0.2624
G1 X1.017 Z-0.2594
G1 X1.019 Z-0.256
G1 X1.0205 Z-0.2524
G1 X1.0214 Z-0.2486
G1 X1.0218 Z-0.2447
G0 Z0.1969
G0 Y-0.9843
G0 Z-0.2303
G1 Z-0.2841 F30.
G1 X1.0214 Z-0.288
G1 X1.0205 Z-0.2918
G1 X1.019 Z-0.2954
G1 X1.017 Z-0.2987
G1 X1.0144 Z-0.3017
G1 X1.0114 Z-0.3043
G1 X1.0081 Z-0.3063
G1 X1.0045 Z-0.3078
G1 X1.0007 Z-0.3087
G1 X0.9968 Z-0.3091
G1 X0.9843
G3 X0.9646 Y-1.0039 I0. J-0.0197
G3 X1.0433 I0.0394 J0.
G3 X0.9646 I-0.0394 J0.
G3 X0.9843 Y-1.0236 I0.0197 J0.
G1 X0.9968
G1 X1.0007 Z-0.3087
G1 X1.0045 Z-0.3078
G1 X1.0081 Z-0.3063
G1 X1.0114 Z-0.3043
G1 X1.0144 Z-0.3017
G1 X1.017 Z-0.2987
G1 X1.019 Z-0.2954
G1 X1.0205 Z-0.2918
G1 X1.0214 Z-0.288
G1 X1.0218 Z-0.2841
G0 Z0.1969
G0 Y-0.9843
G0 Z-0.2697
G1 Z-0.3234 F30.
G1 X1.0214 Z-0.3273
G1 X1.0205 Z-0.3312
G1 X1.019 Z-0.3348
G1 X1.017 Z-0.3381
G1 X1.0144 Z-0.3411
G1 X1.0114 Z-0.3437
G1 X1.0081 Z-0.3457
G1 X1.0045 Z-0.3472
G1 X1.0007 Z-0.3481
G1 X0.9968 Z-0.3484
G1 X0.9843
G3 X0.9646 Y-1.0039 I0. J-0.0197
G3 X1.0433 I0.0394 J0.
G3 X0.9646 I-0.0394 J0.
G3 X0.9843 Y-1.0236 I0.0197 J0.
G1 X0.9968
G1 X1.0007 Z-0.3481
G1 X1.0045 Z-0.3472
G1 X1.0081 Z-0.3457
G1 X1.0114 Z-0.3437
G1 X1.0144 Z-0.3411
G1 X1.017 Z-0.3381
G1 X1.019 Z-0.3348
G1 X1.0205 Z-0.3312
G1 X1.0214 Z-0.3273
G1 X1.0218 Z-0.3234
G0 Z0.1969
G0 Y-0.9843
G0 Z-0.3091
G1 Z-0.3628 F30.
G1 X1.0214 Z-0.3667
G1 X1.0205 Z-0.3705
G1 X1.019 Z-0.3741
G1 X1.017 Z-0.3775
G1 X1.0144 Z-0.3805
G1 X1.0114 Z-0.383
G1 X1.0081 Z-0.3851
G1 X1.0045 Z-0.3866
G1 X1.0007 Z-0.3875
G1 X0.9968 Z-0.3878
G1 X0.9843
G3 X0.9646 Y-1.0039 I0. J-0.0197
G3 X1.0433 I0.0394 J0.
G3 X0.9646 I-0.0394 J0.
G3 X0.9843 Y-1.0236 I0.0197 J0.
G1 X0.9968
G1 X1.0007 Z-0.3875
G1 X1.0045 Z-0.3866
G1 X1.0081 Z-0.3851
G1 X1.0114 Z-0.383
G1 X1.0144 Z-0.3805
G1 X1.017 Z-0.3775
G1 X1.019 Z-0.3741
G1 X1.0205 Z-0.3705
G1 X1.0214 Z-0.3667
G1 X1.0218 Z-0.3628
G0 Z0.5906
M5 M9
G30

N30(TopFaceOp)
M1
T1 G43 H1 M6
S5000 M3 M8
G0 X2.2516 Y-1.8568
G0 Z0.5906
G0 Z0.1969
G1 Z0.004 F61.
G1 X2.2514 Z-0.0005
G1 X2.2505 Z-0.0049
G1 X2.2492 Z-0.0093
G1 X2.2473 Z-0.0134
G1 X2.245 Z-0.0173
G1 X2.2422 Z-0.0208
G1 X2.239 Z-0.024
G1 X2.2354 Z-0.0268
G1 X2.2316 Z-0.0292
G1 X2.2274 Z-0.031
G1 X2.2231 Z-0.0324
G1 X2.2186 Z-0.0332
G1 X2.2141 Z-0.0335
G1 X2.0079
G1 X0.
G2 Y-1.5218 I0. J0.1675
G1 X2.0079
G3 Y-1.1867 I0. J0.1675
G1 X0.
G2 Y-0.8517 I0. J0.1675
G1 X2.0079
G3 Y-0.5167 I0. J0.1675
G1 X0.
G2 Y-0.1817 I0. J0.1675
G1 X2.0079
G1 X2.0124 Z-0.0332
G1 X2.0168 Z-0.0324
G1 X2.0212 Z-0.031
G1 X2.0253 Z-0.0292
G1 X2.0292 Z-0.0268
G1 X2.0327 Z-0.024
G1 X2.0359 Z-0.0208
G1 X2.0387 Z-0.0173
G1 X2.0411 Z-0.0134
G1 X2.0429 Z-0.0093
G1 X2.0443 Z-0.0049
G1 X2.0451 Z-0.0005
G1 X2.0454 Z0.004
G0 Z0.5906

N40(2D Adaptive4)
S5000 M3 M8
G0 X0.06 Y-2.2793
G0 Z0.5906
G0 Z0.1969
G0 Z0.0631
G1 Z0.0256 F61.
G1 Z-0.0531
G3 X0.1181 Y-2.0814 I-0.3572 J0.2124
G1 Y-2.0755
G1 X0.1089 Y-2.0302
G1 X0.1018 Y-1.9844
G1 X0.0966 Y-1.9384
G1 X0.0926 Y-1.8923
G1 X0.0896 Y-1.8461
G1 X0.0873 Y-1.7999
G1 X0.0856 Y-1.7536
G1 X0.0844 Y-1.7073
G1 X0.0834 Y-1.6611
G1 X0.0827 Y-1.6148
G1 X0.0822 Y-1.5685
G1 X0.0818 Y-1.5222
G1 X0.0815 Y-1.4759
G1 X0.0813 Y-1.4296
G1 X0.0811 Y-1.3833
G1 X0.0809 Y-1.2908
G1 X0.0807 Y-1.1519
G1 X0.0806 Y-0.8742
G1 Y-0.2956
G1 X0.0821 Y-0.2841
G1 X0.088 Y-0.2617
G1 X0.1101 Y-0.221
G1 X0.1429 Y-0.1884
G1 X0.1815 Y-0.1628
G1 X0.2234 Y-0.143
G1 X0.2671 Y-0.1278
G1 X0.3119 Y-0.1162
G1 X0.3573 Y-0.1074
G1 X0.4031 Y-0.1008
G1 X0.4492 Y-0.0957
G1 X0.4953 Y-0.092
G1 X0.5415 Y-0.0891
G1 X0.5877 Y-0.087
G1 X0.634 Y-0.0854
G1 X0.6803 Y-0.0842
G1 X0.7266 Y-0.0833
G1 X0.7728 Y-0.0826
G1 X0.8191 Y-0.0821
G1 X0.8654 Y-0.0817
G1 X0.9117 Y-0.0814
G1 X0.958 Y-0.0812
G1 X1.0043 Y-0.0811
G1 X1.0969 Y-0.0809
G1 X1.2357 Y-0.0807
G1 X1.5135 Y-0.0806
G1 X1.7218
G1 X1.7441 Y-0.0865
G1 X1.7852 Y-0.1079
G1 X1.8182 Y-0.1404
G1 X1.844 Y-0.1788
G1 X1.8641 Y-0.2205
G1 X1.8795 Y-0.2642
G1 X1.8912 Y-0.3089
G1 X1.9001 Y-0.3544
G1 X1.9069 Y-0.4002
G1 X1.9119 Y-0.4462
G1 X1.9158 Y-0.4923
G1 X1.9186 Y-0.5385
G1 X1.9208 Y-0.5847
G1 X1.9224 Y-0.631
G1 X1.9236 Y-0.6773
G1 X1.9246 Y-0.7235
G1 X1.9252 Y-0.7698
G1 X1.9257 Y-0.8161
G1 X1.9261 Y-0.8624
G1 X1.9264 Y-0.9087
G1 X1.9266 Y-0.955
G1 X1.9268 Y-1.0013
G1 X1.927 Y-1.0939
G1 X1.9272 Y-1.2327
G1 Y-1.5105
G1 X1.9273 Y-1.7188
G1 X1.9222 Y-1.7413
G1 X1.9018 Y-1.7829
G1 X1.8698 Y-1.8164
G1 X1.8317 Y-1.8426
G1 X1.7901 Y-1.863
G1 X1.7466 Y-1.8786
G1 X1.7018 Y-1.8906
G1 X1.6564 Y-1.8996
G1 X1.6107 Y-1.9065
G1 X1.5647 Y-1.9117
G1 X1.5185 Y-1.9156
G1 X1.4723 Y-1.9185
G1 X1.4261 Y-1.9207
G1 X1.3799 Y-1.9223
G1 X1.3336 Y-1.9236
G1 X1.2873 Y-1.9245
G1 X1.241 Y-1.9252
G1 X1.1947 Y-1.9257
G1 X1.1484 Y-1.9261
G1 X1.1022 Y-1.9264
G1 X1.0559 Y-1.9266
G1 X1.0096 Y-1.9268
G1 X0.917 Y-1.927
G1 X0.7781 Y-1.9272
G1 X0.5004
G1 X0.4541
G1 X0.4312 Y-1.9236
G1 X0.3885 Y-1.9059
G1 X0.3534 Y-1.8758
G1 X0.3253 Y-1.8389
G1 X0.3033 Y-1.7982
G1 X0.2862 Y-1.7552
G1 X0.273 Y-1.7108
G1 X0.2628 Y-1.6657
G1 X0.2551 Y-1.62
G1 X0.2492 Y-1.5741
G1 X0.2447 Y-1.5281
G1 X0.2412 Y-1.4819
G1 X0.2387 Y-1.4357
G1 X0.2367 Y-1.3894
G1 X0.2352 Y-1.3432
G1 X0.2341 Y-1.2969
G1 X0.2332 Y-1.2506
G1 X0.2326 Y-1.2043
G1 X0.2321 Y-1.158
G1 X0.2317 Y-1.1118
G1 X0.2315 Y-1.0655
G1 X0.2313 Y-1.0192
G1 X0.231 Y-0.9266
G1 X0.2308 Y-0.834
G1 Y-0.7877
G1 X0.2307 Y-0.6026
G1 X0.2306 Y-0.51
G1 X0.2318 Y-0.4637
G1 X0.248 Y-0.4204
G1 X0.275 Y-0.3828
G1 X0.3091 Y-0.3514
G1 X0.3476 Y-0.3258
G1 X0.3891 Y-0.3052
G1 X0.4324 Y-0.2889
G1 X0.4768 Y-0.2759
G1 X0.522 Y-0.2658
G1 X0.5676 Y-0.2578
G1 X0.6135 Y-0.2516
G1 X0.6595 Y-0.2468
G1 X0.7057 Y-0.2431
G1 X0.7518 Y-0.2402
G1 X0.7981 Y-0.238
G1 X0.8443 Y-0.2363
G1 X0.8906 Y-0.2349
G1 X0.9369 Y-0.2339
G1 X0.9832 Y-0.2332
G1 X1.0295 Y-0.2326
G1 X1.0757 Y-0.2321
G1 X1.122 Y-0.2317
G1 X1.1683 Y-0.2315
G1 X1.2146 Y-0.2313
G1 X1.3072 Y-0.231
G1 X1.3998 Y-0.2308
G1 X1.5386 Y-0.2307
G1 X1.5826 Y-0.2452
G1 X1.621 Y-0.2711
G1 X1.6531 Y-0.3045
G1 X1.6793 Y-0.3426
G1 X1.7005 Y-0.3838
G1 X1.7173 Y-0.4269
G1 X1.7306 Y-0.4712
G1 X1.7411 Y-0.5163
G1 X1.7492 Y-0.5619
G1 X1.7556 Y-0.6077
G1 X1.7606 Y-0.6537
G1 X1.7644 Y-0.6999
G1 X1.7674 Y-0.7461
G1 X1.7697 Y-0.7923
G1 X1.7714 Y-0.8386
G1 X1.7728 Y-0.8848
G1 X1.7738 Y-0.9311
G1 X1.7746 Y-0.9774
G1 X1.7753 Y-1.0237
G1 X1.7757 Y-1.07
G1 X1.7761 Y-1.1162
G1 X1.7764 Y-1.1625
G1 X1.7766 Y-1.2088
G1 X1.7769 Y-1.3014
G1 X1.777 Y-1.394
G1 X1.7772 Y-1.5328
G1 X1.7645 Y-1.5774
G1 X1.7398 Y-1.6165
G1 X1.7073 Y-1.6494
G1 X1.6697 Y-1.6764
G1 X1.6288 Y-1.6981
G1 X1.5859 Y-1.7154
G1 X1.5416 Y-1.7292
G1 X1.4966 Y-1.7399
G1 X1.4511 Y-1.7484
G1 X1.4053 Y-1.7549
G1 X1.3593 Y-1.76
G1 X1.3132 Y-1.764
G1 X1.267 Y-1.7671
G1 X1.2208 Y-1.7694
G1 X1.1745 Y-1.7713
G1 X1.1282 Y-1.7727
G1 X1.082 Y-1.7737
G1 X1.0357 Y-1.7746
G1 X0.9894 Y-1.7752
G1 X0.9431 Y-1.7757
G1 X0.8968 Y-1.7761
G1 X0.8505 Y-1.7763
G1 X0.8042 Y-1.7766
G1 X0.758 Y-1.7767
G1 X0.6654 Y-1.7769
G1 X0.6191 Y-1.7759
G1 X0.5755 Y-1.7603
G1 X0.5375 Y-1.7338
G1 X0.5057 Y-1.7003
G1 X0.4972 Y-1.6878
G1 X0.4881 Y-1.6766
G1 X0.4773 Y-1.667
G1 X0.4652 Y-1.6593
G1 X0.4568 Y-1.655
G1 X0.4315 Y-1.6401
G1 X0.4291 Y-1.6385
G1 X0.4268 Y-1.6366
G1 X0.409 Y-1.621
G1 X0.3978 Y-1.6107
G1 X0.3971 Y-1.6101
G1 X0.3866 Y-1.5985
G1 X0.3713 Y-1.5811
G1 X0.3694 Y-1.5787
G1 X0.3677 Y-1.5764
G1 X0.3529 Y-1.551
G1 X0.3485 Y-1.5427
G1 X0.3417 Y-1.5261
G1 X0.3396 Y-1.5203
G1 X0.3364 Y-1.509
G1 X0.3304 Y-1.4866
G1 X0.3284 Y-1.4754
G1 X0.3267 Y-1.4642
G1 X0.3251 Y-1.4529
G1 X0.3245 Y-1.4305
G1 X0.3243 Y-1.4193
G1 Y-0.5886
G1 X0.3245 Y-0.5774
G1 X0.3251 Y-0.5549
G1 X0.3267 Y-0.5437
G1 X0.3284 Y-0.5325
G1 X0.3305 Y-0.5212
G1 X0.3364 Y-0.4988
G1 X0.3396 Y-0.4876
G1 X0.3417 Y-0.4817
G1 X0.3485 Y-0.4652
G1 X0.3529 Y-0.4568
G1 X0.3677 Y-0.4315
G1 X0.3694 Y-0.4291
G1 X0.3713 Y-0.4268
G1 X0.3869 Y-0.409
G1 X0.3971 Y-0.3978
G1 X0.3978 Y-0.3971
G1 X0.4094 Y-0.3866
G1 X0.4268 Y-0.3713
G1 X0.4291 Y-0.3694
G1 X0.4315 Y-0.3677
G1 X0.4568 Y-0.3529
G1 X0.4652 Y-0.3485
G1 X0.4817 Y-0.3417
G1 X0.4876 Y-0.3396
G1 X0.4988 Y-0.3364
G1 X0.5213 Y-0.3304
G1 X0.5325 Y-0.3284
G1 X0.5437 Y-0.3267
G1 X0.5549 Y-0.3251
G1 X0.5774 Y-0.3245
G1 X0.5886 Y-0.3243
G1 X1.4193
G1 X1.4305 Y-0.3245
G1 X1.4529 Y-0.3251
G1 X1.4642 Y-0.3267
G1 X1.4754 Y-0.3284
G1 X1.4867 Y-0.3305
G1 X1.509 Y-0.3364
G1 X1.5203 Y-0.3396
G1 X1.5261 Y-0.3417
G1 X1.5427 Y-0.3485
G1 X1.551 Y-0.3529
G1 X1.5764 Y-0.3677
G1 X1.5787 Y-0.3694
G1 X1.5811 Y-0.3713
G1 X1.5988 Y-0.3869
G1 X1.6101 Y-0.3971
G1 X1.6107 Y-0.3978
G1 X1.6213 Y-0.4094
G1 X1.6366 Y-0.4268
G1 X1.6385 Y-0.4291
G1 X1.6401 Y-0.4315
G1 X1.655 Y-0.4568
G1 X1.6593 Y-0.4652
G1 X1.6662 Y-0.4817
G1 X1.6682 Y-0.4876
G1 X1.6714 Y-0.4988
G1 X1.6774 Y-0.5213
G1 X1.6794 Y-0.5325
G1 X1.6812 Y-0.5437
G1 X1.6828 Y-0.5549
G1 X1.6834 Y-0.5774
G1 X1.6836 Y-0.5886
G1 Y-1.4193
G1 X1.6834 Y-1.4305
G1 X1.6828 Y-1.4529
G1 X1.6812 Y-1.4642
G1 X1.6794 Y-1.4754
G1 X1.6774 Y-1.4867
G1 X1.6714 Y-1.509
G1 X1.6682 Y-1.5203
G1 X1.6662 Y-1.5261
G1 X1.6593 Y-1.5427
G1 X1.655 Y-1.551
G1 X1.6401 Y-1.5764
G1 X1.6385 Y-1.5787
G1 X1.6366 Y-1.5811
G1 X1.621 Y-1.5988
G1 X1.6107 Y-1.6101
G1 X1.6101 Y-1.6107
G1 X1.5985 Y-1.6213
G1 X1.5811 Y-1.6366
G1 X1.5787 Y-1.6385
G1 X1.5764 Y-1.6401
G1 X1.551 Y-1.655
G1 X1.5427 Y-1.6593
G1 X1.5261 Y-1.6662
G1 X1.5203 Y-1.6682
G1 X1.509 Y-1.6714
G1 X1.4866 Y-1.6774
G1 X1.4754 Y-1.6794
G1 X1.4642 Y-1.6812
G1 X1.4529 Y-1.6828
G1 X1.4305 Y-1.6834
G1 X1.4193 Y-1.6836
G1 X0.5886
G1 X0.5774 Y-1.6834
G1 X0.5549 Y-1.6828
G1 X0.5437 Y-1.6812
G1 X0.5325 Y-1.6794
G1 X0.5212 Y-1.6774
G1 X0.4988 Y-1.6714
G1 X0.4876 Y-1.6682
G1 X0.4817 Y-1.6662
G1 X0.4652 Y-1.6593
G3 X0.452 Y-1.657 I-0.0131 J-0.0351
G3 X0.4351 Y-1.661 I0. J-0.0375
G1 X0.4311 Y-1.663 Z-0.0529
G1 X0.4271 Y-1.665 Z-0.0521
G1 X0.4233 Y-1.667 Z-0.0507
G1 X0.4196 Y-1.6688 Z-0.0489
G1 X0.4161 Y-1.6706 Z-0.0465
G1 X0.4129 Y-1.6722 Z-0.0437
G1 X0.4101 Y-1.6736 Z-0.0405
G1 X0.4076 Y-1.6749 Z-0.037
G1 X0.4055 Y-1.6759 Z-0.0331
G1 X0.4038 Y-1.6768 Z-0.0289
G1 X0.4026 Y-1.6774 Z-0.0246
G1 X0.4019 Y-1.6778 Z-0.0202
G1 X0.4017 Y-1.6779 Z-0.0156
G0 Z0.5906
G0 X-0.0294 Y-2.4007
G0 Z0.1969
G0 Z0.0631
G1 Z0.0256 F61.
G1 Z-0.0531
G3 X0. Y-2.1965 I-0.9274 J0.2376
G1 Y-2.1906
G1 X-0.0093 Y-2.1452
G1 X-0.0163 Y-2.0995
G1 X-0.0197 Y-2.0694
G1 X-0.0221 Y-2.057
G1 X-0.0262 Y-2.0451
G1 X-0.0319 Y-2.0339
G1 X-0.0392 Y-2.0236
G1 X-0.0457 Y-2.0158
G1 X-0.0514 Y-2.0087
G1 X-0.0587 Y-1.9974
G1 X-0.0651 Y-1.9862
G1 X-0.0681 Y-1.9802
G1 X-0.0794 Y-1.9519
G1 X-0.082 Y-1.9413
G1 X-0.0845 Y-1.9301
G1 X-0.0868 Y-1.9188
G1 X-0.0886 Y-1.8964
G1 X-0.0891 Y-1.8852
G1 Y-0.1227
G1 X-0.0886 Y-0.1115
G1 X-0.0868 Y-0.089
G1 X-0.0845 Y-0.0778
G1 X-0.082 Y-0.0666
G1 X-0.0794 Y-0.056
G1 X-0.0681 Y-0.0276
G1 X-0.0651 Y-0.0217
G1 X-0.0587 Y-0.0104
G1 X-0.0514 Y0.0008
G1 X-0.0457 Y0.0079
G1 X-0.033 Y0.0232
G1 X-0.0281 Y0.0286
G1 X-0.0232 Y0.033
G1 X-0.0079 Y0.0457
G1 X-0.0008 Y0.0514
G1 X0.0104 Y0.0587
G1 X0.0217 Y0.0651
G1 X0.0276 Y0.0681
G1 X0.056 Y0.0794
G1 X0.0666 Y0.082
G1 X0.0778 Y0.0845
G1 X0.089 Y0.0868
G1 X0.1115 Y0.0886
G1 X0.1227 Y0.0891
G1 X1.8852
G1 X1.8964 Y0.0886
G1 X1.9188 Y0.0868
G1 X1.9301 Y0.0845
G1 X1.9413 Y0.082
G1 X1.9519 Y0.0794
G1 X1.9802 Y0.0681
G1 X1.9862 Y0.0651
G1 X1.9974 Y0.0587
G1 X2.0087 Y0.0514
G1 X2.0158 Y0.0457
G1 X2.0311 Y0.033
G1 X2.036 Y0.0286
G1 X2.0409 Y0.0232
G1 X2.0536 Y0.0079
G1 X2.0593 Y0.0008
G1 X2.0665 Y-0.0104
G1 X2.073 Y-0.0217
G1 X2.076 Y-0.0276
G1 X2.0872 Y-0.056
G1 X2.0898 Y-0.0666
G1 X2.0924 Y-0.0778
G1 X2.0946 Y-0.089
G1 X2.0965 Y-0.1115
G1 X2.0969 Y-0.1227
G1 Y-1.8852
G1 X2.0965 Y-1.8964
G1 X2.0946 Y-1.9188
G1 X2.0924 Y-1.9301
G1 X2.0898 Y-1.9413
G1 X2.0872 Y-1.9519
G1 X2.076 Y-1.9802
G1 X2.073 Y-1.9862
G1 X2.0665 Y-1.9974
G1 X2.0593 Y-2.0087
G1 X2.0536 Y-2.0158
G1 X2.0409 Y-2.0311
G1 X2.036 Y-2.0364
G1 X2.0311 Y-2.0409
G1 X2.0158 Y-2.0536
G1 X2.0087 Y-2.0593
G1 X1.9974 Y-2.0665
G1 X1.9862 Y-2.073
G1 X1.9802 Y-2.076
G1 X1.9519 Y-2.0872
G1 X1.9413 Y-2.0898
G1 X1.9301 Y-2.0924
G1 X1.9188 Y-2.0946
G1 X1.8964 Y-2.0965
G1 X1.8852 Y-2.0969
G1 X0.1227
G1 X0.1115 Y-2.0965
G1 X0.089 Y-2.0946
G1 X0.0778 Y-2.0924
G1 X0.0666 Y-2.0898
G3 X0.0372 Y-2.0964 I-0.0072 J-0.0368
G1 X0.0336 Y-2.0991 Z-0.0529
G1 X0.03 Y-2.1017 Z-0.0521
G1 X0.0265 Y-2.1043 Z-0.0507
G1 X0.0232 Y-2.1067 Z-0.0489
G1 X0.0201 Y-2.109 Z-0.0465
G1 X0.0172 Y-2.1111 Z-0.0437
G1 X0.0146 Y-2.113 Z-0.0405
G1 X0.0124 Y-2.1146 Z-0.037
G1 X0.0105 Y-2.116 Z-0.0331
G1 X0.009 Y-2.1171 Z-0.0289
G1 X0.0079 Y-2.1179 Z-0.0246
G1 X0.0072 Y-2.1184 Z-0.0202
G1 X0.007 Y-2.1186 Z-0.0156
G0 Z0.5906
M5 M9

G30
M30
%
