%
(3-8-Short-sideLnS Holes)
(Machine)
(  vendor Tormach)
(  model 770M)
(  description Tormach 770M 3-axis)
(T4  D=0.25 CR=0. - ZMIN=-0.1518 - flat end mill)
(T6  D=0.1094 CR=0. TAPER=118deg - ZMIN=-0.1244 - drill)
G90 G54 G64 G50 G17 G40 G80 G94 G91.1 G49
G20 (Inch)
G30

N10(Drill5)
T6 G43 H6 M6
S8731 M3 M8
G54
G0 X2.0866 Y0.
G0 Z0.6
G0 Z0.2
G98 G81 X2.0866 Y0. Z-0.1277 R0.2 F17.5
G80
G0 Z0.6
M5 M9
G30

N20(Circular2)
M1
T4 G43 H4 M6
S3820 M3 M8
G0 X-0.0622 Y0.008
G0 Z0.5
G0 Z0.0406
G1 Z-0.0144 F30.
G1 X-0.0621 Y0.0077 Z-0.0183
G1 X-0.0619 Y0.0068 Z-0.0221
G1 X-0.0616 Y0.0053 Z-0.0257
G1 X-0.0612 Y0.0033 Z-0.0291
G1 X-0.0607 Y0.0008 Z-0.032
G1 X-0.06 Y-0.0021 Z-0.0346
G1 X-0.0594 Y-0.0054 Z-0.0366
G1 X-0.0586 Y-0.0089 Z-0.0381
G1 X-0.0578 Y-0.0127 Z-0.0391
G1 X-0.057 Y-0.0165 Z-0.0394
G1 X-0.0544 Y-0.0287
G3 X-0.0257 Y-0.0475 I0.0237 J0.005
G3 X-0.0457 Y0.0475 I-0.01 J0.0475
G3 X-0.0257 Y-0.0475 I0.01 J-0.0475
G3 X-0.007 Y-0.0187 I-0.005 J0.0237
G1 X-0.0096 Y-0.0065
G1 X-0.0104 Y-0.0027 Z-0.0391
G1 X-0.0111 Y0.0011 Z-0.0381
G1 X-0.0119 Y0.0046 Z-0.0366
G1 X-0.0126 Y0.0079 Z-0.0346
G1 X-0.0132 Y0.0108 Z-0.032
G1 X-0.0137 Y0.0133 Z-0.0291
G1 X-0.0141 Y0.0153 Z-0.0257
G1 X-0.0144 Y0.0168 Z-0.0221
G1 X-0.0146 Y0.0177 Z-0.0183
G1 X-0.0147 Y0.018 Z-0.0144
G0 Z0.1
G0 X-0.0622 Y0.008
G0 Z0.0013
G1 Z-0.0537 F30.
G1 X-0.0621 Y0.0077 Z-0.0577
G1 X-0.0619 Y0.0068 Z-0.0615
G1 X-0.0616 Y0.0053 Z-0.0651
G1 X-0.0612 Y0.0033 Z-0.0684
G1 X-0.0607 Y0.0008 Z-0.0714
G1 X-0.06 Y-0.0021 Z-0.074
G1 X-0.0594 Y-0.0054 Z-0.076
G1 X-0.0586 Y-0.0089 Z-0.0775
G1 X-0.0578 Y-0.0127 Z-0.0784
G1 X-0.057 Y-0.0165 Z-0.0787
G1 X-0.0544 Y-0.0287
G3 X-0.0257 Y-0.0475 I0.0237 J0.005
G3 X-0.0457 Y0.0475 I-0.01 J0.0475
G3 X-0.0257 Y-0.0475 I0.01 J-0.0475
G3 X-0.007 Y-0.0187 I-0.005 J0.0237
G1 X-0.0096 Y-0.0065
G1 X-0.0104 Y-0.0027 Z-0.0784
G1 X-0.0111 Y0.0011 Z-0.0775
G1 X-0.0119 Y0.0046 Z-0.076
G1 X-0.0126 Y0.0079 Z-0.074
G1 X-0.0132 Y0.0108 Z-0.0714
G1 X-0.0137 Y0.0133 Z-0.0684
G1 X-0.0141 Y0.0153 Z-0.0651
G1 X-0.0144 Y0.0168 Z-0.0615
G1 X-0.0146 Y0.0177 Z-0.0577
G1 X-0.0147 Y0.018 Z-0.0537
G0 Z0.1
G0 X-0.0622 Y0.008
G0 Z-0.0353
G1 Z-0.0903 F30.
G1 X-0.0621 Y0.0077 Z-0.0942
G1 X-0.0619 Y0.0068 Z-0.098
G1 X-0.0616 Y0.0053 Z-0.1016
G1 X-0.0612 Y0.0033 Z-0.105
G1 X-0.0607 Y0.0008 Z-0.1079
G1 X-0.06 Y-0.0021 Z-0.1105
G1 X-0.0594 Y-0.0054 Z-0.1125
G1 X-0.0586 Y-0.0089 Z-0.114
G1 X-0.0578 Y-0.0127 Z-0.115
G1 X-0.057 Y-0.0165 Z-0.1153
G1 X-0.0544 Y-0.0287
G3 X-0.0257 Y-0.0475 I0.0237 J0.005
G3 X-0.0457 Y0.0475 I-0.01 J0.0475
G3 X-0.0257 Y-0.0475 I0.01 J-0.0475
G3 X-0.007 Y-0.0187 I-0.005 J0.0237
G1 X-0.0096 Y-0.0065
G1 X-0.0104 Y-0.0027 Z-0.115
G1 X-0.0111 Y0.0011 Z-0.114
G1 X-0.0119 Y0.0046 Z-0.1125
G1 X-0.0126 Y0.0079 Z-0.1105
G1 X-0.0132 Y0.0108 Z-0.1079
G1 X-0.0137 Y0.0133 Z-0.105
G1 X-0.0141 Y0.0153 Z-0.1016
G1 X-0.0144 Y0.0168 Z-0.098
G1 X-0.0146 Y0.0177 Z-0.0942
G1 X-0.0147 Y0.018 Z-0.0903
G0 Z0.1
G0 X-0.0622 Y0.008
G0 Z-0.0718
G1 Z-0.1268 F30.
G1 X-0.0621 Y0.0077 Z-0.1307
G1 X-0.0619 Y0.0068 Z-0.1345
G1 X-0.0616 Y0.0053 Z-0.1381
G1 X-0.0612 Y0.0033 Z-0.1415
G1 X-0.0607 Y0.0008 Z-0.1445
G1 X-0.06 Y-0.0021 Z-0.147
G1 X-0.0594 Y-0.0054 Z-0.1491
G1 X-0.0586 Y-0.0089 Z-0.1506
G1 X-0.0578 Y-0.0127 Z-0.1515
G1 X-0.057 Y-0.0165 Z-0.1518
G1 X-0.0544 Y-0.0287
G3 X-0.0257 Y-0.0475 I0.0237 J0.005
G3 X-0.0457 Y0.0475 I-0.01 J0.0475
G3 X-0.0257 Y-0.0475 I0.01 J-0.0475
G3 X-0.007 Y-0.0187 I-0.005 J0.0237
G1 X-0.0096 Y-0.0065
G1 X-0.0104 Y-0.0027 Z-0.1515
G1 X-0.0111 Y0.0011 Z-0.1506
G1 X-0.0119 Y0.0046 Z-0.1491
G1 X-0.0126 Y0.0079 Z-0.147
G1 X-0.0132 Y0.0108 Z-0.1445
G1 X-0.0137 Y0.0133 Z-0.1415
G1 X-0.0141 Y0.0153 Z-0.1381
G1 X-0.0144 Y0.0168 Z-0.1345
G1 X-0.0146 Y0.0177 Z-0.1307
G1 X-0.0147 Y0.018 Z-0.1268
G0 Z0.5
M5 M9

G30
M30
%
