%
(3-8-Short-LnS holes)
(Machine)
(  vendor Tormach)
(  model 770M)
(  description Tormach 770M 3-axis)
(T4  D=0.25 CR=0. - ZMIN=-0.1072 - flat end mill)
(T6  D=0.1094 CR=0. TAPER=118deg - ZMIN=-0.5244 - drill)
G90 G54 G64 G50 G17 G40 G80 G94 G91.1 G49
G20 (Inch)
G30

N10(Drill1)
T6 G43 H6 M6
S8731 M3 M8
G54
G0 X0.1181 Y0.
G0 Z0.6
G0 Z0.2
G98 G81 X0.1181 Y0. Z-0.1277 R0.2 F17.5
G80
G0 Z0.6
M5 M9
G30

N20(Circular1)
M1
T4 G43 H4 M6
S3820 M3 M8
G0 X0.9108 Y0.0231
G0 Z0.5
G0 Z0.0406
G1 Z-0.0144 F30.
G1 Y0.0228 Z-0.0183
G1 Y0.0219 Z-0.0221
G1 Y0.0204 Z-0.0257
G1 Y0.0183 Z-0.0291
G1 Y0.0158 Z-0.032
G1 Y0.0128 Z-0.0346
G1 Y0.0094 Z-0.0366
G1 Y0.0058 Z-0.0381
G1 Y0.002 Z-0.0391
G1 Y-0.0019 Z-0.0394
G1 Y-0.0144
G3 X0.9252 Y-0.0288 I0.0144 J0.
G3 Y0.0288 I0. J0.0288
G3 Y-0.0288 I0. J-0.0288
G3 X0.9396 Y-0.0144 I0. J0.0144
G1 Y-0.0019
G1 Y0.002 Z-0.0391
G1 Y0.0058 Z-0.0381
G1 Y0.0094 Z-0.0366
G1 Y0.0128 Z-0.0346
G1 Y0.0158 Z-0.032
G1 Y0.0183 Z-0.0291
G1 Y0.0204 Z-0.0257
G1 Y0.0219 Z-0.0221
G1 Y0.0228 Z-0.0183
G1 Y0.0231 Z-0.0144
G0 Z0.1
G0 X0.9108
G0 Z0.0013
G1 Z-0.0537 F30.
G1 Y0.0228 Z-0.0577
G1 Y0.0219 Z-0.0615
G1 Y0.0204 Z-0.0651
G1 Y0.0183 Z-0.0684
G1 Y0.0158 Z-0.0714
G1 Y0.0128 Z-0.074
G1 Y0.0094 Z-0.076
G1 Y0.0058 Z-0.0775
G1 Y0.002 Z-0.0784
G1 Y-0.0019 Z-0.0787
G1 Y-0.0144
G3 X0.9252 Y-0.0288 I0.0144 J0.
G3 Y0.0288 I0. J0.0288
G3 Y-0.0288 I0. J-0.0288
G3 X0.9396 Y-0.0144 I0. J0.0144
G1 Y-0.0019
G1 Y0.002 Z-0.0784
G1 Y0.0058 Z-0.0775
G1 Y0.0094 Z-0.076
G1 Y0.0128 Z-0.074
G1 Y0.0158 Z-0.0714
G1 Y0.0183 Z-0.0684
G1 Y0.0204 Z-0.0651
G1 Y0.0219 Z-0.0615
G1 Y0.0228 Z-0.0577
G1 Y0.0231 Z-0.0537
G0 Z0.1
G0 X0.9108
G0 Z-0.0272
G1 Z-0.0822 F30.
G1 Y0.0228 Z-0.0861
G1 Y0.0219 Z-0.09
G1 Y0.0204 Z-0.0936
G1 Y0.0183 Z-0.0969
G1 Y0.0158 Z-0.0999
G1 Y0.0128 Z-0.1025
G1 Y0.0094 Z-0.1045
G1 Y0.0058 Z-0.106
G1 Y0.002 Z-0.1069
G1 Y-0.0019 Z-0.1072
G1 Y-0.0144
G3 X0.9252 Y-0.0288 I0.0144 J0.
G3 Y0.0288 I0. J0.0288
G3 Y-0.0288 I0. J-0.0288
G3 X0.9396 Y-0.0144 I0. J0.0144
G1 Y-0.0019
G1 Y0.002 Z-0.1069
G1 Y0.0058 Z-0.106
G1 Y0.0094 Z-0.1045
G1 Y0.0128 Z-0.1025
G1 Y0.0158 Z-0.0999
G1 Y0.0183 Z-0.0969
G1 Y0.0204 Z-0.0936
G1 Y0.0219 Z-0.09
G1 Y0.0228 Z-0.0861
G1 Y0.0231 Z-0.0822
G0 Z0.5
M5 M9

G30
M30
%
